tarun2001sharma/OffPolicy-Enhancements-DDPG-BC-finetune-SAC/policy/exp_local/2025.03.28_rl/rl_sac/train.csv
actor_logprob,actor_loss,alpha_loss,alpha_value,batch_reward,buffer_size,critic_loss,critic_target_q,episode,episode_length,episode_reward,fps,frame,step,total_time
-2.383333320617676,-2.350861530303955,-0.005272502864245326,0.9987005496025085,-2.3965207004547118,550.0,0.1295618999004364,-0.07867146322503686,11.0,50.0,-35.35964390899992,13.197605245633243,550,550.0,3.788567066192627
-2.458690481185913,-2.4082767486572267,-0.016549602262675763,0.9961986255645752,-2.374679594039917,600.0,0.11342529714107513,-0.0027948410995304583,12.0,50.0,-38.148017678006454,320.1436191162417,600,600.0,3.9447481632232666
-2.5527385330200194,-2.5784953117370604,-0.028414071798324586,0.9936836266517639,-2.364886360168457,650.0,0.10807198405265808,0.09577956294640899,13.0,50.0,-39.85051848057212,329.8477179715442,650,650.0,4.096333026885986
-2.7203214359283447,-2.8948698234558106,-0.04156278043985367,0.9911408591270446,-2.358252592086792,700.0,0.10200043708086014,0.2800513768196106,14.0,50.0,-37.00113636810002,346.69743789821024,700,700.0,4.240551948547363
-3.000026159286499,-3.462595987319946,-0.05716703355312348,0.9885421967506409,-2.357225179672241,750.0,0.13149277716875077,0.5880145943164825,15.0,50.0,-32.07512075164251,335.2600195034611,750,750.0,4.38969087600708
-3.5081425094604493,-4.495453653335571,-0.07808536767959595,0.9858407497406005,-2.322272539138794,800.0,0.31098474383354185,1.2183300685882568,16.0,50.0,-38.05477107437534,337.609409234405,800,800.0,4.537791013717651
-4.380318107604981,-6.259846286773682,-0.10920228898525237,0.9829537987709045,-2.320829334259033,850.0,0.840387510061264,2.2525285863876343,17.0,50.0,-44.69147160461984,344.7732092656222,850,850.0,4.682813882827759
-5.5217074775695805,-8.71863447189331,-0.15282523036003112,0.9797841334342956,-2.3277319717407225,900.0,1.571103515625,3.652554864883423,18.0,50.0,-38.51428578287923,338.0818269604342,900,900.0,4.83070707321167
-5.861270217895508,-10.551740455627442,-0.18647772550582886,0.9764276552200317,-2.3345906734466553,950.0,0.7628573560714722,4.450856494903564,19.0,50.0,-36.47664861519686,338.7787080817985,950,950.0,4.978296756744385
-5.898613147735595,-11.728026237487793,-0.2139648312330246,0.9731471633911133,-2.3254432010650636,1000.0,0.45197500586509703,5.121734981536865,20.0,50.0,-43.76852739044117,322.44084016119336,1000,1000.0,5.133364915847778
-5.918848781585694,-12.550364379882813,-0.24021191656589508,0.9699984478950501,-2.3342598628997804,1050.0,0.45580893516540527,5.823465690612793,21.0,50.0,-22.870667635382528,76.35814435121763,1050,1050.0,5.7881739139556885
-5.945230159759522,-13.481581344604493,-0.26599956035614014,0.9669564461708069,-2.3050128841400146,1100.0,0.5078186547756195,6.656825942993164,22.0,50.0,-25.524991183015274,302.2956661121858,1100,1100.0,5.953574895858765
-5.986793766021728,-14.417435455322266,-0.2919182050228119,0.9639947438240051,-2.2653560924530027,1150.0,0.5927555537223816,7.5788908958435055,23.0,50.0,-37.900466191202256,205.67653554797988,1150,1150.0,6.196675062179565
-6.0477019309997555,-15.340531883239747,-0.3184358537197113,0.9610916233062744,-2.262616529464722,1200.0,0.6271643781661987,8.465331840515137,24.0,50.0,-22.965047498174687,194.82999365478108,1200,1200.0,6.453310012817383
-6.160591506958008,-16.419908905029295,-0.3472745931148529,0.9582283091545105,-2.241038303375244,1250.0,0.6130812454223633,9.487094345092773,25.0,50.0,-33.156287266492164,200.9478455008001,1250,1250.0,6.702131032943726
-6.363800182342529,-17.741477279663087,-0.3808474600315094,0.9553790330886841,-2.2171165466308596,1300.0,0.5925808227062226,10.648529930114746,26.0,50.0,-15.486242396452745,205.12150391971792,1300,1300.0,6.945889949798584
-6.764900722503662,-19.551792602539063,-0.4255364596843719,0.9525091648101807,-2.188709201812744,1350.0,0.5375381851196289,12.083173942565917,27.0,50.0,-17.519855322996868,191.29816086124455,1350,1350.0,7.207262992858887
-7.603608131408691,-22.657971954345705,-0.49626358270645143,0.9495465540885926,-2.1294655227661132,1400.0,0.6618016827106475,14.184875068664551,28.0,50.0,-11.738204470309878,213.55948427646058,1400,1400.0,7.441390752792358
-9.101645393371582,-27.44729637145996,-0.6109705495834351,0.946371648311615,-2.103866248130798,1450.0,1.304379415512085,17.079626579284668,29.0,50.0,-8.228670941768783,188.54041457904233,1450,1450.0,7.706585884094238
-12.023772468566895,-36.022407913208006,-0.8250050139427185,0.942802517414093,-2.0387317657470705,1500.0,4.039355087280273,22.00212287902832,30.0,50.0,-0.942110267470655,192.14718305342532,1500,1500.0,7.966804027557373
-17.210365715026857,-50.2696565246582,-1.2168140840530395,0.9385698628425598,-1.9870481538772582,1550.0,14.785990753173827,29.854561538696288,31.0,50.0,12.776808698487542,64.43995688336015,1550,1550.0,8.742720127105713
-27.624807205200195,-76.15049682617187,-2.0419544267654417,0.933370156288147,-1.8700840091705322,1600.0,69.71885375976562,44.3870263671875,32.0,50.0,-1.8015451335266484,250.5501069868187,1600,1600.0,8.94228196144104
-45.42302474975586,-116.55835205078125,-3.5937788772583006,0.9270036911964417,-1.7948983478546143,1650.0,308.2865386962891,68.13035064697266,33.0,50.0,-1.1613578996989578,160.45232493640137,1650,1650.0,9.253901720046997
-73.41906021118164,-173.80994018554688,-6.310459117889405,0.9197566676139831,-1.7630210304260254,1700.0,1284.5185668945312,103.94611846923829,34.0,50.0,3.249326823129662,173.03205770287508,1700,1700.0,9.542865991592407
-115.49468353271484,-251.49500610351564,-10.820397758483887,0.9120327401161193,-1.7423424863815307,1750.0,4541.67220703125,156.40470550537108,35.0,50.0,3.7984527910978656,176.50818553141778,1750,1750.0,9.826138973236084
-179.2500616455078,-357.58276733398435,-18.262635765075682,0.9041204261779785,-1.6977542209625245,1800.0,14073.39486328125,234.0245684814453,36.0,50.0,3.7306146601370234,207.80773282044117,1800,1800.0,10.06674575805664
-273.06590454101564,-498.7604553222656,-30.134589157104493,0.8961823272705078,-1.6263748025894165,1850.0,40572.89421875,343.9587976074219,37.0,50.0,3.2797262624319963,182.15655294795147,1850,1850.0,10.341234922409058
-400.8650280761719,-677.6242797851562,-47.687166137695314,0.8882860398292541,-1.574927444458008,1900.0,100924.74671875,489.98961669921874,38.0,50.0,0.010705789671760613,186.4126826102995,1900,1900.0,10.609457969665527
-571.1076208496094,-900.9397265625,-72.85867218017579,0.8805403304100037,-1.5280215978622436,1950.0,227798.230625,680.269404296875,39.0,50.0,17.066441457376676,187.63640007587227,1950,1950.0,10.875930786132812
-790.7925268554687,-1173.817900390625,-107.65122039794922,0.8729412341117859,-1.4783541440963746,2000.0,472546.5825,920.4576708984375,40.0,50.0,3.2183006408480335,183.02406805872403,2000,2000.0,11.149120092391968
-1075.252607421875,-1509.7704345703125,-155.50379974365234,0.8655201816558837,-1.4392856121063233,2050.0,926118.655,1221.8217578125,41.0,50.0,2.7637834418788074,70.26545820178362,2050,2050.0,11.860706090927124
-1443.8788818359376,-1927.0324658203126,-220.87923767089845,0.8581808805465698,-1.3768234968185424,2100.0,1723061.84,1604.5150634765625,42.0,50.0,-2.743726956710489,307.12381889648464,2100,2100.0,12.023506879806519
-1892.1760009765626,-2414.6302734375,-305.2662561035156,0.85102135181427,-1.340120062828064,2150.0,3070676.94,2059.8185302734373,43.0,50.0,-1.035063885740037,188.74115086857836,2150,2150.0,12.288420915603638
-2399.217314453125,-2952.02986328125,-406.77132690429687,0.844044930934906,-1.322450075149536,2200.0,5067807.87,2567.992822265625,44.0,50.0,8.137140495810785,205.93687613357727,2200,2200.0,12.531213760375977
-3128.674580078125,-3691.39041015625,-555.8294506835938,0.8372062420845032,-1.2505284023284913,2250.0,8659417.06,3278.327724609375,45.0,50.0,15.48856772950842,183.11308094024415,2250,2250.0,12.804269790649414
-3952.037333984375,-4508.313935546875,-734.0560229492188,0.8304021024703979,-1.210793776512146,2300.0,13850377.6,4066.529013671875,46.0,50.0,7.393376414809072,196.4072349794944,2300,2300.0,13.058843851089478
-4905.361015625,-5428.50765625,-950.581142578125,0.8237555360794068,-1.1896498322486877,2350.0,21479025.52,4959.58833984375,47.0,50.0,9.5402797164083,194.88847462730396,2350,2350.0,13.315401077270508
-5938.25203125,-6406.48935546875,-1197.6381958007812,0.8172761344909668,-1.2152154397964479,2400.0,31725882.56,5922.82939453125,48.0,50.0,-2.6432648959723366,195.7867358265625,2400,2400.0,13.570781946182251
-7317.65326171875,-7676.08576171875,-1532.7153564453124,0.8109296369552612,-1.158108458518982,2450.0,47829654.4,7173.4950390625,49.0,50.0,11.138129369700893,206.9940561380097,2450,2450.0,13.812335968017578
-8896.08154296875,-9099.9965234375,-1932.23109375,0.8046617197990418,-1.1120433902740479,2500.0,70180569.44,8578.04505859375,50.0,50.0,6.2743160860932345,201.13768348766837,2500,2500.0,14.060922861099243
-10897.9291796875,-10868.6617578125,-2451.148291015625,0.7984399175643921,-1.0477311134338378,2550.0,104070426.56,10348.315234375,51.0,50.0,1.6615940047811328,70.85312876496103,2550,2550.0,14.766608953475952
-13043.0930859375,-12730.754453125,-3034.382548828125,0.7923012256622315,-1.0065524315834045,2600.0,147620991.68,12201.250859375,52.0,50.0,-2.3478880207997115,283.104719554949,2600,2600.0,14.943222999572754
-15109.3473828125,-14499.4273046875,-3629.928720703125,0.7863069653511048,-1.0519557690620422,2650.0,197772675.84,13990.7325390625,53.0,50.0,3.584352698632193,183.46004893662996,2650,2650.0,15.21576189994812
-17887.6893359375,-16831.8009765625,-4430.63166015625,0.7804608774185181,-1.020266089439392,2700.0,273657325.44,16346.9687890625,54.0,50.0,5.9579007361249126,176.44328899433773,2700,2700.0,15.499139785766602
-20928.0325,-19343.7484375,-5338.83390625,0.7746878290176391,-0.9909741997718811,2750.0,371526737.92,18878.9759375,55.0,50.0,0.4477067732659883,129.2606542937992,2750,2750.0,15.885955810546875
-24315.10703125,-22103.4840625,-6381.75388671875,0.7690174865722657,-0.9910774803161622,2800.0,494820592.64,21690.423828125,56.0,50.0,0.6851719605881019,195.6807788594233,2800,2800.0,16.141474723815918
-28502.09953125,-25464.610390625,-7689.05263671875,0.7634171676635743,-0.9532891035079956,2850.0,668833328.64,25098.021796875,57.0,50.0,8.489710998302202,192.19737065192984,2850,2850.0,16.40162491798401
-32734.59328125,-28810.18484375,-9069.15689453125,0.757866985797882,-0.9260799527168274,2900.0,876177402.88,28420.113984375,58.0,50.0,7.129830274062311,188.76697384457242,2900,2900.0,16.666501998901367
-38053.96546875,-32967.29546875,-10818.2672265625,0.752399456501007,-0.8818958616256714,2950.0,1161312386.56,32671.541875,59.0,50.0,0.9430447234656096,192.70866069377442,2950,2950.0,16.92596197128296
-43840.54875,-37426.7709375,-12780.24046875,0.746992084980011,-0.8673708057403564,3000.0,1519477990.4,37239.5403125,60.0,50.0,12.873527232057087,173.87489045515107,3000,3000.0,17.213526010513306
-49802.90703125,-41958.31578125,-14875.4484375,0.7416450881958008,-0.8503498196601867,3050.0,1935461975.04,41808.52109375,61.0,50.0,3.4851607287205493,70.89926340429733,3050,3050.0,17.918753147125244
-56922.19953125,-47311.12703125,-17407.0375390625,0.7363827180862427,-0.8092266225814819,3100.0,2484302955.52,47240.0871875,62.0,50.0,-0.2584878982023664,284.7402764916892,3100,3100.0,18.094352960586548
-64512.59578125,-52943.2915625,-20184.844140625,0.7311956286430359,-0.7942254018783569,3150.0,3154216929.28,53025.4946875,63.0,50.0,1.2765601240361537,214.9564839481067,3150,3150.0,18.326957941055298
-72352.8865625,-58688.756875,-23145.26046875,0.7260883331298829,-0.7996716499328613,3200.0,3918734376.96,58947.99375,64.0,50.0,-0.318364818631661,208.59753441062784,3200,3200.0,18.566654920578003
-79542.2228125,-63869.59375,-25994.823984375,0.721096773147583,-0.8586153602600097,3250.0,4714378219.52,64379.3375,65.0,50.0,6.262358321545573,208.75617413601913,3250,3250.0,18.806169986724854
-91350.5,-72393.60109375,-30475.688828125,0.7161810064315796,-0.7633876442909241,3300.0,6073658183.68,72871.7440625,66.0,50.0,2.4668573517069436,204.96573401148584,3300,3300.0,19.050112009048462
-102852.3590625,-80574.45625,-35021.260625,0.7112719821929931,-0.7385762119293213,3350.0,7571799367.68,81329.9884375,67.0,50.0,10.538982820292777,189.163869703773,3350,3350.0,19.314434051513672
-112702.6778125,-87444.655,-39145.6915625,0.70643550157547,-0.7620059299468994,3400.0,9030338580.48,88395.294375,68.0,50.0,6.664386576777462,189.40253566054878,3400,3400.0,19.578423023223877
-127067.8565625,-97484.554375,-44991.30171875,0.7016716432571412,-0.7185976195335388,3450.0,11226380124.16,98697.595625,69.0,50.0,2.2932470429260334,190.56200358197887,3450,3450.0,19.840806007385254
-139175.705,-105769.0846875,-50215.870625,0.6969633460044861,-0.7429674339294433,3500.0,13371484282.88,107198.5040625,70.0,50.0,8.39163613969296,186.27938995034685,3500,3500.0,20.109219789505005
-155033.605,-116609.6471875,-56970.3475,0.6923365736007691,-0.7089612138271332,3550.0,16290195087.36,118372.89125,71.0,50.0,-3.3963771625220716,66.86508992973776,3550,3550.0,20.856994152069092
-173213.285,-128940.1453125,-64804.18734375,0.6877404356002808,-0.6585352027416229,3600.0,19950158315.52,130976.085625,72.0,50.0,6.037711900580229,327.60270623649734,3600,3600.0,21.009618997573853
-190024.645,-140151.08375,-72357.533125,0.6831793665885926,-0.6748548567295074,3650.0,23721911091.2,142703.08375,73.0,50.0,6.959846175097077,161.07430386688563,3650,3650.0,21.320035934448242
-209914.771875,-153346.133125,-81318.5784375,0.6786858606338501,-0.6383163857460022,3700.0,28460613877.76,155960.32875,74.0,50.0,11.00430789317537,177.79872811483423,3700,3700.0,21.601253986358643
-229548.871875,-166195.833125,-90430.233125,0.6742395067214966,-0.6494101881980896,3750.0,33659044823.04,169354.365625,75.0,50.0,5.813828327858165,179.02999580842362,3750,3750.0,21.88053798675537
-251345.910625,-180358.793125,-100659.4225,0.6698743724822998,-0.6303159070014953,3800.0,39780406231.04,184157.76125,76.0,50.0,5.583580203124644,159.91715717336982,3800,3800.0,22.193200826644897
-273030.858125,-194270.603125,-111101.4640625,0.6655451345443726,-0.6306304240226746,3850.0,46390466150.4,198362.81,77.0,50.0,11.763121176447275,184.91952571623568,3850,3850.0,22.46358895301819
-300062.93375,-211601.198125,-124032.24125,0.661288001537323,-0.5943339419364929,3900.0,55148156026.88,216131.92125,78.0,50.0,9.128872496908121,207.2417694812414,3900,3900.0,22.704854011535645
-330660.3275,-231095.019375,-138803.931875,0.657068419456482,-0.5489271026849747,3950.0,65669138841.6,236160.156875,79.0,50.0,2.491685739682776,211.29931093407274,3950,3950.0,22.94148588180542
-357102.83375,-247579.5275,-152187.00625,0.6528537178039551,-0.5526010489463806,4000.0,75757547192.32,253020.905,80.0,50.0,-1.896881175349776,210.13273374194526,4000,4000.0,23.179430961608887
-384877.14,-264728.879375,-166470.7575,0.6487289786338806,-0.5858551084995269,4050.0,87352694538.24,271189.541875,81.0,50.0,4.922522092065035,70.30342933173674,4050,4050.0,23.890634059906006
-417345.91375,-284759.6225,-183131.71875,0.6446742177009582,-0.5817412996292114,4100.0,101081928171.52,291550.25625,82.0,50.0,-2.5441279647026533,282.42645593281514,4100,4100.0,24.067670106887817
-449113.43125,-304077.46,-199875.73625,0.6406676840782165,-0.576250855922699,4150.0,115928405770.24,311790.79625,83.0,50.0,2.5108273217548813,208.31345873616436,4150,4150.0,24.30769371986389
-487153.7625,-327221.335,-219823.440625,0.6367144107818603,-0.5590400493144989,4200.0,134344676147.2,335753.205,84.0,50.0,12.952806406991101,189.9102225329308,4200,4200.0,24.570976972579956
-528070.435,-351919.15875,-241549.20375,0.6327847504615783,-0.5279757440090179,4250.0,155451156725.76,360629.54,85.0,50.0,16.65390683195234,196.12767107555652,4250,4250.0,24.825913906097412
-574952.5675,-380121.71375,-266548.404375,0.6288701438903809,-0.489140864610672,4300.0,180858427146.24,389794.9775,86.0,50.0,7.54074764532305,214.99637085364904,4300,4300.0,25.058475971221924
-618560.7475,-405877.64,-290597.78375,0.6249964022636414,-0.4867879557609558,4350.0,206786596044.8,416481.645,87.0,50.0,12.086597105271917,204.51340162955233,4350,4350.0,25.302958965301514
-659847.475,-429876.53125,-314047.43,0.6211798477172852,-0.5164265787601471,4400.0,232306244976.64,441808.97875,88.0,50.0,5.513567393635997,212.5064725165043,4400,4400.0,25.538245916366577
-708077.04,-457910.87125,-341296.96625,0.617409508228302,-0.4981923711299896,4450.0,265615806955.52,469917.6775,89.0,50.0,1.5438372632083972,221.888913341572,4450,4450.0,25.763585090637207
-765135.34,-491122.8275,-373439.76,0.6136832332611084,-0.46093523800373076,4500.0,304179787857.92,504766.42125,90.0,50.0,9.826900235458078,208.716907033658,4500,4500.0,26.00314497947693
-830259.92,-528901.14875,-410258.635,0.6099698710441589,-0.4124710845947266,4550.0,350667084922.88,543090.34875,91.0,50.0,7.838883433485853,70.64114742281237,4550,4550.0,26.710948944091797
-880107.0925,-556809.60375,-440226.28125,0.6062882041931152,-0.4458181893825531,4600.0,391968891863.04,572487.285,92.0,50.0,10.85107101905995,277.33245877011905,4600,4600.0,26.89123797416687
-951687.04,-597663.1075,-481753.85,0.6026485252380371,-0.39562545776367186,4650.0,449554554552.32,614384.8325,93.0,50.0,15.596568867440928,189.7727416689742,4650,4650.0,27.154711961746216
-992791.1525,-619541.215,-508502.97625,0.5990563344955444,-0.45593689024448397,4700.0,488285976657.92,637286.6375,94.0,50.0,-0.2924654109550726,186.26483038427992,4700,4700.0,27.423148155212402
-1092335.58,-676406.0675,-565951.9625,0.5955265021324158,-0.3580840957164764,4750.0,575200570900.48,695613.9525,95.0,50.0,2.3484155634501995,203.00624946759493,4750,4750.0,27.66944694519043
-1125379.965,-692737.17,-589744.19,0.5919941902160645,-0.4655527400970459,4800.0,613090842378.24,712925.9875,96.0,50.0,-4.875398256476622,199.72115347986744,4800,4800.0,27.91979694366455
-1214461.935,-742283.6775,-643506.7275,0.588554880619049,-0.39489777624607086,4850.0,699649962803.2,763575.0725,97.0,50.0,-2.6210923369160284,210.94288760586613,4850,4850.0,28.156827926635742
-1291141.04,-783879.88,-691674.96,0.5851401901245117,-0.4044452172517776,4900.0,783129232015.36,807349.9175,98.0,50.0,4.922853848008245,206.1115457343801,4900,4900.0,28.399415016174316
-1360166.205,-820521.2475,-736524.0575,0.5817612981796265,-0.42702747344970704,4950.0,861032250081.28,845873.435,99.0,50.0,-2.805221858884005,206.7259428661554,4950,4950.0,28.641282081604004
-1446350.985,-866774.165,-791513.075,0.5784229779243469,-0.4257966515421867,5000.0,961832747008.0,893912.4275,100.0,50.0,-0.15771803028717457,212.73346236402074,5000,5000.0,28.87631893157959
-1547752.97,-921325.215,-855891.63,0.5751151871681214,-0.38023591637611387,5050.0,1080912657776.64,948475.1125,101.0,50.0,0.4303309177839676,70.35961322128054,5050,5050.0,29.586955070495605
-1630574.79,-964500.8425,-911048.3075,0.5718240571022034,-0.4125633800029755,5100.0,1190010649313.28,995573.315,102.0,50.0,-0.0741924877982374,306.05349491553125,5100,5100.0,29.750324964523315
-1736534.895,-1020468.775,-980158.27,0.5685723972320557,-0.3756120502948761,5150.0,1329870143488.0,1052043.9225,103.0,50.0,0.1774099546410266,212.96893945702442,5150,5150.0,29.985100984573364
-1840770.625,-1074799.4475,-1049478.51,0.5653330564498902,-0.3774085593223572,5200.0,1476208408657.92,1107813.565,104.0,50.0,8.013740943623285,181.45204761191977,5200,5200.0,30.260658979415894
-1936811.67,-1123847.84,-1115241.2025,0.5621368646621704,-0.38072506606578826,5250.0,1617397625651.2,1159448.9275,105.0,50.0,15.52854297961425,183.09581494432004,5250,5250.0,30.533740997314453
-2047878.155,-1180844.385,-1190736.9625,0.5589828515052795,-0.3753793928027153,5300.0,1787434410967.04,1219509.15,106.0,50.0,0.2558359156750125,188.0194478886776,5300,5300.0,30.799670934677124
-2177061.1,-1247349.43,-1278079.99,0.5558412861824036,-0.3438521784543991,5350.0,1988751010037.76,1286963.995,107.0,50.0,4.550780986566165,174.87837786001737,5350,5350.0,31.085582971572876
-2291523.63,-1304859.66,-1358154.955,0.5527282643318177,-0.34805902749300005,5400.0,2180863990169.6,1346035.16,108.0,50.0,1.0762313139043052,184.4037560419288,5400,5400.0,31.356728076934814
-2419232.36,-1369085.91,-1447374.185,0.5496504139900208,-0.3546254873275757,5450.0,2399685579898.88,1413966.07,109.0,50.0,11.467012672511226,194.28651895661713,5450,5450.0,31.614081144332886
-2547733.84,-1433023.47,-1538433.325,0.5465969109535217,-0.3351006728410721,5500.0,2630795562844.16,1479800.465,110.0,50.0,0.34999487408499697,183.8695734131768,5500,5500.0,31.886013984680176
-2669497.36,-1492560.79,-1626748.265,0.5435800886154175,-0.36101190745830536,5550.0,2861321599057.92,1542310.115,111.0,50.0,13.700132250448437,60.23124594681998,5550,5550.0,32.71614909172058
-2809841.26,-1561603.005,-1727697.72,0.5405924534797668,-0.34438988119363784,5600.0,3127848143421.44,1613113.34,112.0,50.0,18.049990812711997,335.60607151715914,5600,5600.0,32.86513304710388
-3000613.58,-1657170.63,-1861496.81,0.5376245331764221,-0.2867723447084427,5650.0,3500589480673.28,1709580.905,113.0,50.0,8.16166219354965,216.72159235938662,5650,5650.0,33.095844984054565
-3145210.94,-1726692.59,-1968582.14,0.5346698379516601,-0.2811308765411377,5700.0,3813134764605.44,1780897.855,114.0,50.0,9.39998802185059,162.6217345216189,5700,5700.0,33.40330696105957
-3299974.57,-1800945.115,-2083555.535,0.5317506003379822,-0.28514948576688764,5750.0,4148894650859.52,1858008.705,115.0,50.0,8.174661803784597,186.72538399691572,5750,5750.0,33.67108106613159
-3426511.94,-1859352.325,-2182115.61,0.5288684868812561,-0.3314948706328869,5800.0,4456765435412.48,1922178.39,116.0,50.0,10.580583410782905,186.54334527942558,5800,5800.0,33.939115047454834
-3622810.98,-1954139.435,-2326673.26,0.5260182404518128,-0.28127427369356156,5850.0,4901914510622.72,2016077.035,117.0,50.0,-2.805221858884005,193.7278122907092,5850,5850.0,34.19720816612244
-3755213.36,-2014230.54,-2431907.86,0.5231911206245422,-0.3323621401190758,5900.0,5232754698485.76,2080097.05,118.0,50.0,3.5653613395630437,188.572625771163,5900,5900.0,34.4623589515686
-3990665.36,-2127680.945,-2605796.25,0.5204069757461548,-0.28421642273664477,5950.0,5806531081666.56,2199399.2,119.0,50.0,17.15135137497181,190.60703531655108,5950,5950.0,34.7246789932251
-4136304.85,-2193081.57,-2722997.71,0.5176243901252746,-0.3130340276658535,6000.0,6192351768739.84,2268427.66,120.0,50.0,4.992021157980611,195.55761118094435,6000,6000.0,34.98035788536072
-4354207.43,-2295229.02,-2889623.62,0.5148721766471863,-0.28642024874687194,6050.0,6774044334489.6,2371468.94,121.0,50.0,4.816680382731683,63.06998335999403,6050,6050.0,35.77312898635864
-4606663.66,-2414079.55,-3081714.65,0.5121403098106384,-0.2565595115721226,6100.0,7447980760104.96,2495929.3,122.0,50.0,5.514987792968755,299.2058849546159,6100,6100.0,35.94023776054382
-4756467.04,-2478929.17,-3207252.54,0.5094211578369141,-0.2949302439391613,6150.0,7904564451737.6,2563741.79,123.0,50.0,-2.8441993832662327,235.61678926015847,6150,6150.0,36.15244698524475
-4988974.7,-2585379.26,-3390318.19,0.5067354846000671,-0.2752396096289158,6200.0,8577212953395.2,2673727.15,124.0,50.0,-1.1162192617449591,210.9117020859335,6200,6200.0,36.38951396942139
-5214016.16,-2686834.32,-3570714.22,0.5040747547149658,-0.2608904522657394,6250.0,9276604064727.04,2778108.23,125.0,50.0,-1.0753104097682584,202.2907257823367,6250,6250.0,36.636685848236084
-5455843.5,-2795691.05,-3764972.65,0.5014413523674012,-0.2499395203590393,6300.0,10039067127316.48,2890395.34,126.0,50.0,-3.9100171971321096,205.74534359532814,6300,6300.0,36.87970495223999
-5643497.86,-2876243.9,-3923914.99,0.4988327467441559,-0.2962409770488739,6350.0,10678623912591.36,2979783.56,127.0,50.0,0.2558359156750125,191.0400772485664,6350,6350.0,37.14143109321594
-5935785.48,-3008219.35,-4157967.79,0.4962497806549072,-0.2633228050172329,6400.0,11629634613411.84,3113804.13,128.0,50.0,-1.837004608634306,204.37129926677244,6400,6400.0,37.38608384132385
-6173799.52,-3111777.76,-4356754.08,0.4936844372749329,-0.26482124462723733,6450.0,12453168755507.2,3220617.97,129.0,50.0,0.08392674788013643,203.85537718287816,6450,6450.0,37.63135600090027
-6438517.1,-3227498.59,-4576771.08,0.4911357545852661,-0.24770206972956657,6500.0,13394253845626.88,3338409.66,130.0,50.0,-0.5402623659267789,203.92852419737528,6500,6500.0,37.87654089927673
-6794025.4,-3386521.92,-4864667.84,0.4886013233661652,-0.21358468174934386,6550.0,14671506109890.56,3503017.18,131.0,50.0,9.399986806035562,69.95902839723706,6550,6550.0,38.59124517440796
-7075680.2,-3507699.27,-5103014.68,0.48607495307922366,-0.21328166253864766,6600.0,15730034060820.48,3626396.16,132.0,50.0,-0.1338781111320717,264.5754483705251,6600,6600.0,38.78022789955139
-7362784.76,-3630241.14,-5348111.5,0.4835690402984619,-0.21711736127734185,6650.0,16868081276026.88,3756649.66,133.0,50.0,5.8793314730200965,195.12583634250709,6650,6650.0,39.0364727973938
-7537607.92,-3697262.18,-5513700.98,0.4810940623283386,-0.2720351855456829,6700.0,17628775726448.64,3826875.7,134.0,50.0,7.129830274062311,180.36603825512591,6700,6700.0,39.31368708610535
-7983594.8,-3894174.35,-5880599.24,0.4786602818965912,-0.21035905033349991,6750.0,19385585206558.72,4029435.16,135.0,50.0,0.5096630695995419,190.70288516098995,6750,6750.0,39.57587504386902
-8211313.44,-3984490.96,-6090094.5,0.4762258517742157,-0.2444581565260887,6800.0,20394192047964.16,4129652.39,136.0,50.0,3.087786372055966,184.11671644568995,6800,6800.0,39.847442865371704
-8613674.34,-4157027.52,-6432177.12,0.47381639361381533,-0.19783588081598283,6850.0,22128172225003.52,4300215.68,137.0,50.0,14.249661501095472,177.22955437223283,6850,6850.0,40.12956380844116
-8959242.66,-4300836.65,-6735687.18,0.4714261269569397,-0.2072027176618576,6900.0,23670272598999.04,4454291.94,138.0,50.0,12.358727307218224,175.6017503638218,6900,6900.0,40.414299964904785
-9243086.28,-4414055.86,-6995677.9,0.4690471613407135,-0.2006067468225956,6950.0,25060144400302.08,4564814.58,139.0,50.0,4.070178966822732,183.97571029917353,6950,6950.0,40.686075925827026
-9623582.32,-4571513.16,-7332069.92,0.4667053544521332,-0.20519014164805413,7000.0,26806371148103.68,4733866.56,140.0,50.0,18.07660342600185,193.5440167670617,7000,7000.0,40.94441604614258
-9959185.12,-4706489.36,-7637443.3,0.4643707597255707,-0.2095114541053772,7050.0,28451474736414.72,4874582.74,141.0,50.0,9.76874066300704,69.39857274988046,7050,7050.0,41.66489291191101
-10378541.96,-4878880.3,-8010869.04,0.462067106962204,-0.19162061136215924,7100.0,30522515516293.12,5050100.68,142.0,50.0,15.749990634918213,215.4856913280745,7100,7100.0,41.89692807197571
-10784403.88,-5043322.48,-8377747.96,0.45976914405822755,-0.17559410378336907,7150.0,32641488298967.04,5220214.68,143.0,50.0,1.3350866305847102,196.10694675105105,7150,7150.0,42.1518919467926
-11175749.0,-5199371.18,-8737361.84,0.4574865972995758,-0.18824610978364945,7200.0,34623631141109.76,5384995.58,144.0,50.0,3.797841898348951,193.58224895439008,7200,7200.0,42.41017985343933
-11706817.84,-5417666.84,-9210760.64,0.4552248203754425,-0.14931255161762239,7250.0,37371539640811.52,5603770.72,145.0,50.0,8.308189363408953,180.93121488618638,7250,7250.0,42.68652892112732
-11986154.28,-5519165.82,-9489930.64,0.4529698145389557,-0.18976106539368628,7300.0,39048903634452.48,5717575.2,146.0,50.0,12.798561194666222,198.42914549185952,7300,7300.0,42.93850803375244
-12561977.96,-5753989.64,-10007740.08,0.45073927760124205,-0.15358287200331688,7350.0,42224084708229.12,5954986.1,147.0,50.0,16.493746120147982,212.9799699595093,7350,7350.0,43.173272132873535
-12986505.68,-5918079.54,-10410155.32,0.44852078437805176,-0.15144034579396248,7400.0,44750166535700.48,6126261.34,148.0,50.0,0.031241520772843145,215.27599420634408,7400,7400.0,43.405531883239746
-13374110.28,-6064086.74,-10786501.08,0.44631862044334414,-0.16413745641708374,7450.0,47133550088028.16,6281050.44,149.0,50.0,19.653651505375965,201.95643758101266,7450,7450.0,43.65311098098755
-13959057.84,-6296726.34,-11326656.64,0.4441459035873413,-0.1498214177787304,7500.0,50446225647861.76,6524691.86,150.0,50.0,3.9362114635755017,210.21762011206783,7500,7500.0,43.89095997810364
-14314381.16,-6424957.78,-11684842.6,0.4419830751419067,-0.1588696999847889,7550.0,52938717643407.36,6651434.5,151.0,50.0,8.489710998302202,70.09907754695746,7550,7550.0,44.60423707962036
-14792678.24,-6606458.4,-12146943.04,0.43984475612640384,-0.1607423286139965,7600.0,55819207589232.64,6834587.02,152.0,50.0,4.610581404335722,296.2246454601955,7600,7600.0,44.77302885055542
-15257354.44,-6780170.78,-12602169.4,0.4377311730384827,-0.1783215370774269,7650.0,59004463548989.44,7028619.34,153.0,50.0,-3.7300171899795487,204.244908612628,7650,7650.0,45.01783299446106
-16014638.08,-7080214.9,-13304765.68,0.43562336087226866,-0.1142851322889328,7700.0,63844247278714.88,7328094.02,154.0,50.0,-5.316697015022921,195.54320613534114,7700,7700.0,45.273531913757324
-16413544.56,-7220950.1,-13715598.76,0.43352067708969116,-0.14279946744441985,7750.0,66806716573941.76,7476337.86,155.0,50.0,1.7896343514549233,193.30228922636758,7750,7750.0,45.53219485282898
-17009101.4,-7445662.12,-14295084.68,0.4314430785179138,-0.12754348129034043,7800.0,70751308490997.77,7707490.32,156.0,50.0,11.160264785071632,201.65737462474445,7800,7800.0,45.78016805648804
-17664789.28,-7693961.46,-14931104.36,0.42938051104545594,-0.11848713412880897,7850.0,75485386029137.92,7970391.38,157.0,50.0,4.459611239207435,171.6951890352281,7850,7850.0,46.07135581970215
-18103790.48,-7846915.14,-15388811.56,0.4273265480995178,-0.14253504224121571,7900.0,78763036298444.8,8132968.58,158.0,50.0,1.9202358150881782,211.23503608462892,7900,7900.0,46.30805993080139
-18930767.6,-8164051.94,-16182128.28,0.42528036594390867,-0.08506652817130089,7950.0,84639153525882.88,8448925.58,159.0,50.0,4.134534001631682,203.69163108553846,7950,7950.0,46.553528785705566
-19461671.52,-8351857.2,-16729472.6,0.42325628876686094,-0.12047154393047094,8000.0,88823821364101.12,8640543.7,160.0,50.0,6.4087855492641825,204.56926025820485,8000,8000.0,46.79794478416443
-19917478.8,-8506404.32,-17215906.36,0.42125111937522886,-0.14069050118327142,8050.0,92587161634734.08,8815234.14,161.0,50.0,6.907627700145834,71.15135377946783,8050,8050.0,47.50067210197449
-20594777.28,-8752809.0,-17898492.08,0.41926961541175845,-0.12083441652357578,8100.0,97970781673226.23,9067518.52,162.0,50.0,16.910104636540602,262.4576368760669,8100,8100.0,47.69117999076843
-21371203.84,-9038298.08,-18674020.08,0.4172912788391113,-0.08356674510985612,8150.0,104093011264143.36,9351840.6,163.0,50.0,6.446131594715812,191.66933997227073,8150,8150.0,47.9520468711853
-21947881.44,-9237511.6,-19281503.44,0.4153259861469269,-0.10010821558535099,8200.0,109189031568343.05,9550401.32,164.0,50.0,18.014120314223423,204.8080003125122,8200,8200.0,48.19617795944214
-22541530.16,-9442039.04,-19908914.24,0.4133903753757477,-0.13404180102050303,8250.0,113975015967293.44,9779078.64,165.0,50.0,0.362858158759666,208.54173565347787,8250,8250.0,48.435938119888306
-23414721.36,-9760173.88,-20789357.84,0.4114607644081116,-0.10442300010472536,8300.0,121341090568601.6,10101919.76,166.0,50.0,15.338228940483345,209.41448080556322,8300,8300.0,48.674700021743774
-24290984.72,-10076212.72,-21681221.12,0.40953308939933775,-0.06389551289379597,8350.0,128690319502868.48,10423987.68,167.0,50.0,0.5689745909640394,207.92187383814598,8350,8350.0,48.915175914764404
-25142724.08,-10378888.04,-22559767.36,0.40761128544807435,-0.06368122786283494,8400.0,136417310607933.44,10748164.4,168.0,50.0,-2.0666332162406036,208.25016012353095,8400,8400.0,49.15527391433716
-25896996.0,-10638748.2,-23358348.88,0.40570403218269346,-0.05107101455330849,8450.0,143649242643169.28,11013535.44,169.0,50.0,0.7566366142931553,214.76188964476228,8450,8450.0,49.38809084892273
-26364471.76,-10780131.4,-23903064.96,0.4038131260871887,-0.09163716338574886,8500.0,148171865016238.1,11163911.4,170.0,50.0,0.1491385335479123,199.1079244337181,8500,8500.0,49.63921093940735
-26963072.32,-10973447.44,-24570311.76,0.4019491410255432,-0.11696250557899475,8550.0,153934644432076.8,11378646.4,171.0,50.0,1.7787865840739947,69.78735865506845,8550,8550.0,50.355672121047974
-28195300.96,-11419330.56,-25823065.44,0.40010485768318177,-0.06348792698234319,8600.0,165290692313088.0,11817576.52,172.0,50.0,18.23142463595746,291.3994077948208,8600,8600.0,50.52725887298584
-28566113.44,-11516484.08,-26294294.16,0.3982637965679169,-0.1103659763932228,8650.0,169648197017272.3,11928845.56,173.0,50.0,12.27487302410584,208.63405830983842,8650,8650.0,50.7669141292572
-29628565.04,-11888152.04,-27407892.64,0.39644491076469424,-0.10392343729734421,8700.0,180122249875947.53,12324268.92,174.0,50.0,1.1206854516914468,188.74760595020376,8700,8700.0,51.03181791305542
-30561859.76,-12204888.92,-28411160.0,0.39463443160057066,-0.05969596363604069,8750.0,189955206388121.6,12630838.84,175.0,50.0,10.71796467169733,185.911632331209,8750,8750.0,51.30076289176941
-31308164.96,-12445063.8,-29247946.96,0.3928272557258606,-0.07053689628839493,8800.0,197508248633344.0,12887191.72,176.0,50.0,16.407096736555452,187.42309685952776,8800,8800.0,51.567538022994995
-32319377.28,-12786729.48,-30340269.84,0.3910430657863617,-0.08161650694906712,8850.0,207988662070149.12,13240309.6,177.0,50.0,3.1357252597651737,184.7507543222112,8850,8850.0,51.838172912597656
-33163687.76,-13060089.76,-31283756.88,0.3892662453651428,-0.08267339594662189,8900.0,217005847929159.7,13540571.12,178.0,50.0,2.067563262880837,167.2290002073266,8900,8900.0,52.13716411590576
-34308946.4,-13447716.96,-32520060.4,0.387505019903183,-0.05437074705958366,8950.0,229519264673955.84,13927964.0,179.0,50.0,15.23899462743105,166.45041057966895,8950,8950.0,52.43755507469177
-35032439.2,-13668343.92,-33364994.32,0.3857501268386841,-0.08820876024663449,9000.0,238296572582952.97,14160980.72,180.0,50.0,4.999183215359032,135.44553636936686,9000,9000.0,52.80670690536499
-35794104.0,-13901966.92,-34251676.56,0.38401026010513306,-0.10808759436011314,9050.0,247176646979747.84,14414560.96,181.0,50.0,-0.027156646887677383,69.32850768723704,9050,9050.0,53.52791094779968
-36796158.72,-14225687.28,-35375793.36,0.382296382188797,-0.09918768540024757,9100.0,258094767915663.38,14745031.84,182.0,50.0,16.669375027074402,331.90189583435546,9100,9100.0,53.67855906486511
-38146575.36,-14679359.76,-36844975.04,0.3805872964859009,-0.044996449230238794,9150.0,273648320218398.72,15204061.64,183.0,50.0,16.610256724493723,190.62141531368903,9150,9150.0,53.94085884094238
-39796308.8,-15242094.56,-38617971.36,0.3788700008392334,0.005505463071167469,9200.0,292354571118837.75,15768532.64,184.0,50.0,1.0918067579254256,166.98825035752165,9200,9200.0,54.240280866622925
-40653493.44,-15499021.56,-39634382.4,0.37714885115623475,-0.016051802076399325,9250.0,303481711335833.6,16040261.92,185.0,50.0,3.242048627953901,124.3599809292937,9250,9250.0,54.64233875274658
-41681291.68,-15817909.28,-40825055.52,0.37545088410377503,-0.03330717489123344,9300.0,316145780769423.4,16383946.92,186.0,50.0,13.734555684182599,177.41051865763183,9300,9300.0,54.924172163009644
-42712878.08,-16135422.92,-42027484.8,0.37376685500144957,-0.03159617446362972,9350.0,329339370010050.56,16702267.8,187.0,50.0,3.596813410881971,204.22939424128484,9350,9350.0,55.16899585723877
-43743006.24,-16449642.6,-43236901.12,0.3720990777015686,-0.05035854995250702,9400.0,342600794232586.25,17054803.28,188.0,50.0,3.095499534100542,200.62507832612175,9400,9400.0,55.418216943740845
-44887652.64,-16803425.76,-44568546.56,0.370446206331253,-0.03592859968543052,9450.0,358137665284997.1,17408395.72,189.0,50.0,14.562057602974493,196.08072667093643,9450,9450.0,55.67321491241455
-46211216.48,-17220423.6,-46088102.72,0.3687975800037384,-0.03965299665927887,9500.0,374786225539645.44,17870389.36,190.0,50.0,13.99647876686345,204.6379283594731,9500,9500.0,55.91754913330078
-47486006.24,-17615034.28,-47571030.88,0.36716269493103026,-0.008403577357530594,9550.0,392529517928775.7,18251350.56,191.0,50.0,-2.7200469018780353,70.17357415256576,9550,9550.0,56.63006901741028
-48322367.04,-17845537.68,-48623066.24,0.36553775548934936,-0.03848102048039436,9600.0,404231526767656.94,18490351.36,192.0,50.0,-0.7520314606893628,256.1660451293502,9600,9600.0,56.82525396347046
-50085155.84,-18412105.36,-50618117.44,0.3639259231090546,0.002299015112221241,9650.0,428414440791080.94,19053342.48,193.0,50.0,4.082868072669266,199.60557674882548,9650,9650.0,57.075748920440674
-51460522.08,-18832422.24,-52236162.4,0.3623160898685455,-0.016921959854662418,9700.0,447314467194142.75,19526197.84,194.0,50.0,-0.10416829998553467,192.12799542664072,9700,9700.0,57.33599281311035
-51804279.68,-18875737.44,-52813369.6,0.36071988224983215,-0.0637691569328308,9750.0,453124264086732.8,19578550.8,195.0,50.0,15.052149493807226,215.64012816136156,9750,9750.0,57.56786108016968
-53564772.96,-19429423.12,-54842088.32,0.35914968848228457,-0.02309386484324932,9800.0,478668191506104.3,20130662.48,196.0,50.0,2.012135853594007,192.31510614162426,9800,9800.0,57.82785201072693
-55202120.96,-19933575.12,-56760121.28,0.35758357286453246,-0.004934545755386353,9850.0,502767160393728.0,20634593.6,197.0,50.0,17.6599906539917,187.6595706602955,9850,9850.0,58.09429311752319
-56231292.32,-20215958.8,-58064316.16,0.35602406740188597,-0.0355080533772707,9900.0,518026571190108.2,20959878.8,198.0,50.0,2.553373543206611,191.04164351316243,9900,9900.0,58.35601592063904
-58110514.24,-20797779.68,-60258392.48,0.3544734287261963,0.0037816474586725235,9950.0,546161092691230.75,21514488.96,199.0,50.0,1.4994568430465733,197.0838960201712,9950,9950.0,58.609715938568115
-59224616.16,-21103502.24,-61672130.24,0.35292741894721985,-0.008853568211197854,10000.0,563257784464834.5,21863599.28,200.0,50.0,7.620776196729102,184.6450221214589,10000,10000.0,58.880507946014404
-60718562.24,-21540297.84,-63491901.92,0.3513938903808594,-0.014674035161733627,10050.0,586896460365168.6,22335563.04,201.0,50.0,0.1491385335479123,70.44713387949139,10050,10050.0,59.59026002883911
-62282937.28,-21997740.96,-65398271.2,0.34987313151359556,-0.015021740198135377,10100.0,611308082739281.9,22802837.84,202.0,50.0,13.511798073397866,265.4495100235685,10100,10100.0,59.77862000465393
-63593948.64,-22362539.36,-67050448.8,0.3483614921569824,-0.016467504873871802,10150.0,631736729610485.8,23173295.92,203.0,50.0,2.629040412059819,109.00609963693256,10150,10150.0,60.23730993270874
-65769373.92,-23024695.92,-69628511.68,0.3468574857711792,0.018429971113801003,10200.0,666287722872176.6,23852981.6,204.0,50.0,10.11831862596978,174.58153832065898,10200,10200.0,60.52371001243591
-66787823.84,-23279656.16,-70996298.72,0.3453568875789642,0.0017050953209400176,10250.0,685484747605934.1,24126593.76,205.0,50.0,10.094172957843615,179.02602219693483,10250,10250.0,60.80299997329712
-68573779.04,-23797486.64,-73190100.16,0.34387158036231996,0.008107389062643052,10300.0,713873839871754.2,24659434.32,206.0,50.0,15.52854297961425,188.67288993169763,10300,10300.0,61.06800889968872
-69185687.84,-23907406.4,-74140402.88,0.3424022555351257,-0.04170580387115479,10350.0,726479721893724.1,24771878.4,207.0,50.0,11.020840127152384,173.54783184376035,10350,10350.0,61.356114864349365
-71304047.84,-24532195.52,-76713495.04,0.34094767093658446,0.0006743715703487396,10400.0,763286048116572.1,25405327.92,208.0,50.0,7.9107624348779755,188.00090721568156,10400,10400.0,61.622071981430054
-73181197.76,-25068925.52,-79045006.72,0.33949516296386717,-0.012927322536706925,10450.0,794792298796810.2,25981932.48,209.0,50.0,16.567841537085016,181.52775217068776,10450,10450.0,61.89751195907593
-74781779.2,-25506751.52,-81092989.44,0.3380508589744568,-0.011453538835048675,10500.0,822164149533409.2,26435438.88,210.0,50.0,0.665104674094037,172.47634893129162,10500,10500.0,62.18740677833557
-77038368.0,-26161801.84,-83868559.68,0.33661425232887265,0.02970906611531973,10550.0,862816849824317.5,27076581.84,211.0,50.0,-0.362111863586545,68.96797579027889,10550,10550.0,62.91238188743591
-78930074.88,-26688251.76,-86264972.16,0.3351795589923859,0.019154298603534698,10600.0,895522078206197.8,27648797.12,212.0,50.0,-1.6946786612156242,272.22553230707723,10600,10600.0,63.09605407714844
-80570473.92,-27125494.96,-88401718.4,0.3337520384788513,0.023040624633431435,10650.0,928561707373035.5,28106650.88,213.0,50.0,9.742167054111846,201.20252247654005,10650,10650.0,63.344560861587524
-81587035.84,-27351483.6,-89863121.28,0.33233309388160703,-0.01534037820994854,10700.0,948326349615923.2,28349293.04,214.0,50.0,2.813082354617107,180.5379244206117,10700,10700.0,63.621511936187744
-83871784.64,-27996290.0,-92734279.36,0.3309380340576172,0.013224777244031429,10750.0,988689493949153.2,28993502.48,215.0,50.0,5.902097137729669,148.3768172543293,10750,10750.0,63.958491802215576
-85375714.88,-28377536.24,-94756754.56,0.3295488274097443,-0.012159834541380405,10800.0,1019649467739013.1,29416493.84,216.0,50.0,3.200067617717716,152.45528266155853,10800,10800.0,64.28645777702332
-87290251.84,-28890769.28,-97247748.48,0.3281662774085998,-0.0032617585361003876,10850.0,1056234627305308.1,29929426.0,217.0,50.0,8.232451040634288,169.17891652670284,10850,10850.0,64.58200407028198
-89658583.36,-29547646.24,-100263264.32,0.3267917215824127,0.008922895938158036,10900.0,1101792523845632.0,30639613.2,218.0,50.0,10.150539556176298,180.68865216207553,10900,10900.0,64.85872292518616
-91054208.96,-29881573.04,-102205562.56,0.3254218649864197,-0.02354993037879467,10950.0,1128816715770101.8,30996941.28,219.0,50.0,3.738484930091529,182.51705588342034,10950,10950.0,65.13267087936401
-93238184.64,-30468466.48,-105046757.44,0.3240652668476105,0.011148822717368603,11000.0,1175077827305799.8,31555491.04,220.0,50.0,-2.697863235334548,152.83036330471523,11000,11000.0,65.45983290672302
-96161582.08,-31289326.0,-108742892.8,0.32271323442459104,0.03654129900038242,11050.0,1231469048705843.2,32429489.44,221.0,50.0,11.201625313944408,68.15128423525145,11050,11050.0,66.19349503517151
-97417076.48,-31565221.44,-110570466.88,0.3213623476028442,0.009863246530294419,11100.0,1259461165197557.8,32724764.16,222.0,50.0,0.5754716545358711,283.76512932230105,11100,11100.0,66.36969804763794
-100269542.4,-32350772.56,-114227572.48,0.3200250017642975,0.02982277877628803,11150.0,1318419727457976.2,33523472.16,223.0,50.0,6.744952856399712,224.19721938625514,11150,11150.0,66.59271597862244
-102608672.64,-32965580.16,-117320583.68,0.31868539094924925,0.040213440060615536,11200.0,1368714664225013.8,34159739.76,224.0,50.0,-3.232650197287576,200.06639776842442,11200,11200.0,66.84263396263123
-103941075.2,-33253963.2,-119279336.96,0.3173619329929352,0.01093033567070961,11250.0,1396769449658286.0,34507878.64,225.0,50.0,18.277571965542855,198.76691931709507,11250,11250.0,67.09418606758118
-107522937.6,-34252912.32,-123836881.6,0.31604432344436645,0.07435812830924987,11300.0,1473971669339996.2,35457776.8,226.0,50.0,2.829268080618542,203.94934798316785,11300,11300.0,67.33934497833252
-108160832.96,-34314325.76,-125021344.0,0.31472621083259583,0.008427540585398675,11350.0,1488346098098503.8,35575161.44,227.0,50.0,16.543045397528523,210.04791589878369,11350,11350.0,67.57738709449768
-111466546.24,-35213321.36,-129304414.4,0.3134277820587158,0.04036459570750594,11400.0,1561006116060528.8,36507076.16,228.0,50.0,13.669889895887836,201.8994696311101,11400,11400.0,67.82503604888916
-112229104.96,-35308799.04,-130653154.24,0.3121372926235199,-0.013991001918911934,11450.0,1579202335568035.8,36627232.96,229.0,50.0,14.247035331281161,198.19567119859525,11450,11450.0,68.07731294631958
-116116929.92,-36378079.36,-135655428.8,0.31085354804992676,0.0350600279122591,11500.0,1665332085008629.8,37709207.2,230.0,50.0,4.7604176265833935,208.59400721123959,11500,11500.0,68.31701397895813
-117733138.24,-36731727.68,-138030124.8,0.30957470536231996,0.034452568143606185,11550.0,1705766968717475.8,38031770.56,231.0,50.0,13.916638950448373,70.51630197216136,11550,11550.0,69.02606892585754
-121544245.76,-37761185.76,-142998391.04,0.30830313682556154,0.05585087656974792,11600.0,1789004159689687.0,39123491.36,232.0,50.0,0.07757094302756151,262.2964598172688,11600,11600.0,69.21669411659241
-123863306.56,-38321262.88,-146239439.36,0.3070295214653015,0.05948215164244175,11650.0,1842774369244283.0,39682134.4,233.0,50.0,0.09140837225572263,199.43929002096004,11650,11650.0,69.4673969745636
-125534753.92,-38678261.44,-148730145.28,0.30576832056045533,0.02784382238984108,11700.0,1885205419534581.8,40079921.28,234.0,50.0,1.8199854755401628,202.8299350256203,11700,11700.0,69.71391105651855
-129132468.16,-39620614.88,-153522080.0,0.3045133423805237,0.05760381318628788,11750.0,1967432396617810.0,41056454.88,235.0,50.0,6.588843208151131,198.66110039094656,11750,11750.0,69.96559500694275
-130625142.08,-39914065.92,-155833880.96,0.3032660984992981,0.04228531189262867,11800.0,2008011328161054.8,41392838.88,236.0,50.0,5.095539605825071,195.368326913134,11800,11800.0,70.22152304649353
-134323909.76,-40873240.32,-160796108.8,0.3020295548439026,0.05968130972236395,11850.0,2095271346563973.0,42351834.88,237.0,50.0,5.978393567878607,192.0942063566941,11850,11850.0,70.48181295394897
-134937806.72,-40894257.12,-162081475.84,0.30079844236373904,-0.0009688427671790123,11900.0,2117713264723886.0,42456817.76,238.0,50.0,5.783057156304912,197.4864443904543,11900,11900.0,70.73499488830566
-138111848.32,-41684375.2,-166453500.8,0.29958245396614075,0.03200690113008022,11950.0,2193415021474611.2,43207792.32,239.0,50.0,4.883044601242947,202.54392962760502,11950,11950.0,70.9818549156189
-141074241.92,-42404238.24,-170595187.84,0.29837602615356446,0.031081564202904702,12000.0,2269202178281308.0,43987898.56,240.0,50.0,10.761500521041755,203.6152930507846,12000,12000.0,71.22741675376892
-144020736.0,-43113030.72,-174741037.44,0.2971719765663147,0.04267399085685611,12050.0,2339504001499791.5,44668984.64,241.0,50.0,4.887975790196499,70.48764706969772,12050,12050.0,71.9367618560791
-146616406.4,-43711716.48,-178482456.96,0.29596905946731566,0.02499510385096073,12100.0,2408710645638758.5,45306582.4,242.0,50.0,14.247035331281161,166.46573689683365,12100,12100.0,72.23712301254272
-149367668.48,-44350503.2,-182435929.6,0.29477829217910767,0.0404225467890501,12150.0,2482554603548180.5,45973334.4,243.0,50.0,17.839646923432113,177.09844760858422,12150,12150.0,72.51945304870605
-153080069.76,-45267064.8,-187586908.8,0.2935927641391754,0.054379339441657064,12200.0,2576304704082411.5,46887207.04,244.0,50.0,-3.6591307898409156,188.19222033674723,12200,12200.0,72.78514003753662
-156004561.28,-45944310.4,-191800280.96,0.29240468263626096,0.04774512819945812,12250.0,2658863735824711.5,47644902.08,245.0,50.0,1.89552663573871,195.0184170711045,12250,12250.0,73.04152607917786
-158709475.2,-46551071.04,-195767400.32,0.29122947692871093,0.04468378815799952,12300.0,2728988289636761.5,48306104.96,246.0,50.0,17.931278567477516,190.08511062568547,12300,12300.0,73.30456709861755
-162778599.68,-47549574.88,-201441622.4,0.2900581073760986,0.06917426027357579,12350.0,2835755281772708.0,49287009.6,247.0,50.0,12.442270164332601,192.43881311388762,12350,12350.0,73.56439089775085
-165418200.96,-48124879.68,-205375518.08,0.2888909447193146,0.05753195121884346,12400.0,2910518282152837.0,49902921.44,248.0,50.0,3.5867520482994166,181.2284444951421,12400,12400.0,73.84028601646423
-170742320.64,-49468722.08,-212675242.24,0.28772475719451907,0.10871567599475383,12450.0,3056035381913846.0,51189523.52,249.0,50.0,0.9088696751223804,185.97230215604046,12450,12450.0,74.10914206504822
-172040680.96,-49644375.84,-214988776.32,0.28656379342079163,0.06820574529469013,12500.0,3096836712232386.5,51436647.2,250.0,50.0,9.222397745081961,196.98152621909296,12500,12500.0,74.36297392845154
-175361837.44,-50397960.96,-219843284.48,0.2854135417938232,0.07924709893763066,12550.0,3192219775438684.0,52222522.56,251.0,50.0,19.69414942858274,70.36287095941897,12550,12550.0,75.07357692718506
-181739504.64,-52014802.08,-228571486.72,0.2842662572860718,0.13812887094914914,12600.0,3362014457013207.0,53820427.52,252.0,50.0,3.3740867132547105,248.74739794919847,12600,12600.0,75.27458477020264
-184539187.2,-52601148.32,-232841276.8,0.2831188642978668,0.1323147451877594,12650.0,3448289193812295.5,54444123.04,253.0,50.0,3.2694760431906644,147.8305309600393,12650,12650.0,75.61281108856201
-186654305.92,-52989790.24,-236262623.36,0.28197769284248353,0.09521103307604789,12700.0,3515710398571479.0,54870010.72,254.0,50.0,0.1491385335479123,191.42493071960334,12700,12700.0,75.87400984764099
-191072372.48,-54023280.0,-242623371.52,0.28084506511688234,0.1097255800664425,12750.0,3639471577717801.0,55909720.8,255.0,50.0,7.941115875806966,203.30479646273355,12750,12750.0,76.1199460029602
-194062873.6,-54647470.08,-247200556.16,0.2797201013565063,0.13014039695262908,12800.0,3733416825459835.0,56531887.68,256.0,50.0,14.90715957159805,164.80501058934937,12800,12800.0,76.42333483695984
-196926732.16,-55232103.84,-251635012.48,0.2786029577255249,0.09715396344661713,12850.0,3816897127687127.0,57222713.92,257.0,50.0,-1.811670059506488,192.4105635560253,12850,12850.0,76.68319702148438
-198879224.96,-55558292.0,-254921710.72,0.2774975919723511,0.04671397045254708,12900.0,3881806109438116.0,57623884.0,258.0,50.0,9.399986806035562,182.58967750922895,12900,12900.0,76.95703601837158
-202752340.48,-56414958.88,-260686304.0,0.27640196919441223,0.06576011769473553,12950.0,3995155106742927.5,58466438.72,259.0,50.0,7.237839313804615,174.6126453022445,12950,12950.0,77.24338483810425
-205739035.52,-57019284.96,-265338918.4,0.2753171980381012,0.06855863392353058,13000.0,4090181934624276.5,59075243.36,260.0,50.0,12.407646195182853,196.6248974521248,13000,13000.0,77.49767708778381
-210387337.6,-58075961.76,-272160044.8,0.27423367857933045,0.07556667283177376,13050.0,4229781664668057.5,60198231.68,261.0,50.0,17.4796820559682,69.6312071290282,13050,13050.0,78.215744972229
-215469146.88,-59241209.12,-279583947.52,0.27315354585647583,0.08507467985153198,13100.0,4383167960559124.5,61432329.76,262.0,50.0,1.4246441082752028,261.55125945825273,13100,13100.0,78.40691304206848
-219108353.92,-60001701.12,-285174519.04,0.272077751159668,0.09703871458768845,13150.0,4504611983374418.0,62174359.68,263.0,50.0,1.3854209892109193,181.2697992865558,13150,13150.0,78.68274474143982
-225574251.52,-61523887.84,-294481381.12,0.2710028433799744,0.1401087014377117,13200.0,4698629926163579.0,63721264.16,264.0,50.0,10.11831862596978,185.62727646900018,13200,13200.0,78.95210194587708
-228286744.96,-62016195.84,-298929744.64,0.26992480635643007,0.135994288623333,13250.0,4794844172915835.0,64177584.0,265.0,50.0,7.0504982064603094,212.56699885666097,13250,13250.0,79.18732380867004
-229145754.24,-62005981.44,-300959752.96,0.268863605260849,0.0654202389717102,13300.0,4829478499280486.0,64300511.2,266.0,50.0,-3.300677022120599,193.77274146842666,13300,13300.0,79.44535875320435
-232961430.4,-62791207.52,-306880179.2,0.26781689405441284,0.07614339329302311,13350.0,4963243054543667.0,65084683.84,267.0,50.0,2.855588847209706,204.0041050783321,13350,13350.0,79.69045209884644
-240391251.2,-64535452.16,-317606403.84,0.26677016615867616,0.11295536004006862,13400.0,5199492605448028.0,66858282.4,268.0,50.0,0.3073905608073293,185.9081713883506,13400,13400.0,79.95940208435059
-243063605.76,-64996689.92,-322092889.6,0.26572646379470827,0.08885933764278889,13450.0,5282315552193249.0,67373473.44,269.0,50.0,0.10346957061766915,190.6954286426143,13450,13450.0,80.22160005569458
-246911722.24,-65766785.12,-328156556.8,0.2646885097026825,0.09866676073521376,13500.0,5412352430178304.0,68162570.56,270.0,50.0,14.439448360755582,185.48411205364764,13500,13500.0,80.49116492271423
-252765740.8,-67059618.56,-336924917.76,0.2636570131778717,0.12574904665350914,13550.0,5615692116299612.0,69490546.56,271.0,50.0,14.552102843927882,68.15061982672084,13550,13550.0,81.22483396530151
-255850522.24,-67612611.52,-342036930.56,0.26262839913368224,0.10058597862720489,13600.0,5719879604764672.0,70035028.96,272.0,50.0,7.174987926483155,269.8648328683639,13600,13600.0,81.41011190414429
-260858124.16,-68664835.36,-349749171.2,0.26160759925842286,0.11746295303106308,13650.0,5888712321039073.0,71092641.6,273.0,50.0,1.0064411971646727,197.5690499473376,13650,13650.0,81.66318893432617
-268022823.04,-70271132.0,-360401120.0,0.2605858683586121,0.1591965675354004,13700.0,6139013072200663.0,72727660.8,274.0,50.0,15.582692420611545,185.82399481112807,13700,13700.0,81.93226099014282
-268564488.32,-70140360.16,-362181410.56,0.2595715045928955,0.08362188696861267,13750.0,6163958371104850.0,72757579.52,275.0,50.0,3.9985409990970613,186.1443050805635,13750,13750.0,82.20087099075317
-272052427.52,-70776243.2,-367937424.64,0.2585694694519043,0.07879622220993042,13800.0,6288602123080827.0,73484096.0,276.0,50.0,1.3055881065742945,201.34334376620134,13800,13800.0,82.44920301437378
-279519731.84,-72433713.28,-379114479.36,0.25757115364074706,0.12672299057245254,13850.0,6558466128153149.0,75007772.48,277.0,50.0,21.17129688844848,195.35740734703003,13850,13850.0,82.70514416694641
-283391621.76,-73151133.12,-385467728.64,0.2565750050544739,0.10426168516278267,13900.0,6688650259091948.0,75788146.56,278.0,50.0,16.65390683195234,205.63700687956447,13900,13900.0,82.94829177856445
-288307258.88,-74131127.36,-393266438.4,0.25558324813842775,0.11338561236858367,13950.0,6873540827293942.0,76789075.52,279.0,50.0,4.964308342906968,205.6936828074319,13950,13950.0,83.19137215614319
-290730159.36,-74466353.28,-397695261.44,0.25459921002388003,0.06497730057686567,14000.0,6962931144106967.0,77301397.12,280.0,50.0,6.946520410070942,203.35112324686608,14000,14000.0,83.43725180625916
-295971993.6,-75516426.24,-405999813.12,0.25362408041954043,0.10325759075582028,14050.0,7155240989139927.0,78264155.84,281.0,50.0,6.4876424122928125,69.0247253199362,14050,14050.0,84.16163110733032
-302828053.76,-76965699.52,-416567274.24,0.25265176653862,0.11375361226499081,14100.0,7397704777901015.0,79733134.72,282.0,50.0,18.2454348524454,261.6814779876568,14100,14100.0,84.35270404815674
-305559363.84,-77362044.16,-421499727.36,0.25168456554412844,0.07979976881295442,14150.0,7513699389160817.0,80253110.4,283.0,50.0,16.859057164322827,192.64564038779872,14150,14150.0,84.61224818229675
-312684559.36,-78859700.48,-432524344.32,0.2507192254066467,0.1162737675756216,14200.0,7765075857831363.0,81739024.0,284.0,50.0,-1.464795275847525,184.61982692595495,14200,14200.0,84.88307595252991
-317907164.16,-79866667.2,-440972213.76,0.24975936770439147,0.12031290985643864,14250.0,7972200075860378.0,82780629.12,285.0,50.0,10.864509321045194,187.68005956642514,14250,14250.0,85.14948797225952
-321846028.8,-80546518.08,-447667825.92,0.248802747130394,0.10422528706490994,14300.0,8130382669105070.0,83517889.28,286.0,50.0,1.982118324665226,146.01265351278755,14300,14300.0,85.49192500114441
-330516706.56,-82394048.96,-460997470.72,0.24785260140895843,0.13848945140838623,14350.0,8444819909199790.0,85353129.6,287.0,50.0,-2.5543867108207223,175.89646597023312,14350,14350.0,85.77618312835693
-332058524.16,-82463012.8,-464422315.52,0.24690448880195617,0.10281858503818513,14400.0,8521552420520591.0,85553929.28,288.0,50.0,17.59967131662271,188.15828195318724,14400,14400.0,86.0419180393219
-341975768.32,-84595567.68,-479599242.24,0.2459596174955368,0.1618167131394148,14450.0,8891250792904786.0,87590867.2,289.0,50.0,4.814324080301974,197.8848520075789,14450,14450.0,86.29458999633789
-347227934.72,-85562783.68,-488302812.16,0.24501587212085724,0.15291668869554997,14500.0,9096364493792870.0,88628554.24,290.0,50.0,6.368961638488466,202.8479843382141,14500,14500.0,86.54107999801636
-352513178.88,-86530427.52,-497088944.64,0.24407579779624938,0.14258458100259305,14550.0,9319703716602840.0,89630814.4,291.0,50.0,7.785202942055967,70.08827742385262,14550,14550.0,87.25446701049805
-355502231.04,-86930859.52,-502665894.4,0.2431410652399063,0.11346104890108108,14600.0,9443606414921564.0,90090612.16,292.0,50.0,8.038675335349785,277.00094572390145,14600,14600.0,87.4349730014801
-360811863.04,-87892107.2,-511547215.36,0.2422192597389221,0.10676765382289886,14650.0,9666234670320190.0,91059402.24,293.0,50.0,15.728042737534123,202.941028469682,14650,14650.0,87.68134999275208
-366266274.56,-88881434.88,-520668947.2,0.2412998515367508,0.12026016630232333,14700.0,9888535412987658.0,92185755.84,294.0,50.0,6.17795055848015,188.97381230862945,14700,14700.0,87.9459400177002
-376097789.44,-90914528.32,-536076930.56,0.24038683354854584,0.15944403149187564,14750.0,1.0278358949853922e+16,94107099.52,295.0,50.0,1.78564960205434,194.57980951674034,14750,14750.0,88.20290207862854
-385004968.96,-92708049.92,-550244394.24,0.23946665108203888,0.1892115493118763,14800.0,1.0628800664567808e+16,95929369.6,296.0,50.0,-3.0916530178476336,189.44411171424107,14800,14800.0,88.46683192253113
-382632716.8,-91790337.92,-548318120.96,0.23855444312095642,0.09994075700640678,14850.0,1.0547723707927756e+16,95178096.64,297.0,50.0,13.308906055924973,195.76754545641245,14850,14850.0,88.72223687171936
-391245103.36,-93497849.28,-562137939.2,0.23765457153320313,0.149422317892313,14900.0,1.0910663090278236e+16,96771987.52,298.0,50.0,8.61447140998572,190.75891439938948,14900,14900.0,88.98434782028198
-400474035.2,-95337169.6,-576913804.8,0.23675379276275635,0.1544947272539139,14950.0,1.1269788326921502e+16,98724124.16,299.0,50.0,-0.6486247999111487,183.73425734073356,14950,14950.0,89.25648093223572
-403800843.52,-95764222.4,-583243550.72,0.23585884928703307,0.13968892216682435,15000.0,1.1432703737903186e+16,99201858.88,300.0,50.0,6.000739460174428,189.7799544633517,15000,15000.0,89.51994490623474
-409195445.76,-96676660.48,-592579827.2,0.23497054517269134,0.13031388446688652,15050.0,1.1666528328797388e+16,100184290.56,301.0,50.0,11.288444495306198,69.48728594115977,15050,15050.0,90.239501953125
-414420248.32,-97542445.76,-601704038.4,0.23408746600151062,0.12767446924000977,15100.0,1.1899622689351926e+16,101110084.16,302.0,50.0,-0.8995815163275278,256.7025477441925,15100,15100.0,90.43427991867065
-425433194.24,-99751933.44,-619297182.72,0.23320629298686982,0.154079632461071,15150.0,1.2371366392312628e+16,103411851.2,303.0,50.0,-0.6358665986477394,190.36878214566468,15150,15150.0,90.69692897796631
-425160823.04,-99316862.4,-620503119.36,0.2323293071985245,0.09025383308529854,15200.0,1.2337549967307572e+16,103032764.48,304.0,50.0,6.544974622892589,200.45938864795784,15200,15200.0,90.94635701179504
-432413543.68,-100631036.48,-632704819.2,0.23146332740783693,0.11857598423957824,15250.0,1.2679954080223724e+16,104285061.76,305.0,50.0,3.9938242438188514,196.102178942191,15250,15250.0,91.2013258934021
-443903293.44,-102913278.4,-651175971.84,0.2305981183052063,0.1497702020406723,15300.0,1.319062332948611e+16,106648694.08,306.0,50.0,-0.6279005297957685,192.480143032577,15300,15300.0,91.46109390258789
-445564697.6,-102913211.52,-655286768.64,0.229733846783638,0.11418732948601246,15350.0,1.3255172221179002e+16,106642996.8,307.0,50.0,14.366025916949482,183.02151241436488,15350,15350.0,91.73428678512573
-456496458.24,-105039103.04,-673070499.84,0.2288762855529785,0.15292074039578438,15400.0,1.373816375629316e+16,108799978.24,308.0,50.0,12.394202474893406,187.41472220484545,15400,15400.0,92.00107598304749
-463636144.64,-106279831.36,-685338101.76,0.22802050471305846,0.14709480948746204,15450.0,1.4063445466687734e+16,110153041.6,309.0,50.0,6.125120049127675,183.49102910270028,15450,15450.0,92.27356910705566
-467169904.64,-106690944.96,-692308753.92,0.22716638684272766,0.10602087795734405,15500.0,1.4217720606060708e+16,110717137.6,310.0,50.0,5.204205281270891,214.4397362694894,15500,15500.0,92.50673580169678
-470486762.24,-107049640.64,-698976788.48,0.22632402777671815,0.07435589894652367,15550.0,1.43860182123597e+16,111122089.28,311.0,50.0,9.037147215658983,69.34194076570834,15550,15550.0,93.22780084609985
-484462142.72,-109813029.76,-721538501.12,0.22548832893371581,0.14876638486981392,15600.0,1.4998444299245322e+16,113826741.44,312.0,50.0,0.03481034634579494,287.97064752311013,15600,15600.0,93.40143013000488
-492413376.0,-111197066.24,-735216494.08,0.22464529693126678,0.1756678719818592,15650.0,1.5373666729716614e+16,115094413.44,313.0,50.0,-2.065784295816055,195.75219586868658,15650,15650.0,93.65685606002808
-496887692.8,-111788612.8,-743755668.48,0.2238066804409027,0.13887180298566817,15700.0,1.5599339773330718e+16,115827947.52,314.0,50.0,11.657102019388557,191.8318661134406,15700,15700.0,93.9175009727478
-508572838.4,-113985288.64,-763146511.36,0.22297379672527312,0.17829965114593505,15750.0,1.6116566707509658e+16,117964311.36,315.0,50.0,7.01103864887201,179.61634947022586,15750,15750.0,94.19587302207947
-512425461.76,-114421562.24,-770840317.44,0.22214222073554993,0.13479511849582196,15800.0,1.6324122161730028e+16,118579890.56,316.0,50.0,13.56070810997338,199.6971907298465,15800,15800.0,94.44625306129456
-521261557.76,-115959033.28,-786071680.0,0.22131555259227753,0.16209921464323998,15850.0,1.6744987295555256e+16,120073663.68,317.0,50.0,-0.4611797950263625,204.88543562598858,15850,15850.0,94.69029307365417
-526680024.32,-116728375.68,-796205847.04,0.22049625635147094,0.1448181663453579,15900.0,1.6979730837652112e+16,121064635.2,318.0,50.0,0.03481034634579494,190.62297472088073,15900,15900.0,94.95259094238281
-527745094.4,-116537281.92,-799759810.56,0.2196814662218094,0.08871161870658398,15950.0,1.7032345862065356e+16,120964122.56,319.0,50.0,-0.03319472112717037,186.6939669369987,15950,15950.0,95.2204098701477
-543508682.24,-119568107.84,-825651412.48,0.218874734044075,0.1624102732166648,16000.0,1.7784644173194854e+16,123819189.76,320.0,50.0,0.07757094302756151,203.81198953510523,16000,16000.0,95.46573495864868
-543891454.72,-119215011.84,-828239713.28,0.21806985676288604,0.10375016301870346,16050.0,1.782931814667518e+16,123594927.04,321.0,50.0,-0.6875427808209444,69.79088877263463,16050,16050.0,96.1821608543396
-560988350.72,-122501574.4,-856339668.48,0.21726899206638337,0.17584965944290162,16100.0,1.8649878005127576e+16,126874117.44,322.0,50.0,2.037628468496015,292.2350809963421,16100,16100.0,96.35325598716736
-562914225.92,-122471406.72,-861358973.44,0.21646617531776427,0.11366551131010055,16150.0,1.874223955884114e+16,127100254.4,323.0,50.0,8.128361547692847,205.8893638411046,16150,16150.0,96.59610605239868
-578146664.96,-125314251.2,-886800988.16,0.21566867113113403,0.18683155179023742,16200.0,1.948354498707587e+16,129579392.96,324.0,50.0,6.17795055848015,187.06332754136145,16200,16200.0,96.86339473724365
-584998172.16,-126329154.88,-899478691.84,0.21486845552921296,0.17952080570161344,16250.0,1.983757132444467e+16,130827152.0,325.0,50.0,12.734377151699768,170.219646160352,16250,16250.0,97.15713310241699
-595066357.76,-128024051.2,-917167383.04,0.21407564580440522,0.18450464695692062,16300.0,2.032923452737847e+16,132522396.16,326.0,50.0,0.4677621908888767,186.96359956850824,16300,16300.0,97.424565076828
-594788823.04,-127497792.96,-918931151.36,0.2132845950126648,0.11492933548986911,16350.0,2.0324941363968736e+16,132245364.16,327.0,50.0,16.1871414283723,193.93311688131544,16350,16350.0,97.68238687515259
-610382592.0,-130352846.4,-945267205.12,0.21250422179698944,0.16944505274295807,16400.0,2.111312739103146e+16,135004075.52,328.0,50.0,6.142967083507807,212.12493931056807,16400,16400.0,97.91809797286987
-616241820.16,-131119834.88,-956612008.96,0.21172365069389343,0.14951990894973277,16450.0,2.1388819967372164e+16,135839617.28,329.0,50.0,-1.0462442253607556,202.61790019207209,16450,16450.0,98.16486883163452
-624192773.12,-132323462.08,-971245096.96,0.21094774961471557,0.13810639098286628,16500.0,2.1821640228565156e+16,137243851.2,330.0,50.0,2.985425195825661,206.93482370865058,16500,16500.0,98.40649199485779
-632642690.56,-133620852.16,-986715978.24,0.2101769143342972,0.15433690279722215,16550.0,2.2277033463476388e+16,138284327.04,331.0,50.0,0.4100204225554762,70.30123757414282,16550,16550.0,99.1177179813385
-638739752.96,-134416669.12,-998558228.48,0.2094091671705246,0.12482387222349643,16600.0,2.260906639001387e+16,139378234.88,332.0,50.0,-1.915424225295963,292.44046681104027,16600,16600.0,99.28869414329529
-650405672.96,-136369538.56,-1019167720.96,0.20864487946033478,0.13985207706689834,16650.0,2.3173747472953508e+16,141501718.4,333.0,50.0,8.345732557493987,165.391579757601,16650,16650.0,99.59100794792175
-659941263.36,-137859960.96,-1036528460.8,0.20788321912288665,0.14598142065107822,16700.0,2.367810857489924e+16,142903443.2,334.0,50.0,-0.014934229518303255,153.76435066582397,16700,16700.0,99.9161810874939
-667300011.52,-138888604.8,-1050521077.76,0.2071255099773407,0.12253638722002506,16750.0,2.4034226561341196e+16,144057618.56,335.0,50.0,7.846359587891458,154.22684779347307,16750,16750.0,100.24037981033325
-677061813.76,-140404375.04,-1068359198.72,0.20637159168720245,0.15173059239983558,16800.0,2.456065486165639e+16,145509252.48,336.0,50.0,2.5580081045265946,152.04168409666454,16800,16800.0,100.56924080848694
-691286082.56,-142825783.04,-1093329594.88,0.2056199210882187,0.1713630548119545,16850.0,2.534353540151771e+16,148044247.68,337.0,50.0,11.510867952499007,168.04748900598742,16850,16850.0,100.86677408218384
-693235432.96,-142709939.2,-1098942151.68,0.20487047255039215,0.11509386390447617,16900.0,2.5406547811610132e+16,148129491.2,338.0,50.0,-0.359648973415446,177.11849018486723,16900,16900.0,101.14907193183899
-703035018.24,-144199892.16,-1117031193.6,0.20412757933139802,0.11651256337761878,16950.0,2.5930245801215264e+16,149644002.56,339.0,50.0,16.957488904450535,173.71847387329328,16950,16950.0,101.43689393997192
-714370483.2,-145990587.52,-1137634083.84,0.20338759064674378,0.15277030169963837,17000.0,2.6518896065841724e+16,151300256.64,340.0,50.0,13.264921113370606,173.15177795905427,17000,17000.0,101.7256588935852
-722180674.56,-147050414.08,-1152695838.72,0.2026522320508957,0.12369770132005214,17050.0,2.699267588394844e+16,152561014.4,341.0,50.0,7.469176459082501,67.70591097237302,17050,17050.0,102.46414804458618
-743334458.88,-150799876.48,-1189157222.4,0.20191627442836763,0.18693413339555265,17100.0,2.8125832653433732e+16,156196602.88,342.0,50.0,5.294975229613769,207.64292362224995,17100,17100.0,102.7049469947815
-741431505.92,-149870229.12,-1188823311.36,0.20118098378181457,0.1295801418274641,17150.0,2.802251120217424e+16,155334985.6,343.0,50.0,0.5096630695995419,162.35093749516156,17150,17150.0,103.01292181015015
-746283033.6,-150308908.8,-1199294274.56,0.20045422554016112,0.0995977246016264,17200.0,2.8265604117744844e+16,155946565.12,344.0,50.0,8.079440850833493,181.65291303553192,17200,17200.0,103.28817296028137
-766838394.88,-153884421.12,-1235090273.28,0.19973204612731935,0.14698970668017863,17250.0,2.9447804861085124e+16,159666718.08,345.0,50.0,3.3051563292962456,137.73076604805055,17250,17250.0,103.65120100975037
-782241779.2,-156399418.24,-1262747898.88,0.1990084946155548,0.1787986519932747,17300.0,3.028937887782535e+16,162116711.68,346.0,50.0,16.493746120147982,157.06674216108772,17300,17300.0,103.96953701972961
-773497390.08,-154100669.44,-1251436549.12,0.1982904404401779,0.10758695662021638,17350.0,2.9831189103808348e+16,159794346.88,347.0,50.0,8.110831768394586,173.27123451557387,17350,17350.0,104.25810313224792
-791994316.8,-157214584.96,-1284197135.36,0.19757942259311675,0.1324396113306284,17400.0,3.088529553992188e+16,162972768.64,348.0,50.0,15.608231646291532,175.51944802004644,17400,17400.0,104.54297304153442
-803972485.12,-159015987.84,-1306512896.0,0.1968697839975357,0.14143901996314526,17450.0,3.152847823121154e+16,164910367.36,349.0,50.0,12.804267678182788,182.73652731656438,17450,17450.0,104.81659078598022
-818530378.24,-161307193.6,-1333126451.2,0.1961604905128479,0.1553885321319103,17500.0,3.2365184503817176e+16,167379215.36,350.0,50.0,12.580875945398097,154.59577645758802,17500,17500.0,105.1400158405304
-817912752.64,-160610313.6,-1335066813.44,0.19545534431934355,0.1134123831242323,17550.0,3.232637956019716e+16,166592412.8,351.0,50.0,2.0040560620054624,65.54034204766066,17550,17550.0,105.90290904045105
-846588136.96,-165630798.08,-1384920826.88,0.19475601255893707,0.18902585417032242,17600.0,3.3945568400994468e+16,171707192.32,352.0,50.0,9.95135333378593,217.95317620086405,17600,17600.0,106.13231587409973
-849425505.28,-165589760.64,-1392628264.96,0.1940475559234619,0.14842356350272895,17650.0,3.4130478940794388e+16,171776804.48,353.0,50.0,0.8948771098318158,161.6845429369715,17650,17650.0,106.44156074523926
-866997324.8,-168397523.84,-1424581294.08,0.19334833323955536,0.17513860076665877,17700.0,3.511271708784853e+16,174624749.44,354.0,50.0,3.64747122806088,153.130328049004,17700,17700.0,106.76808094978333
-878974430.72,-170104116.48,-1447442298.88,0.19264954328536987,0.19512703150510788,17750.0,3.5834387299995484e+16,176146044.8,355.0,50.0,0.889454473253851,171.0635597402502,17750,17750.0,107.0603699684143
-884128220.16,-170484764.16,-1459129190.4,0.1919541198015213,0.17449938252568245,17800.0,3.613508758111518e+16,176646229.76,356.0,50.0,16.338418326878127,162.67938426786395,17800,17800.0,107.36772394180298
-900393943.04,-172991289.6,-1489219046.4,0.19126425743103026,0.19753508619964122,17850.0,3.711394266832962e+16,179120341.76,357.0,50.0,21.286698227691073,164.78584500252623,17850,17850.0,107.67114901542664
-911984565.76,-174585696.64,-1511677271.04,0.19057378232479094,0.16886510118842124,17900.0,3.781455594431447e+16,181028240.0,358.0,50.0,0.9820859311366696,141.27962985668265,17900,17900.0,108.02505803108215
-930490931.2,-177478654.08,-1545721021.44,0.18988612413406372,0.21405324310064316,17950.0,3.888204824730141e+16,183787495.68,359.0,50.0,1.5724742553772906,148.03547793923008,17950,17950.0,108.36281704902649
-930360430.08,-176818066.56,-1548866058.24,0.18920180022716523,0.17356107220053674,18000.0,3.893835320696766e+16,183246437.12,360.0,50.0,3.016444896572203,161.03534304492155,18000,18000.0,108.6733078956604
-949162749.44,-179738592.0,-1583579397.12,0.18852379977703093,0.17760984040796757,18050.0,3.997695481114263e+16,186410303.36,361.0,50.0,9.037147215658983,65.70370871649887,18050,18050.0,109.43430089950562
-971604167.68,-183317020.16,-1624527237.12,0.1878443193435669,0.2408783708885312,18100.0,4.132323137972863e+16,189606245.76,362.0,50.0,-2.974870809452847,261.70760257271,18100,18100.0,109.62535405158997
-967153968.64,-181826103.04,-1620582763.52,0.18716565132141114,0.16723185379058123,18150.0,4.1085487931824536e+16,188609020.16,363.0,50.0,3.490758228841889,136.10251923923101,18150,18150.0,109.99272394180298
-986371532.8,-184769036.8,-1656321239.04,0.186496798992157,0.2007698154449463,18200.0,4.221812543976374e+16,191378224.64,364.0,50.0,-2.0365031799002367,162.4416062040915,18200,18200.0,110.3005268573761
-987457423.36,-184315330.56,-1661679354.88,0.18582969546318054,0.15408269345760345,18250.0,4.23202539209071e+16,191076150.4,365.0,50.0,4.6639842708944474,172.84523683932903,18250,18250.0,110.58980393409729
-995755304.96,-185205325.44,-1679180021.76,0.18517053842544556,0.13378984160721302,18300.0,4.279304752862331e+16,192219523.2,366.0,50.0,-3.3139597307246653,168.71426043024246,18300,18300.0,110.88616609573364
-1007974149.12,-186813716.48,-1703350860.8,0.1845168215036392,0.1276083292812109,18350.0,4.355093110112387e+16,193876660.48,367.0,50.0,6.037711900580229,172.27374178226736,18350,18350.0,111.17639994621277
-1032842757.12,-190736796.16,-1749035842.56,0.18386403501033782,0.1620093624293804,18400.0,4.503731723384652e+16,197873318.4,368.0,50.0,2.0325687790438884,165.39092758105895,18400,18400.0,111.47871375083923
-1050471360.0,-193296797.44,-1782633687.04,0.18320652067661286,0.20937772914767266,18450.0,4.619002306237563e+16,200279920.0,369.0,50.0,-1.281909572280405,167.6652566323712,18450,18450.0,111.77693009376526
-1054536847.36,-193352771.84,-1793314590.72,0.1825552326440811,0.17509826958179475,18500.0,4.643004507632959e+16,200441195.52,370.0,50.0,19.459034082435057,164.4969597329334,18500,18500.0,112.08088874816895
-1073820229.12,-196184242.56,-1829923128.32,0.1819070690870285,0.1896461394429207,18550.0,4.774098110781587e+16,203363205.76,371.0,50.0,-1.1918000290797561,68.18407781460022,18550,18550.0,112.81419706344604
-1071954432.0,-195154126.08,-1830554562.56,0.18126079618930815,0.12806454420089722,18600.0,4.755340992167542e+16,202524478.72,372.0,50.0,3.797841898348951,243.1125423996031,18600,18600.0,113.01986408233643
-1101189094.4,-199758394.88,-1884368491.52,0.18061924040317534,0.18997789323329925,18650.0,4.9433448189536504e+16,206820307.84,373.0,50.0,7.979464751556396,189.9755957481887,18650,18650.0,113.28305697441101
-1105662653.44,-199858970.24,-1895963320.32,0.17998000264167785,0.15786438271403314,18700.0,4.9728487360162696e+16,207188327.04,374.0,50.0,5.898981045675866,195.04127004794302,18700,18700.0,113.5394139289856
-1123546721.28,-202371148.8,-1930598297.6,0.17934249043464662,0.18452077150344848,18750.0,5.085364750183826e+16,209663038.08,375.0,50.0,16.18434979684383,197.61447522412587,18750,18750.0,113.79243302345276
-1122935290.88,-201551002.24,-1933526604.8,0.17871027708053588,0.1315121079981327,18800.0,5.07025500369689e+16,209137974.4,376.0,50.0,19.352165676052984,139.71326546927463,18800,18800.0,114.15030980110168
-1155139788.8,-206590088.32,-1993047961.6,0.17808350682258606,0.18063215900212526,18850.0,5.28153434059178e+16,214211844.48,377.0,50.0,3.7459237744468883,172.7837171594669,18850,18850.0,114.43969011306763
-1156645089.28,-206134172.16,-1999729561.6,0.177453972697258,0.13892522118985653,18900.0,5.28925875337429e+16,213901296.64,378.0,50.0,11.84154952506516,177.02952979570063,18900,18900.0,114.72212982177734
-1181310192.64,-209780220.8,-2046543334.4,0.17682772159576415,0.18925649046897888,18950.0,5.457012530914263e+16,217556064.0,379.0,50.0,5.3288731677385535,180.58549548052324,18950,18950.0,114.99900794029236
-1203252495.36,-212913219.2,-2088830607.36,0.17620341658592223,0.20386753156781195,19000.0,5.5985447428381736e+16,220742163.84,380.0,50.0,4.7604176265833935,185.28189166433276,19000,19000.0,115.26886701583862
-1217696271.36,-214701674.24,-2118233845.76,0.17557657420635223,0.22519162133336068,19050.0,5.69478746951857e+16,222240280.96,381.0,50.0,4.527491220304526,70.14444628033937,19050,19050.0,115.98168301582336
-1227835735.04,-215720625.92,-2140240808.96,0.17495402812957764,0.20231361120939254,19100.0,5.766409811570721e+16,223632974.08,382.0,50.0,7.303657296105051,251.65743469620898,19100,19100.0,116.18036675453186
-1230023864.32,-215347127.04,-2148399354.88,0.1743355542421341,0.1553952117264271,19150.0,5.776299076848976e+16,223483077.12,383.0,50.0,10.139641898519772,188.59585856605594,19150,19150.0,116.44548416137695
-1261634227.2,-220093327.36,-2208057292.8,0.17372251331806182,0.2290705005824566,19200.0,5.9824995118371304e+16,227770211.84,384.0,50.0,3.338876493255844,187.16433122383393,19200,19200.0,116.71262907981873
-1273077703.68,-221303495.68,-2232598435.84,0.17310949206352233,0.1911446450650692,19250.0,6.054857547427349e+16,229431841.28,385.0,50.0,0.8314712177538279,185.86236723812766,19250,19250.0,116.98164510726929
-1277398154.24,-221275562.24,-2244679367.68,0.1724998778104782,0.1598769099265337,19300.0,6.095017003473437e+16,229468891.52,386.0,50.0,13.539806577036291,177.95065260814152,19300,19300.0,117.26262187957764
-1302224148.48,-224777665.92,-2292881336.32,0.17189427733421325,0.20067816883325576,19350.0,6.2543675744195704e+16,232894417.28,387.0,50.0,9.502926502563406,175.67647714193328,19350,19350.0,117.54723691940308
-1309032780.8,-225160592.64,-2309477447.68,0.17129077076911925,0.17909183155745267,19400.0,6.3034455128759336e+16,233339842.56,388.0,50.0,-1.3830089851822613,181.52775217068776,19400,19400.0,117.82267808914185
-1327375769.6,-227513361.92,-2346491586.56,0.1706898844242096,0.178653399720788,19450.0,6.421364733340811e+16,235826007.68,389.0,50.0,6.460661608383889,136.83899387238029,19450,19450.0,118.18807196617126
-1345093360.64,-229739327.36,-2382533457.92,0.17009230136871337,0.1795620810985565,19500.0,6.5316033496895976e+16,238236981.76,390.0,50.0,12.469990043640136,175.91151545552077,19500,19500.0,118.4723060131073
-1346157793.28,-229121671.68,-2389133056.0,0.16949862658977508,0.1514328420907259,19550.0,6.54227314796449e+16,237655232.64,391.0,50.0,15.107062641976475,65.2930486468008,19550,19550.0,119.23808312416077
-1375010360.32,-233210373.76,-2445127352.32,0.16890835642814636,0.18562111526727676,19600.0,6.7544100008498296e+16,241769968.0,392.0,50.0,7.736240531898355,85.77863109354305,19600,19600.0,119.82098007202148
-1392767042.56,-235392533.76,-2481585858.56,0.16831766963005065,0.18549895033240318,19650.0,6.867670229770568e+16,244167168.64,393.0,50.0,13.119723104232095,71.41419135845351,19650,19650.0,120.52112197875977
-1401435443.2,-236032556.8,-2501928519.68,0.16772919416427612,0.14458752319216728,19700.0,6.92473598276377e+16,245070218.88,394.0,50.0,2.8833760089602603,145.56166279478958,19700,19700.0,120.86461901664734
-1412059622.4,-236993952.0,-2525821491.2,0.1671464192867279,0.1445169147849083,19750.0,6.9880218963736e+16,245990912.64,395.0,50.0,-0.00107827982808395,173.70768201125168,19750,19750.0,121.1524600982666
-1434858608.64,-239980430.72,-2571582177.28,0.16656536400318145,0.18824520044028759,19800.0,7.16061285506089e+16,248629372.8,396.0,50.0,3.2336225611244025,162.0536121349808,19800,19800.0,121.46099996566772
-1464236318.72,-244031341.44,-2629353072.64,0.16598708927631378,0.20231952637434006,19850.0,7.351468248073765e+16,252801113.6,397.0,50.0,-1.0120081977813697,184.3039274016436,19850,19850.0,121.73229193687439
-1468699653.12,-243924769.92,-2642497218.56,0.165406574010849,0.17493440598249435,19900.0,7.39710909600183e+16,252891873.28,398.0,50.0,15.551511615113544,145.37932449613112,19900,19900.0,122.07622003555298
-1492975006.72,-247086704.64,-2691387688.96,0.16482985496520997,0.17155753329396248,19950.0,7.563970259078611e+16,256390286.08,399.0,50.0,-3.1969644469019407,149.92282786718243,19950,19950.0,122.40972709655762
-1516247582.72,-250057646.72,-2738640865.28,0.16425598084926604,0.21227032668888568,20000.0,7.72540462789768e+16,259277632.0,400.0,50.0,-2.1914241383445976,190.56702529805176,20000,20000.0,122.6721019744873
-1532347530.24,-251827900.16,-2773084385.28,0.16368087828159333,0.2149457250535488,20050.0,7.840693198073627e+16,260975777.92,401.0,50.0,1.946120413974878,69.81251853792489,20050,20050.0,123.38830590248108
-1545476357.12,-253097402.88,-2802253424.64,0.16310959100723266,0.20738516390323639,20100.0,7.944343935885771e+16,262375196.16,402.0,50.0,2.483528393751019,270.0803099066056,20100,20100.0,123.57343697547913
-1571979540.48,-256535010.56,-2855794370.56,0.16254013359546662,0.21763401322066783,20150.0,8.120767654668534e+16,265832264.96,403.0,50.0,8.7742864976558,184.49784944060823,20150,20150.0,123.84444284439087
-1579499873.28,-256863268.48,-2874986915.84,0.16197439432144164,0.20393432676792145,20200.0,8.178273006154416e+16,266216917.76,404.0,50.0,5.583580203124644,178.13763256361142,20200,20200.0,124.12512373924255
-1601457146.88,-259524972.16,-2920526581.76,0.16141035676002502,0.22093002781271934,20250.0,8.338458621822107e+16,268752681.6,405.0,50.0,4.466693401932879,181.5407948088463,20250,20250.0,124.40054512023926
-1610153666.56,-260029846.4,-2941987368.96,0.16085066378116608,0.18945837900042534,20300.0,8.398869535863603e+16,269377767.68,406.0,50.0,6.421374218295792,191.95214083890826,20300,20300.0,124.66103100776672
-1639141575.68,-263787930.24,-3000638986.24,0.16029222249984743,0.20238810256123543,20350.0,8.604321014454682e+16,273453400.96,407.0,50.0,5.375452289353081,184.3479942510801,20350,20350.0,124.93225693702698
-1645586252.8,-263908690.56,-3018159912.96,0.159736812710762,0.15405016005039215,20400.0,8.644288640081461e+16,274132088.32,408.0,50.0,-0.6730572342903418,178.91193256950783,20400,20400.0,125.21172499656677
-1661890554.88,-265602027.52,-3053808660.48,0.15918540418148042,0.1608636884391308,20450.0,8.755314300597306e+16,275575541.76,409.0,50.0,14.887227418828113,180.89734798003977,20450,20450.0,125.48812699317932
-1692301644.8,-269521762.56,-3115537971.2,0.15863510012626647,0.20586908221244812,20500.0,9.000822705775182e+16,279415939.2,410.0,50.0,-0.5656969813849653,175.35932677602207,20500,20500.0,125.77325701713562
-1692214507.52,-268582058.24,-3121238312.96,0.15808792054653167,0.13565366096794607,20550.0,8.981593759233867e+16,279009583.36,411.0,50.0,3.2373882598397827,53.768771555945726,20550,20550.0,126.7031638622284
-1723775948.8,-272643728.0,-3185382717.44,0.15754448592662812,0.18303372964262962,20600.0,9.219334767596536e+16,282758286.08,412.0,50.0,14.639620872093385,170.79231465857043,20600,20600.0,126.99591779708862
-1740884766.72,-274398523.52,-3223011829.76,0.15700127482414244,0.18620772376656533,20650.0,9.349918197349875e+16,284494745.6,413.0,50.0,8.16166219354965,168.08520187998127,20650,20650.0,127.29338693618774
-1770962856.96,-278169835.52,-3284817735.68,0.15645937979221344,0.20124899834394455,20700.0,9.568936068879746e+16,288287425.28,414.0,50.0,15.183661391247565,139.534599011818,20700,20700.0,127.6517219543457
-1787693690.88,-279825043.84,-3322048593.92,0.15591831266880035,0.18530823290348053,20750.0,9.678046586298434e+16,290239336.96,415.0,50.0,9.855757656638533,171.48305327282392,20750,20750.0,127.94329714775085
-1799410703.36,-280687127.04,-3350045132.8,0.1553805649280548,0.18251400515437127,20800.0,9.771911378565595e+16,290857968.64,416.0,50.0,20.957105540540027,146.58407668510543,20800,20800.0,128.2843999862671
-1838316057.6,-285757580.8,-3428823777.28,0.1548444777727127,0.21742853835225107,20850.0,1.0073865515257824e+17,296052632.32,417.0,50.0,1.57173052381515,176.49258818519522,20850,20850.0,128.5676989555359
-1830786810.88,-283612646.4,-3421116139.52,0.15431009292602538,0.17978468410670756,20900.0,1.0006402505434464e+17,294083105.28,418.0,50.0,9.35828640916508,209.19201078103663,20900,20900.0,128.80671501159668
-1873895377.92,-289281898.24,-3508121026.56,0.15378032445907594,0.21513353571295737,20950.0,1.033408353058947e+17,299841870.08,419.0,50.0,-3.3303584626769265,188.89023993716725,20950,20950.0,129.07141995429993
-1889301995.52,-290654475.52,-3543488716.8,0.1532490485906601,0.1891312924027443,21000.0,1.044627103129849e+17,301421322.24,420.0,50.0,2.0058530731649373,210.08305543005804,21000,21000.0,129.30942177772522
-1894394992.64,-290438570.24,-3559572930.56,0.15272186696529388,0.15285886116325856,21050.0,1.0485059911740818e+17,301455825.92,421.0,50.0,-1.2769578692311292,70.1804547711888,21050,21050.0,130.02187085151672
-1927276800.0,-294460276.48,-3627972802.56,0.15219812273979186,0.18205516301095487,21100.0,1.0731920063385829e+17,305498608.64,422.0,50.0,-1.6199016424599648,282.5097766623694,21100,21100.0,130.1988570690155
-1965476346.88,-299253184.0,-3706659768.32,0.15167495846748352,0.22373362213373185,21150.0,1.1041911492638147e+17,309997000.96,423.0,50.0,8.174661803784597,199.0905345340556,21150,21150.0,130.44999885559082
-1976913694.72,-299956702.72,-3735069931.52,0.15115011513233184,0.2048412299156189,21200.0,1.1112771340556304e+17,311031302.4,424.0,50.0,13.56070810997338,196.1060298467267,21200,21200.0,130.7049629688263
-1968022492.16,-297591061.76,-3725044428.8,0.15063237845897676,0.14863164618611335,21250.0,1.1026419545601475e+17,309046099.2,425.0,50.0,9.090449758914932,183.99669409015974,21250,21250.0,130.97670793533325
-2030515671.04,-305974440.96,-3850269829.12,0.15011742651462556,0.2473053602874279,21300.0,1.15366745796279e+17,316862640.64,426.0,50.0,13.073974945137776,144.18618401828837,21300,21300.0,131.3234829902649
-2026310497.28,-304298058.24,-3849277982.72,0.14960040152072906,0.18908192574977875,21350.0,1.148684941994125e+17,315416322.56,427.0,50.0,4.8018309476176935,185.03651051905288,21350,21350.0,131.5937008857727
-2053407360.0,-307306887.68,-3907799408.64,0.14909015595912933,0.19159562453627588,21400.0,1.1691281926131286e+17,318900871.68,428.0,50.0,1.8364716232181841,156.09930381928032,21400,21400.0,131.9140110015869
-2084701296.64,-310916606.72,-3974497914.88,0.1485802125930786,0.21365290239453316,21450.0,1.1951748809047933e+17,322083781.12,429.0,50.0,5.830929095329127,159.4611713197516,21450,21450.0,132.22756695747375
-2108226862.08,-313344637.44,-4026590402.56,0.14806937992572786,0.20569637022912501,21500.0,1.2122246057077768e+17,324769735.68,430.0,50.0,5.072085340554494,162.29427383413133,21500,21500.0,132.53565001487732
-2116108513.28,-313441182.72,-4048909271.04,0.14756149291992188,0.20305173613131047,21550.0,1.2164796366798717e+17,324865717.76,431.0,50.0,6.114379351926747,68.64890609988232,21550,21550.0,133.26399397850037
-2145061606.4,-316639985.92,-4111646341.12,0.1470583599805832,0.19464543402194978,21600.0,1.2394858214154306e+17,328382078.72,432.0,50.0,-3.470178289732445,214.01431965319335,21600,21600.0,133.49762296676636
-2187351260.16,-321768332.8,-4200198277.12,0.14655483841896058,0.2524825392663479,21650.0,1.2762478758670107e+17,333028358.4,433.0,50.0,3.9938242438188514,179.9176059395102,21650,21650.0,133.77552795410156
-2181444249.6,-319805940.48,-4196361123.84,0.14605363309383393,0.1758965177834034,21700.0,1.2690727412980253e+17,331944659.2,434.0,50.0,7.303657296105051,175.57837453167843,21700,21700.0,134.06030106544495
-2219460075.52,-324265256.96,-4277047787.52,0.14555448591709136,0.19401107884943486,21750.0,1.299277693230619e+17,336331910.4,435.0,50.0,17.839646923432113,191.5035914593945,21750,21750.0,134.3213930130005
-2222538972.16,-323611982.08,-4290581309.44,0.1450587248802185,0.16532947152853011,21800.0,1.2985872102362973e+17,335995086.08,436.0,50.0,6.51065979270345,186.98443692518936,21800,21800.0,134.58879590034485
-2272710819.84,-329780380.16,-4395171235.84,0.14456562757492064,0.21947241932153702,21850.0,1.341636766955733e+17,341761144.32,437.0,50.0,3.9196077570500165,185.9648811666788,21850,21850.0,134.85766410827637
-2299743078.4,-332558389.76,-4455325286.4,0.14407049715518952,0.24245379641652107,21900.0,1.3623031119199862e+17,344383033.6,438.0,50.0,2.213160334428153,190.67462283801834,21900,21900.0,135.11989307403564
-2292197094.4,-330342963.2,-4448557178.88,0.14357977747917175,0.1672076217085123,21950.0,1.354710035801414e+17,342905286.4,439.0,50.0,9.228757209224915,201.72332529833074,21950,21950.0,135.36775708198547
-2335652239.36,-335456209.92,-4540814581.76,0.1430930531024933,0.20541381910443307,22000.0,1.3911809258300637e+17,347786543.36,440.0,50.0,5.679288632006571,209.48476675656778,22000,22000.0,135.60643792152405
-2379658772.48,-340602045.44,-4634494955.52,0.14260496497154235,0.24170527458190919,22050.0,1.4263280176027664e+17,352558640.64,441.0,50.0,-3.3139597307246653,69.83709189722003,22050,22050.0,136.3223900794983
-2356845342.72,-336201382.4,-4598107832.32,0.14211846947669982,0.1714563912153244,22100.0,1.4075876871568883e+17,348567470.08,442.0,50.0,1.4992195365649437,263.2641891247257,22100,22100.0,136.51231288909912
-2394726410.24,-340445162.24,-4680111759.36,0.14163833379745483,0.18903082177042962,22150.0,1.4357837007785296e+17,353232480.0,443.0,50.0,1.7161425181964578,197.70911620908697,22150,22150.0,136.76520991325378
-2417485117.44,-342517056.0,-4732773273.6,0.14116018354892731,0.19204705737531186,22200.0,1.4586344592375808e+17,355388519.68,444.0,50.0,-2.587942512403547,183.09309744526377,22200,22200.0,137.0382959842682
-2450999777.28,-346087982.08,-4806678343.68,0.14068385541439057,0.17852264508605004,22250.0,1.4820605715156042e+17,359412157.44,445.0,50.0,1.2925981449342654,118.97796429104315,22250,22250.0,137.4585418701172
-2466626918.4,-347118054.4,-4845672960.0,0.14020730495452882,0.18433791369199753,22300.0,1.4967887634158845e+17,360135055.36,446.0,50.0,1.4689439156398691,191.38457663452212,22300,22300.0,137.71979689598083
-2522974535.68,-353831575.04,-4964931911.68,0.13973308444023133,0.22740468889474869,22350.0,1.5429213919712902e+17,366749953.28,447.0,50.0,11.324080808759335,184.18786679009375,22350,22350.0,137.99125981330872
-2511471421.44,-351035093.76,-4950821621.76,0.13925881087779998,0.1583677300810814,22400.0,1.5293043046745114e+17,364316094.72,448.0,50.0,6.069228791019981,194.51159054799692,22400,22400.0,138.2483148574829
-2542643363.84,-354189047.04,-5020860641.28,0.13879064619541168,0.16568585336208344,22450.0,1.5575874752084966e+17,367828523.52,449.0,50.0,-1.1442430269719495,194.68132410837867,22450,22450.0,138.50514578819275
-2597862389.76,-360649103.36,-5138668380.16,0.1383212214708328,0.221129683367908,22500.0,1.604733114750337e+17,373946112.0,450.0,50.0,9.506647260033397,205.5201232443366,22500,22500.0,138.74843192100525
-2622907688.96,-362887306.24,-5197133496.32,0.1378504902124405,0.2343477301299572,22550.0,1.6224153748488848e+17,375879896.32,451.0,50.0,7.993831212889436,63.88567334335771,22550,22550.0,139.53108096122742
-2658377308.16,-366535616.0,-5276489768.96,0.13738293051719666,0.24895964115858077,22600.0,1.655624460554522e+17,379602632.96,452.0,50.0,7.843329049178253,273.7535456803725,22600,22600.0,139.7137269973755
-2664326717.44,-366113478.4,-5297358950.4,0.1369166147708893,0.19576301664114,22650.0,1.659774361035132e+17,379624980.48,453.0,50.0,4.404294735987708,192.31739883205682,22650,22650.0,139.9737150669098
-2708914042.88,-370972098.56,-5395197030.4,0.1364529711008072,0.22197662621736527,22700.0,1.697125650639985e+17,384654759.68,454.0,50.0,1.1582074137647531,181.325595490793,22700,22700.0,140.24946308135986
-2715310315.52,-370592999.68,-5417148928.0,0.13599038183689116,0.19768734902143478,22750.0,1.7013605983450038e+17,384468038.4,455.0,50.0,0.10165927452886869,196.74590658389616,22750,22750.0,140.50359773635864
-2714899435.52,-369296686.08,-5425483407.36,0.13553383231163024,0.15504355862736702,22800.0,1.6967748377112477e+17,383717002.24,456.0,50.0,5.636170660005366,192.357794420469,22800,22800.0,140.76353096961975
-2776305981.44,-376370991.36,-5557510942.72,0.13507901549339293,0.21421194568276405,22850.0,1.7503781942288448e+17,390091904.0,457.0,50.0,7.699601666559232,185.33756476844204,22850,22850.0,141.03330993652344
-2774735257.6,-374901351.68,-5563709071.36,0.13462486922740935,0.15171503469347955,22900.0,1.7425409165777437e+17,389143820.8,458.0,50.0,16.515348089493397,186.20727620786224,22900,22900.0,141.30182886123657
-2807846021.12,-378100238.08,-5639517655.04,0.13417475640773774,0.16174709595739842,22950.0,1.776803526837325e+17,392746830.08,459.0,50.0,-3.283843382259306,185.92333456859515,22950,22950.0,141.57075595855713
-2859637944.32,-383774095.36,-5753136680.96,0.1337250816822052,0.2011323745548725,23000.0,1.8199565201131437e+17,397717288.96,460.0,50.0,10.804943136509854,192.82525064546263,23000,23000.0,141.83005905151367
-2884238366.72,-385771372.8,-5812355952.64,0.1332746571302414,0.2036040748655796,23050.0,1.840693673626226e+17,400040514.56,461.0,50.0,13.489895594049843,70.55639627952169,23050,23050.0,142.53871202468872
-2909892014.08,-387891869.44,-5873859379.2,0.1328258728981018,0.20948441341519355,23100.0,1.8628690845557062e+17,402304253.44,462.0,50.0,2.755800138085977,242.00997973587397,23100,23100.0,142.74531483650208
-2952677109.76,-392265090.56,-5970169159.68,0.1323786062002182,0.2228318625688553,23150.0,1.9000284475339834e+17,406843023.36,463.0,50.0,-0.8948493402109499,180.51259451047363,23150,23150.0,143.02230405807495
-2980300584.96,-394596934.4,-6036096491.52,0.1319325578212738,0.21750137582421303,23200.0,1.9230731942039126e+17,409070475.52,464.0,50.0,15.189699286740336,180.19122772045833,23200,23200.0,143.29978799819946
-3024412395.52,-399080672.0,-6135653089.28,0.13148681104183196,0.2183691693842411,23250.0,1.9588105450500915e+17,413935799.04,465.0,50.0,14.810012937163558,196.3789117257899,23250,23250.0,143.55439805984497
-3054009896.96,-401619431.68,-6206051655.68,0.13104310810565947,0.23362616956233978,23300.0,1.987525404464985e+17,416141064.96,466.0,50.0,-0.3046520979405578,197.78071603312893,23300,23300.0,143.80720281600952
-3088435425.28,-404771256.32,-6286455152.64,0.13060018241405488,0.25392838642001153,23350.0,2.015858650881668e+17,419088833.28,467.0,50.0,9.66417210615354,200.44406085335,23350,23350.0,144.05664992332458
-3112246364.16,-406514206.72,-6345451171.84,0.13015819549560548,0.2407259102165699,23400.0,2.0351848560984064e+17,421164437.76,468.0,50.0,7.5319390001500395,193.5350861893147,23400,23400.0,144.3150007724762
-3118474690.56,-405959210.24,-6368685056.0,0.1297204601764679,0.20113369464874267,23450.0,2.0386558356366557e+17,421203303.68,469.0,50.0,1.233254149465692,207.4773493103387,23450,23450.0,144.55599212646484
-3165223761.92,-410656983.04,-6474780262.4,0.1292864227294922,0.21687861725687982,23500.0,2.0807419933958864e+17,425656424.96,470.0,50.0,4.613769792048112,195.6150701299622,23500,23500.0,144.81159710884094
-3176865331.2,-410790119.68,-6509254819.84,0.12885225176811219,0.20524548627436162,23550.0,2.0896948561603725e+17,426205736.96,471.0,50.0,20.007710387000394,69.93234027937562,23550,23550.0,145.5265748500824
-3146775941.12,-405563742.72,-6458074583.04,0.1284233057498932,0.12531693302094937,23600.0,2.057037237383594e+17,421494693.12,472.0,50.0,11.356435690385107,180.59404849248915,23600,23600.0,145.80343890190125
-3230053539.84,-414901248.0,-6639681658.88,0.12799991726875304,0.18751522660255432,23650.0,2.1360666697265053e+17,430369689.6,473.0,50.0,16.70762743576469,181.651811622448,23650,23650.0,146.0786919593811
-3273421957.12,-419070044.16,-6739716628.48,0.12757376909255982,0.2168829434737563,23700.0,2.1700124419666477e+17,434429207.04,474.0,50.0,11.020840127152384,184.50791338170487,23700,23700.0,146.34968400001526
-3311936808.96,-422577006.08,-6830122987.52,0.12714814364910126,0.21151607036590575,23750.0,2.2063321354025827e+17,438362268.16,475.0,50.0,6.626987083138726,183.32821939746472,23750,23750.0,146.62242007255554
-3345916446.72,-425483536.64,-6911394406.4,0.12672320365905762,0.20860024042427538,23800.0,2.2336145579407574e+17,441310970.88,476.0,50.0,10.015413840116828,189.41536582876537,23800,23800.0,146.88638997077942
-3366777016.32,-426706176.0,-6965755269.12,0.12629923462867737,0.19536688335239888,23850.0,2.253615196718026e+17,442751489.28,477.0,50.0,19.730953674067642,173.86955671036444,23850,23850.0,147.17396306991577
-3430237429.76,-433284093.44,-7108540907.52,0.12587679505348207,0.236863898858428,23900.0,2.310529368289444e+17,448887009.28,478.0,50.0,12.864922283005587,189.2555405349308,23900,23900.0,147.4381561279297
-3464404428.8,-436127427.84,-7191000555.52,0.12545408189296722,0.23804802067577838,23950.0,2.3387306733107936e+17,451620125.44,479.0,50.0,-1.1285898465702466,213.46905330232133,23950,23950.0,147.67238187789917
-3481181368.32,-436771155.2,-7237527695.36,0.12503325909376145,0.22562778912484646,24000.0,2.353286585482897e+17,452827857.92,480.0,50.0,16.548155297041227,200.3799011645461,24000,24000.0,147.9219090938568
-3515548467.2,-439605100.8,-7320755343.36,0.12461489140987396,0.23072553873062135,24050.0,2.382620428712542e+17,455305783.04,481.0,50.0,0.6515579708203152,69.5522743470868,24050,24050.0,148.6407928466797
-3540821329.92,-441286336.0,-7385234841.6,0.12419968485832214,0.20510592967271804,24100.0,2.4042345664438336e+17,457724405.76,482.0,50.0,5.095539605825071,257.1447839686691,24100,24100.0,148.83523678779602
-3558453708.8,-442012559.36,-7433850449.92,0.12378523498773575,0.1981877464801073,24150.0,2.4210070047222138e+17,458489998.08,483.0,50.0,0.1491385335479123,190.49864880208924,24150,24150.0,149.09770607948303
-3632745338.88,-449719948.8,-7601201868.8,0.12337428987026215,0.2579945465922356,24200.0,2.4881314955312234e+17,465820640.0,484.0,50.0,2.8338253892365266,186.0757629263151,24200,24200.0,149.36641478538513
-3632211312.64,-448164432.64,-7612195594.24,0.12296277016401291,0.20379355750977993,24250.0,2.487641230168346e+17,464848244.48,485.0,50.0,13.221502913007658,188.094996784589,24250,24250.0,149.63223791122437
-3654683176.96,-449442300.16,-7671439216.64,0.12255376249551773,0.17187765941023828,24300.0,2.5044925996377046e+17,466948491.52,486.0,50.0,9.399986806035562,180.45916084397481,24300,24300.0,149.9093098640442
-3727860080.64,-456905738.24,-7837439877.12,0.12214737325906753,0.24028313130140305,24350.0,2.5721562840770282e+17,473490494.72,487.0,50.0,10.85107101905995,187.83151381943867,24350,24350.0,150.17550587654114
-3730355466.24,-455697230.08,-7855116390.4,0.12174116134643555,0.19572237811982632,24400.0,2.5715561156550067e+17,472649402.88,488.0,50.0,0.8436541393113508,177.52345222112552,24400,24400.0,150.4571590423584
-3779335659.52,-460143872.0,-7970803732.48,0.12133733868598938,0.20806750699877738,24450.0,2.6180747552551338e+17,476941349.12,489.0,50.0,-0.526482230659802,181.61861815309763,24450,24450.0,150.73246002197266
-3814201016.32,-462842995.2,-8057040445.44,0.12093612015247344,0.2035598486661911,24500.0,2.646523058691716e+17,480199024.64,490.0,50.0,1.5404691844719895,182.7124869749466,24500,24500.0,151.00611472129822
-3834776330.24,-463803787.52,-8113196482.56,0.12053437173366546,0.19638615198433398,24550.0,2.6616303209695674e+17,481181149.44,491.0,50.0,22.64716467557717,70.11468620686311,24550,24550.0,151.71923303604126
-3905904691.2,-470827992.32,-8276654735.36,0.12013433814048767,0.2443849475681782,24600.0,2.7298949503609997e+17,487951010.56,492.0,50.0,6.772402945370272,252.12790385930913,24600,24600.0,151.91754603385925
-3914936596.48,-470353012.48,-8308830617.6,0.1197358900308609,0.19302199192345143,24650.0,2.7375427959025302e+17,488154999.04,493.0,50.0,9.744422407537119,137.84202490178563,24650,24650.0,152.28028011322021
-3958735431.68,-474036857.6,-8414905917.44,0.11933903008699417,0.2257424495369196,24700.0,2.776481587883357e+17,491360294.4,494.0,50.0,17.004890493966197,158.6345557722303,24700,24700.0,152.59547090530396
-4020626933.76,-479840446.72,-8559835668.48,0.11894337475299835,0.24850346997380257,24750.0,2.836251445414173e+17,496857675.52,495.0,50.0,0.01961202275024121,171.31439345049725,24750,24750.0,152.88733291625977
-4083702999.04,-485735599.36,-8707751342.08,0.11854627221822739,0.26516659289598465,24800.0,2.8987800944421894e+17,503245790.72,496.0,50.0,10.369001490995332,182.76869713752848,24800,24800.0,153.16090297698975
-4087373875.2,-484554405.12,-8729261957.12,0.11815193682909012,0.22564099553972483,24850.0,2.890356660270373e+17,502076098.56,497.0,50.0,1.7996489126056776,190.67011551207625,24850,24850.0,153.42313694953918
-4146802370.56,-489958755.84,-8869976576.0,0.11775794595479966,0.23250151708722114,24900.0,2.951974604432946e+17,507798727.68,498.0,50.0,0.3073905608073293,192.5009913495572,24900,24900.0,153.68287587165833
-4189439754.24,-493343294.72,-8975166300.16,0.11736555129289628,0.2634742385149002,24950.0,2.9882097935283386e+17,511151792.64,499.0,50.0,5.3127101794369676,195.8265907072684,24950,24950.0,153.9382050037384
-4220028661.76,-495288249.6,-9054794997.76,0.1169744274020195,0.22650624088943005,25000.0,3.0127900288023e+17,513515855.36,500.0,50.0,2.0884904398757342,184.45971382230525,25000,25000.0,154.20926809310913
-4240261765.12,-496011731.2,-9112319180.8,0.11658656507730485,0.2195245185494423,25050.0,3.0346888850696045e+17,514498542.08,501.0,50.0,9.179310949933985,69.70554615837933,25050,25050.0,154.92657113075256
-4260957736.96,-496788764.16,-9170892595.2,0.11620024025440216,0.1968376561999321,25100.0,3.052306579783785e+17,515678932.48,502.0,50.0,-2.175908222012797,245.43135208010523,25100,25100.0,155.13029408454895
-4320550717.44,-502065912.32,-9313441218.56,0.11581604480743408,0.23762243896722793,25150.0,3.107846650442285e+17,520406684.16,503.0,50.0,1.1751888033255415,184.2239480801953,25150,25150.0,155.4017038345337
