tarun2001sharma/OffPolicy-Enhancements-DDPG-BC-finetune-SAC/policy/exp_local/2025.03.28_bcrl/bcrl/train.csv
actor_ent,actor_logprob,actor_loss,batch_reward,bc_loss,buffer_size,critic_loss,critic_target_q,episode,episode_length,episode_reward,fps,frame,rl_loss,step,total_time
0.4299314022064209,-0.23532538294792174,0.07980586431920528,-2.287161979675293,0.020069275923073292,550.0,5.0652548027038575,-2.2777478981018064,11.0,50.0,-38.007673735837145,13.848691852421814,550,0.05973658954724669,550.0,21.383042097091675
0.4299314022064209,-0.28248895406723024,0.20176988065242768,-2.2884895420074463,0.0031551142185926445,600.0,4.573333244323731,-2.3060454368591308,12.0,50.0,-37.80743855162612,289.7106971064185,600,0.19861476600170136,600.0,21.555628061294556
0.4299314022064209,-0.3108088731765747,0.35436047077178956,-2.286032781600952,0.0022986160814762115,650.0,3.9927942943573,-2.3460455322265625,13.0,50.0,-40.65772622632035,292.1536586215303,650,0.3520618522167206,650.0,21.726770877838135
0.4299314022064209,-0.3666940820217133,0.551660237312317,-2.2893860435485838,0.0023764319419860838,700.0,3.2753203105926514,-2.4025296497344972,14.0,50.0,-33.73116461462836,267.6813227630062,700,0.5492838084697723,700.0,21.91356086730957
0.4299314022064209,-0.3856044518947601,0.8019080042839051,-2.283001880645752,0.0024655733108520507,750.0,2.402003960609436,-2.4660160541534424,15.0,50.0,-42.41555189859549,267.85534560669885,750,0.7994424343109131,750.0,22.1002299785614
0.4299314022064209,-0.4218679916858673,1.1181642937660217,-2.2835705852508545,0.00232257703691721,800.0,1.6175366258621215,-2.5679211711883543,16.0,50.0,-36.17050137181631,219.87657608729842,800,1.1158417129516602,800.0,22.32762908935547
0.4299314022064209,-0.4212420403957367,1.4955506372451781,-2.280471820831299,0.002193698443472386,850.0,1.026252155303955,-2.711769685745239,17.0,50.0,-35.0156722605218,197.19749726839672,850,1.4933569383621217,850.0,22.581182956695557
0.4299314022064209,-0.43241348743438723,1.8992936992645264,-2.2746589851379393,0.0023180608674883843,900.0,0.6289370846748352,-2.8956037521362306,18.0,50.0,-42.60838148892862,186.21140966115885,900,1.896975646018982,900.0,22.84969401359558
0.4299314022064209,-0.44569867372512817,2.267130289077759,-2.272572603225708,0.002213643416762352,950.0,0.4958047044277191,-3.1212045097351075,19.0,50.0,-35.548433817637914,182.14927514706815,950,2.264916639328003,950.0,23.124195098876953
0.4299314022064209,-0.4475778162479401,2.583821134567261,-2.2785886192321776,0.0021632587537169456,1000.0,0.43385968804359437,-3.374924020767212,20.0,50.0,-41.8152278024513,194.07831052129893,1000,2.581657876968384,1000.0,23.381824016571045
0.4299314022064209,-0.44607306599617,2.8800179290771486,-2.2777042388916016,0.002309152141213417,1050.0,0.4280356311798096,-3.6418107986450194,21.0,50.0,-36.4526129561243,65.38102653553997,1050,2.877708787918091,1050.0,24.14657211303711
0.4299314022064209,-0.4156475806236267,3.1774771404266358,-2.2778996658325195,0.0022857558354735376,1100.0,0.42254379749298093,-3.9229622364044188,22.0,50.0,-36.62990660796866,103.23159908284609,1100,3.17519139289856,1100.0,24.630922079086304
0.4299314022064209,-0.4541336560249329,3.514755268096924,-2.2663001155853273,0.0020978066287934785,1150.0,0.4179784953594208,-4.2090778732299805,23.0,50.0,-35.91290546549258,56.513968744677776,1150,3.512657461166382,1150.0,25.515661001205444
0.4299314022064209,-0.42884220600128176,3.8406529331207278,-2.271411933898926,0.0022800195515155796,1200.0,0.4039602935314178,-4.505996723175048,24.0,50.0,-36.35719747067832,101.81891626304567,1200,3.8383728885650634,1200.0,26.006728887557983
0.4299314022064209,-0.4182588279247284,4.206097249984741,-2.2592652797698975,0.002169550403952599,1250.0,0.3915664255619049,-4.822807788848877,25.0,50.0,-37.3154671002655,104.94738248571653,1250,4.20392767906189,1250.0,26.4831600189209
0.4299314022064209,-0.42388890743255614,4.570275650024414,-2.263075351715088,0.002187532089650631,1300.0,0.36377207159996033,-5.141524410247802,26.0,50.0,-38.983829243581916,86.19560504148146,1300,4.568088092803955,1300.0,27.063235759735107
0.4299314022064209,-0.44018646359443664,4.949825572967529,-2.2628664684295656,0.0021567517817020422,1350.0,0.35985734820365906,-5.4748255729675295,27.0,50.0,-37.12292914777329,111.976865131319,1350,4.947668838500976,1350.0,27.509757041931152
0.4299314022064209,-0.44011361718177794,5.352024765014648,-2.2615865230560304,0.0021483974009752277,1400.0,0.33324546217918394,-5.824454193115234,28.0,50.0,-39.979105693051906,80.44635476304185,1400,5.3498763084411625,1400.0,28.131288766860962
0.4299314022064209,-0.41494554460048677,5.727547874450684,-2.264841146469116,0.0022319346033036714,1450.0,0.31521291851997374,-6.1747652053833,29.0,50.0,-42.59812249381308,132.2285869212266,1450,5.725315971374512,1450.0,28.509421825408936
0.4299314022064209,-0.41928228735923767,6.1165423011779785,-2.2703043270111083,0.002278281949460507,1500.0,0.30468758881092073,-6.534993743896484,30.0,50.0,-40.75733534348587,128.81776954408448,1500,6.114263954162598,1500.0,28.897567987442017
0.4299314022064209,-0.41564979434013366,6.521091918945313,-2.272919702529907,0.0022098338939249514,1550.0,0.2922117203474045,-6.905385284423828,31.0,50.0,-45.7011273391307,55.59039238617917,1550,6.518882083892822,1550.0,29.797003984451294
0.4299314022064209,-0.43343116879463195,6.919696178436279,-2.2896467304229735,0.002209685415029526,1600.0,0.29487030148506166,-7.272166633605957,32.0,50.0,-35.291458083540036,116.31968344702847,1600,6.917486476898193,1600.0,30.226855993270874
0.4299314022064209,-0.41410136461257935,7.348868560791016,-2.289198293685913,0.0022108036093413832,1650.0,0.2600413227081299,-7.661367626190185,33.0,50.0,-46.717402060458774,138.92978161715266,1650,7.34665771484375,1650.0,30.586750984191895
0.4299314022064209,-0.4156029999256134,7.749924430847168,-2.29470534324646,0.00230202903598547,1700.0,0.247780504822731,-8.050754432678223,34.0,50.0,-39.77232178417259,87.05115555457779,1700,7.747622432708741,1700.0,31.161126852035522
0.4299314022064209,-0.44186982870101926,8.18309154510498,-2.3007425689697265,0.002130670201033354,1750.0,0.2339547896385193,-8.44203598022461,35.0,50.0,-42.144036630984374,146.88592196629364,1750,8.180960960388184,1750.0,31.5015287399292
0.4299314022064209,-0.44360015392303465,8.595781745910644,-2.3072337532043456,0.0020194540284574035,1800.0,0.2032662969827652,-8.845207481384277,36.0,50.0,-35.16771854709196,151.06051634893674,1800,8.593762283325196,1800.0,31.832524061203003
0.4299314022064209,-0.42951673865318296,9.026134567260742,-2.304141387939453,0.0021605439633131025,1850.0,0.19275903910398484,-9.255154914855957,37.0,50.0,-34.35096785785554,121.8599937708896,1850,9.023973999023438,1850.0,32.242830753326416
0.4299314022064209,-0.43867819786071777,9.476468391418457,-2.2955241298675535,0.002277420595288277,1900.0,0.16087499558925628,-9.680698165893554,38.0,50.0,-46.08660649991418,153.60656278039224,1900,9.47419090270996,1900.0,32.56833791732788
0.4299314022064209,-0.4227119755744934,9.906669616699219,-2.3018387508392335,0.002150448065251112,1950.0,0.14624992698431016,-10.090919036865234,39.0,50.0,-34.766529650681704,150.19157527153556,1950,9.90451919555664,1950.0,32.90124702453613
0.4299314022064209,-0.4352342677116394,10.334260902404786,-2.303586845397949,0.0021886122040450577,2000.0,0.13096873641014098,-10.506864128112793,40.0,50.0,-41.07136680673738,124.17795062611468,2000,10.332072296142577,2000.0,33.30389618873596
0.4299314022064209,-0.4221047043800354,10.76785816192627,-2.303936548233032,0.0021700086109340193,2050.0,0.12433172821998596,-10.927312622070312,41.0,50.0,-31.20859234807529,52.84604595584437,2050,10.76568820953369,2050.0,34.25004291534424
0.4299314022064209,-0.41918736457824707,11.209062728881836,-2.297370014190674,0.00227823019772768,2100.0,0.10240821748971939,-11.35551097869873,42.0,50.0,-34.89018107964933,140.81092350364827,2100,11.206784553527832,2100.0,34.60512900352478
0.4299314022064209,-0.4208183193206787,11.646073303222657,-2.289905824661255,0.0022781751081347463,2150.0,0.09353811457753182,-11.781334686279298,43.0,50.0,-43.838005351888555,133.34011536231296,2150,11.643795204162597,2150.0,34.98011016845703
0.4299314022064209,-0.4306145453453064,12.07363353729248,-2.2944664764404297,0.002106048423796892,2200.0,0.08455804079771041,-12.198761749267579,44.0,50.0,-39.10937444360716,153.18502416305827,2200,12.071527481079102,2200.0,35.30651497840881
0.4299314022064209,-0.442365345954895,12.506073760986329,-2.298512439727783,0.0019779033288359637,2250.0,0.077838104814291,-12.615793495178222,45.0,50.0,-47.67150108867808,144.3258982552078,2250,12.504095802307129,2250.0,35.65295386314392
0.4299314022064209,-0.440115761756897,12.929541854858398,-2.310354013442993,0.0020954172573983674,2300.0,0.07038311749696731,-13.030424499511719,46.0,50.0,-45.517316415716095,150.96656228629018,2300,12.927446403503417,2300.0,35.98415279388428
0.4299314022064209,-0.43069864392280577,13.36569766998291,-2.3123066329956057,0.002212471224367619,2350.0,0.06507967874407768,-13.459213104248047,47.0,50.0,-46.23127626073319,160.20105799896874,2350,13.363485145568848,2350.0,36.296260833740234
0.4299314022064209,-0.4346048653125763,13.789909172058106,-2.3181865119934084,0.0021279234215617186,2400.0,0.057685566842556,-13.882451705932617,48.0,50.0,-39.32908213761855,151.62955614875827,2400,13.787781295776368,2400.0,36.62601184844971
0.4299314022064209,-0.4512983667850494,14.228441925048829,-2.32021053314209,0.0018914573267102242,2450.0,0.04800735794007778,-14.30758358001709,49.0,50.0,-36.800630171026626,150.0915012284854,2450,14.226550407409668,2450.0,36.9591429233551
0.4299314022064209,-0.41019326329231265,14.666706809997558,-2.322218379974365,0.002032858978956938,2500.0,0.04244900345802307,-14.738114280700684,50.0,50.0,-35.04931075393474,155.35483450390433,2500,14.664673881530762,2500.0,37.28098678588867
0.4299314022064209,-0.4335348093509674,15.09806468963623,-2.3225816345214843,0.001994218334555626,2550.0,0.03811771176755428,-15.165396995544434,51.0,50.0,-42.92268555645231,39.10046001703739,2550,15.096070480346679,2550.0,38.55974507331848
0.4299314022064209,-0.41995473504066466,15.53796588897705,-2.3202615451812743,0.0019500685483217239,2600.0,0.033206676468253135,-15.596472969055176,52.0,50.0,-38.2157537078143,77.25432180263228,2600,15.536015815734864,2600.0,39.20695877075195
0.4299314022064209,-0.410275444984436,15.972408676147461,-2.31793137550354,0.0020210240036249165,2650.0,0.030306591466069222,-16.02670295715332,53.0,50.0,-39.270322073711206,156.86854142278506,2650,15.970387649536132,2650.0,39.525696992874146
0.4299314022064209,-0.4250920033454895,16.402233963012694,-2.328589849472046,0.002046586465090513,2700.0,0.026142724379897116,-16.451449813842775,54.0,50.0,-29.408774571493932,143.24026009507676,2700,16.400187225341796,2700.0,39.87476205825806
0.4299314022064209,-0.4508663177490234,16.8345645904541,-2.3158638286590576,0.0018604542315006254,2750.0,0.02392785917967558,-16.87755439758301,55.0,50.0,-39.59550914038055,88.95611604262628,2750,16.8327042388916,2750.0,40.43683576583862
0.4299314022064209,-0.4318340992927551,17.25812255859375,-2.3069352531433105,0.0018898414149880409,2800.0,0.020544081144034863,-17.295680541992187,56.0,50.0,-43.30999013692805,92.40452004684663,2800,17.256232681274415,2800.0,40.977935791015625
0.4299314022064209,-0.4455998599529266,17.682743377685547,-2.3148848247528075,0.0020489177927374837,2850.0,0.02009171798825264,-17.723138427734376,57.0,50.0,-35.2032055578103,146.39692121037814,2850,17.680694427490234,2850.0,41.3194739818573
0.4299314022064209,-0.4201312804222107,18.103396606445312,-2.309715538024902,0.0020823611877858637,2900.0,0.017351904511451723,-18.13900535583496,58.0,50.0,-42.92839303274702,146.1364789305564,2900,18.101314392089844,2900.0,41.66162300109863
0.4299314022064209,-0.4351899230480194,18.53024513244629,-2.3128330230712892,0.001912880305200815,2950.0,0.015675382018089296,-18.56261001586914,59.0,50.0,-33.316681159517465,153.464145265934,2950,18.52833221435547,2950.0,41.98743391036987
0.4299314022064209,-0.41830915212631226,18.941358261108398,-2.3079364109039306,0.0019213199354708196,3000.0,0.014368397481739521,-18.974134674072264,60.0,50.0,-40.14934461493988,157.04345377700696,3000,18.93943717956543,3000.0,42.305816888809204
0.4299314022064209,-0.42077734231948855,19.34326171875,-2.30860276222229,0.0019102490469813354,3050.0,0.013740732073783875,-19.38012062072754,61.0,50.0,-37.25818673098186,60.58294654440795,3050,19.341351470947266,3050.0,43.13113188743591
0.4299314022064209,-0.416580411195755,19.75247886657715,-2.308604564666748,0.001845403216779232,3100.0,0.013225937522947788,-19.789122848510743,62.0,50.0,-34.03893397122117,123.02450573779436,3100,19.750633544921875,3100.0,43.53755497932434
0.4299314022064209,-0.42134098291397093,20.15250114440918,-2.3073642158508303,0.0019141774363815786,3150.0,0.01257279496639967,-20.188792037963868,63.0,50.0,-30.33988104868009,149.54522862645854,3150,20.150586853027345,3150.0,43.87190294265747
0.4299314022064209,-0.40306506991386415,20.557267684936523,-2.301604814529419,0.001962875220924616,3200.0,0.01212529718875885,-20.59611999511719,64.0,50.0,-26.098198961689885,127.16725010596502,3200,20.555304641723634,3200.0,44.26508688926697
0.4299314022064209,-0.4144997251033783,20.93404296875,-2.293111791610718,0.0020356990396976473,3250.0,0.011885858960449696,-20.97928680419922,65.0,50.0,-33.414893296754975,138.87384586451478,3250,20.932007217407225,3250.0,44.62512683868408
0.4299314022064209,-0.4317452073097229,21.295537719726564,-2.2798487091064454,0.0019035329110920428,3300.0,0.012291464507579803,-21.34414123535156,66.0,50.0,-30.46711297584039,157.684395414025,3300,21.29363426208496,3300.0,44.942216873168945
0.4299314022064209,-0.40084279417991636,21.67347526550293,-2.2775955772399903,0.0018303889855742453,3350.0,0.012029129564762115,-21.728525924682618,67.0,50.0,-32.98956130532981,149.71583181926889,3350,21.671644821166993,3350.0,45.276183128356934
0.4299314022064209,-0.38127669513225554,22.038913116455078,-2.273651647567749,0.0017945911511778835,3400.0,0.012502009458839893,-22.099675674438476,68.0,50.0,-32.70170789435684,159.2230297103672,3400,22.03711868286133,3400.0,45.590209007263184
0.4299314022064209,-0.4081101322174072,22.40572135925293,-2.2736018562316893,0.0018386514596641062,3450.0,0.011934813819825649,-22.471002960205077,69.0,50.0,-22.702664445079236,154.46346434155973,3450,22.403882598876955,3450.0,45.91391110420227
0.4299314022064209,-0.40304160237312314,22.744127578735352,-2.264615049362183,0.0018242673389613627,3500.0,0.01264499943703413,-22.815973892211915,70.0,50.0,-22.878846626001653,158.28900254210168,3500,22.74230323791504,3500.0,46.2297899723053
0.4299314022064209,-0.3718920934200287,23.02650161743164,-2.2396996879577635,0.0018950855545699593,3550.0,0.013944268673658371,-23.11607879638672,71.0,50.0,-33.38907096591696,62.27548893257393,3550,23.024606704711914,3550.0,47.032674074172974
0.4299314022064209,-0.3865696549415588,23.394314804077148,-2.2435204219818115,0.0018799505718052386,3600.0,0.013776783123612404,-23.48350975036621,72.0,50.0,-21.811578538268538,136.095983220588,3600,23.392434844970705,3600.0,47.400062084198
0.4299314022064209,-0.36575317740440366,23.66537109375,-2.2240397930145264,0.0017875124141573909,3650.0,0.016256317533552646,-23.771757659912108,73.0,50.0,-27.23119846103451,147.17785684709912,3650,23.663583450317383,3650.0,47.73978805541992
0.4299314022064209,-0.3889918351173401,23.95006591796875,-2.2102949142456056,0.0018446070700883865,3700.0,0.016136081591248512,-24.06174842834473,74.0,50.0,-25.361839876962126,140.29846552567304,3700,23.948221435546873,3700.0,48.09617209434509
0.4299314022064209,-0.3617964345216751,24.30093452453613,-2.2192620468139648,0.0019471730366349225,3750.0,0.017588925175368787,-24.427211227416993,75.0,50.0,-27.387007499231213,138.36468360527027,3750,24.29898742675781,3750.0,48.457536935806274
0.4299314022064209,-0.3432954055070877,24.528559112548827,-2.198254404067993,0.0018080887123942374,3800.0,0.019030039608478547,-24.67299560546875,76.0,50.0,-29.194981052458196,139.28502877485215,3800,24.52675117492676,3800.0,48.81651306152344
0.4299314022064209,-0.33593233227729796,24.816059951782226,-2.193852062225342,0.001654766995459795,3850.0,0.01922636426985264,-24.963236083984373,77.0,50.0,-22.18788252697629,127.02029088385058,3850,24.814405136108398,3850.0,49.21015191078186
0.4299314022064209,-0.3072943443059921,25.056573181152345,-2.1826278877258303,0.0018199588805437083,3900.0,0.02180603750050068,-25.226612091064453,78.0,50.0,-27.80931140687714,139.58800229235212,3900,25.05475326538086,3900.0,49.56835103034973
0.4299314022064209,-0.2996810191869736,25.327561492919923,-2.180867004394531,0.0018435968048870564,3950.0,0.023271890357136726,-25.509799423217775,79.0,50.0,-24.841985590799418,147.05411718178624,3950,25.325717849731447,3950.0,49.90836191177368
0.4299314022064209,-0.2780207759141922,25.54789031982422,-2.169741306304932,0.0018548792637884618,4000.0,0.025515912994742394,-25.745984115600585,80.0,50.0,-21.682985125639853,148.08398019758636,4000,25.54603530883789,4000.0,50.24600887298584
0.4299314022064209,-0.2629884612560272,25.75408805847168,-2.157672472000122,0.0016475639492273331,4050.0,0.026867943555116652,-25.973026580810547,81.0,50.0,-24.972311908499897,65.15846776536326,4050,25.752440643310546,4050.0,51.01336884498596
0.4299314022064209,-0.25504230737686157,25.932509155273436,-2.1448129844665527,0.001690928392112255,4100.0,0.030411966517567633,-26.168755798339845,82.0,50.0,-22.968416824384686,277.0294869051299,4100,25.930818176269533,4100.0,51.19385600090027
0.4299314022064209,-0.2356700536608696,26.151530685424806,-2.1394086933135985,0.0019747825749218463,4150.0,0.03172129176557064,-26.3966015625,83.0,50.0,-21.93535685955215,139.154068286054,4150,26.149555969238282,4150.0,51.553170919418335
0.4299314022064209,-0.21574707627296447,26.323396301269533,-2.1321475887298584,0.0019871784485876558,4200.0,0.03459999620914459,-26.60561492919922,84.0,50.0,-17.824672289175602,156.77472648642993,4200,26.321409072875976,4200.0,51.87210202217102
0.4299314022064209,-0.17593605369329451,26.50884864807129,-2.125520887374878,0.0016623992547392843,4250.0,0.03661956533789635,-26.80558052062988,85.0,50.0,-12.799323379159093,167.07485637941488,4250,26.507186279296874,4250.0,52.17136907577515
0.4299314022064209,-0.17397186636924744,26.542838363647462,-2.0923207283020018,0.0016762579120695594,4300.0,0.040933239981532095,-26.8641805267334,86.0,50.0,-20.094444540263147,161.40381122433274,4300,26.541162033081054,4300.0,52.481152057647705
0.4299314022064209,-0.15921528428792953,26.723655548095703,-2.0881595325469973,0.0016662328392267225,4350.0,0.04008184686303139,-27.05653923034668,87.0,50.0,-5.590806027167773,158.03135983023975,4350,26.72198944091797,4350.0,52.79754590988159
0.4299314022064209,-0.12977752596139908,26.821967010498046,-2.072145929336548,0.0016669702529907232,4400.0,0.05660753339529037,-27.178202514648437,88.0,50.0,-22.165372492820563,172.18576323176725,4400,26.820299987792968,4400.0,53.08793091773987
0.4299314022064209,-0.1521814739704132,26.98137565612793,-2.0630266284942627,0.0016986554451286792,4450.0,0.06415416449308395,-27.336678619384767,89.0,50.0,-25.346603458848204,171.82841018212326,4450,26.979676818847658,4450.0,53.37891888618469
0.4299314022064209,-0.14154065877199173,27.059236145019533,-2.0509766006469725,0.0018129816353321076,4500.0,0.06658753737807274,-27.43168502807617,90.0,50.0,-5.029281585857978,174.96153961669765,4500,27.05742317199707,4500.0,53.66469597816467
0.4299314022064209,-0.07982016235589981,27.140356292724608,-2.041524724960327,0.001892685320228338,4550.0,0.07969577983021736,-27.566720962524414,91.0,50.0,-13.693997339378383,67.73864918832564,4550,27.138463668823242,4550.0,54.40282702445984
0.4299314022064209,-0.08595137968659401,27.17477210998535,-2.0241011810302734,0.0017647196389734745,4600.0,0.08079078391194344,-27.61797164916992,92.0,50.0,-23.360650981062143,190.47771290722218,4600,27.173007431030275,4600.0,54.66532516479492
0.4299314022064209,-0.07558531381189823,27.168877182006835,-2.005721621513367,0.0015150481164455413,4650.0,0.07848598539829255,-27.632671661376953,93.0,50.0,-20.497464754650224,167.9900094442473,4650,27.167362213134766,4650.0,54.96296286582947
0.4299314022064209,-0.056251611206680534,27.31638816833496,-2.0163776302337646,0.001707161024212837,4700.0,0.08865421324968338,-27.84381416320801,94.0,50.0,-9.109377222157269,152.1328980776206,4700,27.31468116760254,4700.0,55.29162812232971
0.4299314022064209,-0.03522893467918038,27.31213562011719,-1.996034526824951,0.0019148091450333594,4750.0,0.09847998172044754,-27.831419677734374,95.0,50.0,-7.837535260041118,163.0613819014207,4750,27.310220794677733,4750.0,55.59826111793518
0.4299314022064209,-0.03216651804745197,27.392991561889648,-1.997081527709961,0.0021386906392872333,4800.0,0.10156798720359803,-27.95622138977051,96.0,50.0,-3.2405901129773955,159.60571038039268,4800,27.39085273742676,4800.0,55.91153383255005
0.4299314022064209,-0.004063849411904812,27.227940673828126,-1.9634344530105592,0.0023947882950305934,4850.0,0.11077045530080795,-27.81841636657715,97.0,50.0,-18.27937813639859,157.91058104924238,4850,27.22554588317871,4850.0,56.228168964385986
0.4299314022064209,0.006428138930350542,27.191322250366213,-1.956795883178711,0.002200862865895033,4900.0,0.10403751432895661,-27.830613555908204,98.0,50.0,-20.454997457620593,173.8635025857938,4900,27.18912139892578,4900.0,56.51575183868408
0.4299314022064209,0.00673841405659914,27.25936393737793,-1.955819034576416,0.00165439872443676,4950.0,0.11112802982330322,-27.899032516479494,99.0,50.0,3.2053312217761647,162.20013132849837,4950,27.25770957946777,4950.0,56.824012994766235
0.4299314022064209,-0.0074667977355420585,27.103020248413085,-1.923032398223877,0.0017765705026686193,5000.0,0.13613262981176377,-27.765707397460936,100.0,50.0,-18.20769960941658,166.08868508794856,5000,27.10124366760254,5000.0,57.1250581741333
0.4299314022064209,-0.01761992512270808,27.104456939697265,-1.9212872409820556,0.0018680389001965519,5050.0,0.1360258102416992,-27.782998962402345,101.0,50.0,-16.558535402624404,66.1812673567281,5050,27.102588729858397,5050.0,57.88055896759033
0.4299314022064209,-0.026698628328740596,26.937790756225585,-1.8969450187683106,0.0015849479436874383,5100.0,0.1598857268691063,-27.63440658569336,102.0,50.0,-21.48419721593776,204.933086428198,5100,26.936205825805665,5100.0,58.124541997909546
0.4299314022064209,-0.054262239150702954,26.795911254882814,-1.8835159349441528,0.0018230407349765299,5150.0,0.15559050261974336,-27.566901779174806,103.0,50.0,-3.817479637795582,165.42054158088612,5150,26.794088134765627,5150.0,58.42680287361145
0.4299314022064209,-0.13317506462335588,26.756380767822264,-1.882018918991089,0.0016217363178730013,5200.0,0.15231361448764802,-27.52182502746582,104.0,50.0,-14.88294289048638,178.318485873727,5200,26.754759216308592,5200.0,58.707200050354004
0.4299314022064209,-0.27814947605133056,26.730679626464845,-1.8803442001342774,0.0018820086270570752,5250.0,0.15829677104949952,-27.51570999145508,105.0,50.0,1.1663410643434133,154.79878354837757,5250,26.728797607421875,5250.0,59.03020000457764
0.4299314022064209,-0.5691485178470611,26.432757720947265,-1.84589684009552,0.0024095387533307074,5300.0,0.179442840218544,-27.27267234802246,106.0,50.0,-12.698061253173098,166.04844430931388,5300,26.43034828186035,5300.0,59.33131694793701
0.4299314022064209,-0.874030418395996,26.309978637695313,-1.8359909105300902,0.002243848286569119,5350.0,0.1754177340865135,-27.121798553466796,107.0,50.0,-20.592805686784498,150.42621257549456,5350,26.30773468017578,5350.0,59.66370701789856
0.4299314022064209,-1.7770086526870728,26.17104995727539,-1.8324234437942506,0.0019101017527282237,5400.0,0.19461913734674455,-27.046379623413085,108.0,50.0,-6.698302728615392,160.95216605805524,5400,26.16913993835449,5400.0,59.97435808181763
0.4299314022064209,-3.156540994644165,26.019394760131835,-1.8227432870864868,0.0018630181103944776,5450.0,0.19365501791238784,-26.91896453857422,109.0,50.0,-8.498781611768782,162.06300447824054,5450,26.01753189086914,5450.0,60.28288006782532
0.4299314022064209,-4.86330023765564,25.9988330078125,-1.8302677774429321,0.0017724340520799164,5500.0,0.20304327875375747,-26.944365997314453,110.0,50.0,5.319586282115608,161.72756009590358,5500,25.997060470581054,5500.0,60.59204292297363
0.4299314022064209,-9.00587562561035,25.716743927001954,-1.802140097618103,0.0020155306980013847,5550.0,0.20447515249252318,-26.678151473999023,111.0,50.0,1.5247989354561202,62.55473888645125,5550,25.714728393554687,5550.0,61.39134383201599
0.4299314022064209,-16.92609504699707,25.45704360961914,-1.7823751306533813,0.00199210276082158,5600.0,0.2225586861371994,-26.467365798950194,112.0,50.0,7.747438262269865,196.50293233836533,5600,25.45505142211914,5600.0,61.645792961120605
0.4299314022064209,-31.43052619934082,25.18414596557617,-1.7523928451538087,0.0028340908586978915,5650.0,0.22800259172916412,-26.188234939575196,113.0,50.0,-17.545541298420922,167.00287794304316,5650,25.18131187438965,5650.0,61.94518995285034
0.4299314022064209,-56.2756201171875,24.984251708984374,-1.7449993562698365,0.002313535369932652,5700.0,0.22798252165317534,-26.01711357116699,114.0,50.0,-4.437615891237259,158.76089178242933,5700,24.98193817138672,5700.0,62.260130167007446
0.4299314022064209,-95.65598236083984,24.73685218811035,-1.7275676488876344,0.003443463578820229,5750.0,0.23706260800361634,-25.792016220092773,115.0,50.0,0.037730828299833874,162.6503650642721,5750,24.733408584594727,5750.0,62.56753897666931
0.4299314022064209,-158.93648986816407,24.485247116088868,-1.7195638084411622,0.003335031792521477,5800.0,0.25116798281669617,-25.55483383178711,116.0,50.0,0.3123208038804606,159.94935685493866,5800,24.481912307739258,5800.0,62.880139112472534
0.4299314022064209,-259.33947265625,24.35645683288574,-1.7207497787475585,0.004290944680571557,5850.0,0.24089968085289,-25.424302215576173,117.0,50.0,11.889597263876963,165.17859182263769,5850,24.352165908813475,5850.0,63.18284296989441
0.4299314022064209,-430.6827819824219,24.20160400390625,-1.7199654722213744,0.005791835695505142,5900.0,0.26954843163490294,-25.31766372680664,118.0,50.0,3.6591873349241624,160.29644667567584,5900,24.195812225341797,5900.0,63.494765758514404
0.4299314022064209,-694.9847802734375,23.755913009643553,-1.6694283771514893,0.007524972513318062,5950.0,0.2838835126161575,-24.867167434692384,119.0,50.0,4.913831707749077,133.61724142764484,5950,23.74838806152344,5950.0,63.86896991729736
0.4299314022064209,-1086.7226391601562,23.5527921295166,-1.6782085466384888,0.008764062047004702,6000.0,0.2611337375640869,-24.697179641723633,120.0,50.0,0.7942451600294973,160.65747581502671,6000,23.544028091430665,6000.0,64.18019104003906
0.4299314022064209,-1678.97865234375,23.30921859741211,-1.658267889022827,0.019387531429529193,6050.0,0.29261472523212434,-24.439817962646483,121.0,50.0,-6.3383664632630765,66.71710118186012,6050,23.289831161499023,6050.0,64.92962408065796
0.4299314022064209,-2493.8444873046874,22.779130630493164,-1.6143489265441895,0.025096780747175224,6100.0,0.2978354549407959,-23.939667205810547,122.0,50.0,-1.845323625617656,208.57077217308628,6100,22.754033813476564,6100.0,65.16935205459595
0.4299314022064209,-3610.792919921875,22.505864639282226,-1.6031228637695312,0.030563918769359585,6150.0,0.30551649153232574,-23.624647216796873,123.0,50.0,-8.06596064254662,173.50561846091733,6150,22.475300674438476,6150.0,65.45752716064453
0.4299314022064209,-5044.74169921875,22.197916107177733,-1.5927437162399292,0.043237507641315454,6200.0,0.2979271638393402,-23.36101448059082,124.0,50.0,-1.411172153401278,171.9860944928254,6200,22.154678802490235,6200.0,65.74824810028076
0.4299314022064209,-6885.32580078125,22.122154312133787,-1.6133572721481324,0.06146980649232865,6250.0,0.28349823772907257,-23.287720489501954,125.0,50.0,6.961054863217795,195.9248345923807,6250,22.060684432983397,6250.0,66.00344800949097
0.4299314022064209,-9268.2930859375,21.618835372924806,-1.578940191268921,0.06973834776878358,6300.0,0.2776487571001053,-22.772899627685547,126.0,50.0,19.653651505375965,186.21289774926925,6300,21.549096984863283,6300.0,66.27195811271667
0.4299314022064209,-12202.3366015625,21.38922264099121,-1.5644436836242677,0.1088148093223572,6350.0,0.2691220384836197,-22.54104850769043,127.0,50.0,3.6832542288992585,186.69679237741178,6350,21.280407943725585,6350.0,66.5397720336914
0.4299314022064209,-15693.340390625,21.122959976196288,-1.5661256122589111,0.12779248714447022,6400.0,0.2656272041797638,-22.293760833740233,128.0,50.0,8.892158108936613,189.0446769346153,6400,20.99516731262207,6400.0,66.80426096916199
0.4299314022064209,-20097.895703125,20.83555793762207,-1.5474808597564698,0.12636494874954227,6450.0,0.2688740801811218,-22.027397232055662,129.0,50.0,17.996736002320567,194.6531350620348,6450,20.709192962646483,6450.0,67.06112790107727
0.4299314022064209,-25830.02328125,20.327285919189453,-1.5269824171066284,0.1447139730453491,6500.0,0.2793718332052231,-21.49886734008789,130.0,50.0,0.7762880825594234,188.54973773976087,6500,20.182571868896485,6500.0,67.32631087303162
0.4299314022064209,-32774.914921875,19.98323631286621,-1.4946517419815064,0.21182680463790896,6550.0,0.287251752614975,-21.12076416015625,131.0,50.0,5.285949889124559,67.46837870148387,6550,19.771409454345704,6550.0,68.06739783287048
0.4299314022064209,-41163.3178125,19.52980842590332,-1.476584701538086,0.23829359149932863,6600.0,0.2869942545890808,-20.62407341003418,132.0,50.0,1.0741785515095064,234.99660473007043,6600,19.291514892578125,6600.0,68.28016805648804
0.4299314022064209,-51090.6609375,19.191957321166992,-1.4706771326065065,0.28105707478523256,6650.0,0.28057578921318055,-20.29038444519043,133.0,50.0,7.549617001188034,174.33438519370745,6650,18.91090019226074,6650.0,68.56697297096252
0.4299314022064209,-63175.2934375,18.96796585083008,-1.457392644882202,0.3571256270408631,6700.0,0.3059669476747513,-20.004349822998048,134.0,50.0,1.5248152012101084,167.58111752602034,6700,18.610840454101563,6700.0,68.86533784866333
0.4299314022064209,-77390.7915625,18.62514045715332,-1.452925033569336,0.4194623222351075,6750.0,0.3084214776754379,-19.623747482299805,135.0,50.0,-2.214332099181828,162.25597603396838,6750,18.20567825317383,6750.0,69.17349100112915
0.4299314022064209,-93396.11,18.299666976928712,-1.4297529220581056,0.5586475887298584,6800.0,0.29951399981975557,-19.12389373779297,136.0,50.0,5.1642160023098,189.17752080847006,6800,17.741019515991212,6800.0,69.43779397010803
0.4299314022064209,-111497.33375,18.041436920166017,-1.4258173274993897,0.6010235414505004,6850.0,0.3036047834157944,-18.869263153076172,137.0,50.0,-1.3825623162676113,190.10544331152914,6850,17.44041320800781,6850.0,69.7008068561554
0.4299314022064209,-132529.75625,17.523188705444337,-1.3932356357574462,0.7103323116302491,6900.0,0.29924717247486116,-18.247998657226564,138.0,50.0,1.4496845710033526,187.6382467966469,6900,16.81285629272461,6900.0,69.96727776527405
0.4299314022064209,-156741.159375,17.503564834594727,-1.411984634399414,0.9046027717590333,6950.0,0.29703056931495664,-18.077616806030274,139.0,50.0,3.1760391895983737,182.35771346784102,6950,16.598961868286132,6950.0,70.24146485328674
0.4299314022064209,-183767.95875,17.19505828857422,-1.3878450250625611,1.1375103206634523,7000.0,0.29742971420288083,-17.526219635009767,140.0,50.0,14.121313541511956,182.8482147216584,7000,16.057547950744627,7000.0,70.51491785049438
0.4299314022064209,-213040.86625,16.853513832092286,-1.3760659503936767,1.1247115249633788,7050.0,0.28899573981761933,-17.15761028289795,141.0,50.0,2.348643731487943,66.50518842405226,7050,15.728802375793457,7050.0,71.26674008369446
0.4299314022064209,-245933.86625,16.25819049835205,-1.3185325956344605,1.3479179306030276,7100.0,0.2965736305713654,-16.354846534729003,142.0,50.0,8.805619920498875,229.05425035770068,7100,14.91027244567871,7100.0,71.48503184318542
0.4299314022064209,-281050.165,16.263193855285646,-1.3183810472488404,1.6186807022094727,7150.0,0.3054575330018997,-16.061140022277833,143.0,50.0,4.89281490163812,178.03479788954493,7150,14.644513282775879,7150.0,71.76587390899658
0.4299314022064209,-318761.09875,16.15777168273926,-1.3486272048950196,1.6703345985412599,7200.0,0.2638977432250977,-15.964622192382812,144.0,50.0,5.574521102278917,165.10693776777742,7200,14.48743709564209,7200.0,72.06870794296265
0.4299314022064209,-360792.55625,15.810556526184081,-1.3228190422058106,1.9230760803222653,7250.0,0.2857964849472046,-15.346651573181152,145.0,50.0,6.247236947298248,176.62979074634785,7250,13.88748046875,7250.0,72.35178709030151
0.4299314022064209,-406298.1075,15.598687171936035,-1.3216686534881592,2.015857723236084,7300.0,0.2842502051591873,-15.0801420211792,146.0,50.0,2.141237728520343,178.62894124240754,7300,13.582829399108887,7300.0,72.6316978931427
0.4299314022064209,-456953.04125,15.194621315002442,-1.2868939876556396,2.2264548950195313,7350.0,0.27910569846630096,-14.434865531921387,147.0,50.0,0.10165927452886869,184.3426467821926,7350,12.968166427612305,7350.0,72.90293192863464
0.4299314022064209,-510716.735,15.248916511535645,-1.301050796508789,2.544716812133789,7400.0,0.2827092903852463,-14.209992179870605,148.0,50.0,-2.728072542269544,187.35494891217826,7400,12.704199752807618,7400.0,73.16980600357056
0.4299314022064209,-569381.145,15.168534240722657,-1.291507935523987,2.932207397460938,7450.0,0.28360008537769316,-13.724473114013671,149.0,50.0,15.441044709831004,187.10137893624918,7450,12.236326866149902,7450.0,73.43704199790955
0.4299314022064209,-632145.395,14.886892127990723,-1.2954640769958496,2.9957012443542483,7500.0,0.27202640831470487,-13.390641136169434,150.0,50.0,-0.31133125093096403,189.56192404514084,7500,11.891190795898437,7500.0,73.70080900192261
0.4299314022064209,-699264.28,14.607326965332032,-1.3078646326065064,2.963374694824219,7550.0,0.2816488814353943,-13.206910438537598,151.0,50.0,2.6020473068001166,67.84822510648843,7550,11.643952255249024,7550.0,74.43774700164795
0.4299314022064209,-773685.105,14.583707542419434,-1.2641797161102295,3.6371505279541014,7600.0,0.28391482949256897,-12.455579376220703,152.0,50.0,6.44780859282206,207.85860692296407,7600,10.946556854248048,7600.0,74.67829608917236
0.4299314022064209,-851430.3525,14.700375823974609,-1.2788837814331055,4.1590957183837896,7650.0,0.27866891145706174,-12.095679168701173,153.0,50.0,1.0805782978812157,131.2632341242147,7650,10.54128002166748,7650.0,75.0592110157013
0.4299314022064209,-937446.8225,14.245843963623047,-1.2409366035461427,4.322268013000489,7700.0,0.283269322514534,-11.480208778381348,154.0,50.0,9.520291404424318,179.33097378126627,7700,9.923575706481934,7700.0,75.33802604675293
0.4299314022064209,-1029337.62,13.398242988586425,-1.1943469715118409,4.215935508728028,7750.0,0.30467633068561556,-10.732298774719238,155.0,50.0,-3.0916530178476336,166.4126353343723,7750,9.182307453155518,7750.0,75.63848495483398
0.4299314022064209,-1122296.45,14.25623691558838,-1.2306850242614746,5.189352241516112,7800.0,0.29255287408828734,-10.661091232299805,156.0,50.0,0.23703391850241395,164.29746575621496,7800,9.066884574890137,7800.0,75.94281196594238
0.4299314022064209,-1226162.14,13.609503326416016,-1.1887579941749573,5.361373390197754,7850.0,0.29743084967136385,-9.813020477294922,157.0,50.0,18.15344117655367,173.92824590692817,7850,8.248129806518556,7850.0,76.23028779029846
0.4299314022064209,-1335296.005,14.081921463012696,-1.21536301612854,6.140025215148926,7900.0,0.2904523295164108,-9.558472557067871,158.0,50.0,-2.2476155484801694,162.73379162427904,7900,7.941896095275879,7900.0,76.53753900527954
0.4299314022064209,-1451410.73,14.11182216644287,-1.185221254825592,6.781380386352539,7950.0,0.29886109292507174,-8.925490131378174,159.0,50.0,5.883528079170798,169.50942822802335,7950,7.330441608428955,7950.0,76.83250784873962
0.4299314022064209,-1576019.05,13.577258529663085,-1.1818076062202454,6.663362289428712,8000.0,0.30025217473506927,-8.538319759368896,160.0,50.0,4.275521039692965,172.1069135678862,8000,6.913896083831787,8000.0,77.12302589416504
0.4299314022064209,-1707738.2,13.74100471496582,-1.16464031457901,7.465753479003906,8050.0,0.30356172025203704,-7.899009017944336,161.0,50.0,8.520640340553543,68.68065091569201,8050,6.275250949859619,8050.0,77.85103273391724
0.4299314022064209,-1848993.89,13.87649528503418,-1.147955846786499,8.320279373168946,8100.0,0.30982419013977053,-7.183736495971679,162.0,50.0,0.5754716545358711,227.70206958253303,8100,5.556215677261353,8100.0,78.07061886787415
0.4299314022064209,-1997041.515,13.170253562927247,-1.113816270828247,8.230956085205078,8150.0,0.3298450219631195,-6.547193641662598,163.0,50.0,12.32107965636878,174.5638093937989,8150,4.939297361373901,8150.0,78.3570499420166
0.4299314022064209,-2152586.425,13.945019912719726,-1.1279414772987366,9.36691307067871,8200.0,0.33774682998657224,-6.204105205535889,164.0,50.0,13.105829024960233,167.50803333304046,8200,4.578106546401978,8200.0,78.65554475784302
0.4299314022064209,-2313217.7,12.89188507080078,-1.1360766339302062,8.712697753906248,8250.0,0.33180747509002684,-5.83130672454834,165.0,50.0,12.32107965636878,138.13456110710416,8250,4.179187250137329,8250.0,79.0175108909607
0.4299314022064209,-2492391.21,13.974860687255859,-1.122788438796997,10.490402740478514,8300.0,0.33249796092510225,-5.171444702148437,166.0,50.0,-3.9159711026418442,171.860233752313,8300,3.484457769393921,8300.0,79.30844593048096
0.4299314022064209,-2674053.6,14.046855182647706,-1.0817058634757997,11.249236816406249,8350.0,0.31951094686985015,-4.446905841827393,167.0,50.0,8.013740943623285,167.10614176139578,8350,2.797618198394775,8350.0,79.60765790939331
0.4299314022064209,-2869188.44,14.031173686981202,-1.0976150703430176,11.658633972167967,8400.0,0.3235131114721298,-4.058205003738403,168.0,50.0,17.004890493966197,168.93143508009362,8400,2.3725395965576173,8400.0,79.90363693237305
0.4299314022064209,-3074207.51,13.046335582733155,-1.059059545993805,11.57558776855469,8450.0,0.3355998766422272,-3.1549748849868773,169.0,50.0,12.45089309131903,166.42531322513165,8450,1.4707475584745406,8450.0,80.20407295227051
0.4299314022064209,-3282305.1,15.731311569213867,-1.1078139543533325,14.14004441833496,8500.0,0.3310842442512512,-3.291165146827698,170.0,50.0,5.978393567878607,167.40200069606087,8500,1.5912670212984086,8500.0,80.50275588035583
0.4299314022064209,-3509586.74,14.631596355438232,-1.0860854029655456,13.789037200927735,8550.0,0.3277387845516205,-2.553173348903656,171.0,50.0,-2.3811791239298152,67.78188935836826,8550,0.842559107542038,8550.0,81.24041700363159
0.4299314022064209,-3748829.36,15.948723945617676,-1.0388235187530517,16.08042141723633,8600.0,0.3300014364719391,-1.5481641483306885,172.0,50.0,13.516153959904567,203.35782759376374,8600,-0.13169797718524934,8600.0,81.48628997802734
0.4299314022064209,-3988716.76,15.030512886047363,-1.091074950695038,15.06715432739258,8650.0,0.3449912428855896,-1.70199034512043,173.0,50.0,1.7077810544981187,164.47580177122188,8650,-0.03664152920246124,8650.0,81.79028511047363
0.4299314022064209,-4249125.14,17.04300727844238,-1.016973021030426,18.123408691406254,8700.0,0.3489148235321045,-0.6350658077001572,174.0,50.0,7.768691156962857,158.512254520333,8700,-1.0804014891386031,8700.0,82.10571813583374
0.4299314022064209,-4516699.36,14.01831943511963,-1.0433410859107972,15.553404327392577,8750.0,0.3410309088230133,-0.18873591363430023,175.0,50.0,8.520640340553543,155.09792944110367,8750,-1.5350851035118103,8750.0,82.4280960559845
0.4299314022064209,-4803574.9,17.189745254516602,-1.014837794303894,19.394572174072263,8800.0,0.35860641360282897,0.4646179524064064,176.0,50.0,14.66795115657464,158.5068632200788,8800,-2.2048272109031677,8800.0,82.74354004859924
0.4299314022064209,-5094580.76,16.84715446472168,-1.0007697391510009,19.672777221679688,8850.0,0.34894643902778627,1.0936383533477783,177.0,50.0,3.165843507081062,168.98343324953265,8850,-2.825623016357422,8850.0,83.03942775726318
0.4299314022064209,-5405862.74,15.75189956665039,-1.0013259410858155,19.261380615234376,8900.0,0.34303625345230104,1.7987467235326766,178.0,50.0,-1.491192280077831,165.42367319636583,8900,-3.5094816732406615,8900.0,83.34168291091919
0.4299314022064209,-5716819.22,19.972204246520995,-1.0058929204940796,23.787551879882816,8950.0,0.3349405348300934,2.075132681131363,179.0,50.0,9.618939106147694,162.66626125860589,8950,-3.815347890853882,8950.0,83.64906096458435
0.4299314022064209,-6046764.68,17.068848533630373,-1.0123117399215698,21.327443267822268,9000.0,0.34939528584480284,2.518257353305817,180.0,50.0,9.826900235458078,163.10602289696365,9000,-4.258595304489136,9000.0,83.95561099052429
0.4299314022064209,-6404263.14,18.44873836517334,-0.9764259266853332,23.559364379882812,9050.0,0.3514046585559845,3.39693398475647,181.0,50.0,17.719659831424337,57.96132432994158,9050,-5.110626306533813,9050.0,84.81825494766235
0.4299314022064209,-6757896.12,22.863267364501954,-0.9642257404327392,28.530245971679683,9100.0,0.3474210751056671,3.9567303705215453,182.0,50.0,16.530619892663623,131.71832535773976,9100,-5.666979389190674,9100.0,85.19785284996033
0.4299314022064209,-7117361.08,23.958637771606444,-0.9931767463684082,29.966188964843756,9150.0,0.3436230063438416,4.2579008483886716,183.0,50.0,1.74049009227579,157.63366696833123,9150,-6.0075520896911625,9150.0,85.51504802703857
0.4299314022064209,-7508172.98,18.697456932067873,-0.9333922338485717,25.70056463623047,9200.0,0.3613714349269867,5.281852016448974,184.0,50.0,6.202154556069203,163.38787511433205,9200,-7.003108139038086,9200.0,85.82106900215149
0.4299314022064209,-7910995.66,20.819613342285155,-0.9108746695518494,28.45289141845703,9250.0,0.3434890997409821,5.934132881164551,185.0,50.0,19.85562012015123,161.23777349618425,9250,-7.63327844619751,9250.0,86.13117003440857
0.4299314022064209,-8327547.74,25.51306354522705,-0.9367161321640015,33.53887384033204,9300.0,0.3506772065162659,6.290427169799805,186.0,50.0,17.59967131662271,155.02100060762055,9300,-8.025811042785644,9300.0,86.45370697975159
0.4299314022064209,-8738875.68,21.92837615966797,-0.9356565833091736,30.31264685058594,9350.0,0.3579713845252991,6.6487071990966795,187.0,50.0,3.2771664100238276,169.45532586070925,9350,-8.384271450042725,9350.0,86.74876999855042
0.4299314022064209,-9191323.64,26.239916801452637,-0.9335996603965759,35.34749243164063,9400.0,0.3594898438453674,7.4187194442749025,188.0,50.0,-1.62660249294645,167.68456158502798,9400,-9.107576313018798,9400.0,87.04694986343384
0.4299314022064209,-9640604.08,26.682482604980468,-0.9218582701683045,36.32904296875,9450.0,0.33843714594841,7.923786792755127,189.0,50.0,17.717012989975192,167.0256222786633,9450,-9.646561164855957,9450.0,87.34630703926086
0.4299314022064209,-10119625.76,24.55163429260254,-0.9462605023384094,34.63246575927734,9500.0,0.3413034951686859,8.368849868774413,190.0,50.0,13.238913279461796,169.14998814342104,9500,-10.080831756591797,9500.0,87.64190292358398
0.4299314022064209,-10621157.52,31.43687915802002,-0.9216315174102783,42.04548632812501,9550.0,0.34534873604774474,8.898193130493164,191.0,50.0,11.896877071587316,68.1872258849472,9550,-10.608608169555664,9550.0,88.3751790523529
0.4299314022064209,-11114785.96,32.32814105987549,-0.9062443876266479,43.443481079101566,9600.0,0.3571676301956177,9.428233680725098,192.0,50.0,10.659662275953899,240.6436895565684,9600,-11.115340690612793,9600.0,88.58295607566833
0.4299314022064209,-11648016.52,24.973376388549806,-0.8866679143905639,36.62552880859376,9650.0,0.35931443572044375,9.916061820983886,193.0,50.0,3.4746583218409217,177.34405720601455,9650,-11.65215316772461,9650.0,88.86489510536194
0.4299314022064209,-12231707.6,29.59887683868408,-0.8251035761833191,42.40217993164064,9700.0,0.34556294322013853,11.164696197509766,194.0,50.0,-0.15482906292934473,161.62149248210116,9700,-12.803304290771484,9700.0,89.17426109313965
0.4299314022064209,-12766286.32,38.07397090911865,-0.887143406867981,50.783289245605474,9750.0,0.34783079981803894,11.020102005004883,195.0,50.0,0.6976541684718782,193.75036377528065,9750,-12.70931941986084,9750.0,89.43232488632202
0.4299314022064209,-13338012.32,38.3043204498291,-0.8692935299873352,51.72801379394531,9800.0,0.3404561722278595,11.765910263061523,196.0,50.0,3.2771664100238276,178.71875524634046,9800,-13.423694572448731,9800.0,89.71209502220154
0.4299314022064209,-13928252.36,37.871250228881834,-0.8636246895790101,51.9536928100586,9850.0,0.35625365138053894,12.429617347717285,197.0,50.0,6.694430614797469,180.64164913785825,9850,-14.082443237304688,9850.0,89.9888870716095
0.4299314022064209,-14540753.68,39.88389991760254,-0.8894031381607056,54.12491210937501,9900.0,0.3494651758670807,12.525200538635254,198.0,50.0,2.6087527604792715,165.74359104053667,9900,-14.241013336181641,9900.0,90.29055905342102
0.4299314022064209,-15184454.6,36.30346839904785,-0.8495212173461915,51.35954089355469,9950.0,0.35178574740886687,13.378305015563965,199.0,50.0,2.377340559354499,175.35507456022262,9950,-15.056073341369629,9950.0,90.57569599151611
0.4299314022064209,-15833503.88,42.295340614318846,-0.8702550721168518,57.641190917968736,10000.0,0.3572772443294525,13.697062225341798,200.0,50.0,6.544974622892589,165.40345026938223,10000,-15.345851287841796,10000.0,90.8779878616333
0.4299314022064209,-16501106.4,41.88569496154785,-0.8451614356040955,57.91002136230469,10050.0,0.33593428015708926,14.335179824829101,201.0,50.0,6.626987083138726,68.47615197795861,10050,-16.02432762145996,10050.0,91.60817003250122
0.4299314022064209,-17224587.68,35.761776733398435,-0.8094185161590576,52.53740832519531,10100.0,0.35708009481430053,15.14585163116455,202.0,50.0,6.128329104249248,231.37438781803397,10100,-16.775632705688476,10100.0,91.82427096366882
0.4299314022064209,-17965590.8,49.00299850463867,-0.7873318839073181,66.48194250488282,10150.0,0.3483728075027466,15.851928482055664,203.0,50.0,-0.9427466577604875,174.3569960558434,10150,-17.478944816589355,10150.0,92.11104011535645
0.4299314022064209,-18687057.52,40.85624610900879,-0.7951039266586304,58.62378283691407,10200.0,0.3526287281513214,16.147265815734862,204.0,50.0,1.2252795001155246,169.69995144845444,10200,-17.767537231445313,10200.0,92.40567874908447
0.4299314022064209,-19450737.84,48.80869903564453,-0.7878840088844299,67.19101928710937,10250.0,0.3541747283935547,16.800733528137208,205.0,50.0,-0.6486247999111487,172.05593997102253,10250,-18.382320709228516,10250.0,92.69628286361694
0.4299314022064209,-20176191.92,61.1885090637207,-0.8114536881446839,79.83386303710938,10300.0,0.34565903306007384,17.04465576171875,206.0,50.0,1.2218932878935913,162.39028609437466,10300,-18.645355682373047,10300.0,93.00418400764465
0.4299314022064209,-20930718.96,48.870196228027346,-0.8189906239509582,67.78301232910155,10350.0,0.36591732025146484,17.30411247253418,207.0,50.0,5.315110233979629,190.86811850622166,10350,-18.912817459106446,10350.0,93.26614499092102
0.4299314022064209,-21743223.52,48.980689239501956,-0.8177840042114258,68.42055541992188,10400.0,0.33868147850036623,17.803875617980957,208.0,50.0,-1.2769578692311292,182.03006533338078,10400,-19.439867706298827,10400.0,93.54082584381104
0.4299314022064209,-22591760.96,50.71181930541992,-0.8333093667030335,70.46578088378905,10450.0,0.3513605344295502,18.112121047973634,209.0,50.0,15.039719583908049,191.13078887457004,10450,-19.75396255493164,10450.0,93.80242681503296
0.4299314022064209,-23482546.96,57.71572006225586,-0.8184200000762939,78.15515966796876,10500.0,0.3604326140880585,18.826198120117187,210.0,50.0,1.6880308594091193,170.72529791318308,10500,-20.439440994262696,10500.0,94.0952959060669
0.4299314022064209,-24367434.08,63.167746200561524,-0.8101827120780944,83.88238024902343,10550.0,0.348260406255722,19.07372314453125,211.0,50.0,19.84467216622899,68.88816257347784,10550,-20.7146337890625,10550.0,94.82111096382141
0.4299314022064209,-25294674.32,53.3203084564209,-0.7679082703590393,74.98559729003908,10600.0,0.3423496425151825,20.076453857421875,212.0,50.0,7.588640221337368,241.7703175527285,10600,-21.665290145874025,10600.0,95.02792000770569
0.4299314022064209,-26237738.56,56.56448684692383,-0.7604742717742919,78.74007397460937,10650.0,0.35071873784065244,20.594981994628906,213.0,50.0,3.678551963996446,182.9811107727665,10650,-22.175589141845702,10650.0,95.30117201805115
0.4299314022064209,-27210676.16,58.19860778808594,-0.7707985281944275,80.79517602539063,10700.0,0.34860537767410277,21.016186599731444,214.0,50.0,10.66822363587449,186.88445995018557,10700,-22.596570053100585,10700.0,95.56871819496155
0.4299314022064209,-28166207.36,63.929791641235354,-0.7976678252220154,86.6015300292969,10750.0,0.35502987742424014,21.06395034790039,215.0,50.0,17.004890493966197,178.906285323326,10750,-22.671740493774415,10750.0,95.84819507598877
0.4299314022064209,-29216349.28,64.32868339538574,-0.7211927402019501,87.92894506835937,10800.0,0.33712923765182495,22.060881958007812,216.0,50.0,9.826900235458078,182.28083990870104,10800,-23.60026351928711,10800.0,96.12249708175659
0.4299314022064209,-30184128.48,68.16541854858399,-0.7806684970855713,91.88454052734374,10850.0,0.34359136581420896,22.146613235473634,217.0,50.0,17.823231475170033,187.65184649634566,10850,-23.71912384033203,10850.0,96.38894891738892
0.4299314022064209,-31280628.48,69.78772567749023,-0.7558487725257873,94.19188354492188,10900.0,0.3194806319475174,22.856707077026368,218.0,50.0,19.793536588431607,181.90280658202772,10900,-24.40415901184082,10900.0,96.66382217407227
0.4299314022064209,-32341469.52,66.34237533569336,-0.7714241099357605,90.88399841308596,10950.0,0.32181993782520296,22.990033264160157,219.0,50.0,0.9102237515994904,179.94554832221732,10950,-24.54162483215332,10950.0,96.94168496131897
0.4299314022064209,-33476675.28,76.22808303833008,-0.751239230632782,101.32897875976565,11000.0,0.33750231862068175,23.530218963623046,220.0,50.0,3.1275364972565125,189.7540253077511,11000,-25.10089874267578,11000.0,97.20518493652344
0.4299314022064209,-34653860.0,85.77720687866211,-0.7108017516136169,111.88298730468749,11050.0,0.32967770636081695,24.603069458007813,221.0,50.0,9.954272649268802,68.06508588821258,11050,-26.105782012939454,11050.0,97.9397759437561
0.4299314022064209,-35728765.76,72.04143257141114,-0.7479313564300537,98.06609790039063,11100.0,0.3209961599111557,24.479457015991212,222.0,50.0,2.141237728520343,232.65885276546646,11100,-26.02466697692871,11100.0,98.15468382835388
0.4299314022064209,-36953084.64,76.525546875,-0.703785811662674,103.30934814453127,11150.0,0.33703153967857363,25.270043869018554,223.0,50.0,16.785654546195047,176.2734772613609,11150,-26.78380325317383,11150.0,98.43833494186401
0.4299314022064209,-38145787.84,94.73088775634766,-0.7040934562683105,122.12312622070313,11200.0,0.3486913585662842,25.871187057495117,224.0,50.0,12.498067850077557,127.04091244747146,11200,-27.392239227294922,11200.0,98.83190989494324
0.4299314022064209,-39354105.28,96.35331848144531,-0.7290651082992554,123.88466088867187,11250.0,0.3359243321418762,26.040489349365235,225.0,50.0,3.898330032848971,161.0512961501009,11250,-27.531343307495117,11250.0,99.14236998558044
0.4299314022064209,-40636751.2,90.19427978515625,-0.6800412392616272,118.49518969726564,11300.0,0.3331015759706497,26.78472885131836,226.0,50.0,5.116406341610794,175.9336517303083,11300,-28.300911712646485,11300.0,99.42656898498535
0.4299314022064209,-41925643.04,82.96428863525391,-0.6964016771316528,111.5952194824219,11350.0,0.3362971866130829,27.15507308959961,227.0,50.0,12.804267678182788,166.33278263221388,11350,-28.63093208312988,11350.0,99.72717189788818
0.4299314022064209,-43242199.52,91.54077651977539,-0.6851026773452759,120.37130664062502,11400.0,0.3406345623731613,27.301336364746092,228.0,50.0,5.877901848517421,168.6056112575684,11400,-28.830532302856444,11400.0,100.02372312545776
0.4299314022064209,-44575955.52,104.06900787353516,-0.7250694847106933,133.10733154296878,11450.0,0.34248542189598086,27.53064384460449,229.0,50.0,6.244761477398704,153.30282606470854,11450,-29.03832679748535,11450.0,100.34987592697144
0.4299314022064209,-45962622.88,107.81202758789063,-0.6981492733955383,137.482607421875,11500.0,0.34688674807548525,28.206846237182617,230.0,50.0,4.523972748075007,153.3422831354725,11500,-29.670581970214844,11500.0,100.67594504356384
0.4299314022064209,-47349701.44,87.80075958251953,-0.6910276758670807,117.94296118164064,11550.0,0.3528905892372131,28.62471260070801,231.0,50.0,11.784410730018257,68.06592536334898,11550,-30.142203979492187,11550.0,101.41052794456482
0.4299314022064209,-48821113.92,104.79179290771485,-0.698850005865097,135.2442802734375,11600.0,0.3315917670726776,28.978535690307616,232.0,50.0,-1.8999077774818165,186.40655193317227,11600,-30.452489013671876,11600.0,101.6787600517273
0.4299314022064209,-50400805.6,110.60906799316406,-0.642517375946045,141.88130004882814,11650.0,0.3381378138065338,29.808073425292967,233.0,50.0,12.540164874364011,179.39540346498023,11650,-31.27223403930664,11650.0,101.95747518539429
0.4299314022064209,-51932957.76,108.65234649658203,-0.6804587662220001,140.14355053710935,11700.0,0.3368051314353943,30.028345947265624,234.0,50.0,-3.940253441058161,166.12249715425935,11700,-31.491206283569337,11700.0,102.25845885276794
0.4299314022064209,-53458685.44,120.68776306152344,-0.6624270594120025,152.77231494140625,11750.0,0.3250570845603943,30.584467086791992,235.0,50.0,3.797841898348951,164.47734973020454,11750,-32.084554748535155,11750.0,102.56245398521423
0.4299314022064209,-54954074.24,119.25409347534179,-0.7011026477813721,151.180845703125,11800.0,0.3392955982685089,30.449179306030274,236.0,50.0,3.7913079545093016,166.90983701803006,11800,-31.92675537109375,11800.0,102.8620171546936
0.4299314022064209,-56692504.48,115.24668548583985,-0.6276271164417266,148.186751953125,11850.0,0.32228095054626466,31.517450408935545,237.0,50.0,6.907322331444208,149.81861616780756,11850,-32.940071487426756,11850.0,103.19575595855713
0.4299314022064209,-58257265.44,129.59523498535157,-0.6755559647083282,162.47042529296877,11900.0,0.31746395766735075,31.417656860351563,238.0,50.0,-0.2924654109550726,164.17450555506846,11900,-32.875192413330076,11900.0,103.50031113624573
0.4299314022064209,-60004527.84,128.95944808959962,-0.6378299534320832,162.47844189453122,11950.0,0.3402045029401779,32.09249572753906,239.0,50.0,3.2594878928871154,154.79684110373884,11950,-33.518996200561524,11950.0,103.82331395149231
0.4299314022064209,-61636973.28,133.12938385009767,-0.6854770243167877,166.80029736328123,12000.0,0.3350610589981079,32.22670875549316,240.0,50.0,9.587178656127273,153.52020397600953,12000,-33.67091651916504,12000.0,104.14900517463684
0.4299314022064209,-63471654.56,126.93669738769532,-0.6421712529659271,161.252013671875,12050.0,0.3199281847476959,32.92593116760254,241.0,50.0,8.31864401374518,67.59515980245723,12050,-34.31531814575195,12050.0,104.88870310783386
0.4299314022064209,-65333824.8,142.47438354492186,-0.6204098093509675,177.4235966796875,12100.0,0.31749318301677704,33.541882019042966,242.0,50.0,1.3635020651086016,212.75159070250618,12100,-34.949216766357424,12100.0,105.1237199306488
0.4299314022064209,-67086052.64,152.21405151367188,-0.6390214896202088,187.2788469238281,12150.0,0.32580748438835144,33.675596923828124,243.0,50.0,12.563161270219094,137.5235746980209,12150,-35.06479858398438,12150.0,105.48729491233826
0.4299314022064209,-68934784.64,149.87785217285156,-0.6450329053401948,185.10176904296878,12200.0,0.31077315509319303,33.773578872680666,244.0,50.0,7.24688295343813,127.85235799479605,12200,-35.22391967773437,12200.0,105.87837100028992
0.4299314022064209,-70903344.32,150.41951171875,-0.6213753306865692,186.41517626953123,12250.0,0.3198584508895874,34.58892929077148,245.0,50.0,22.485047324160874,140.67160625000838,12250,-35.99566879272461,12250.0,106.23380899429321
0.4299314022064209,-72835678.4,157.51095184326172,-0.6460475087165832,193.61540869140626,12300.0,0.31059820294380186,34.70175399780273,246.0,50.0,0.12175033850504668,143.40501012720205,12300,-36.104460906982425,12300.0,106.58247303962708
0.4299314022064209,-74882247.68,180.03747009277345,-0.6169241738319396,216.86588574218752,12350.0,0.3273755919933319,35.481221771240236,247.0,50.0,9.647869106723753,128.10203439629345,12350,-36.828419342041016,12350.0,106.97278809547424
0.4299314022064209,-76893698.88,150.88141540527343,-0.588866571187973,188.13629931640625,12400.0,0.32143286406993865,35.89296737670898,248.0,50.0,2.3900867882424706,131.29355787892067,12400,-37.25488815307617,12400.0,107.3536148071289
0.4299314022064209,-79067252.48,166.3338250732422,-0.568931599855423,204.16953662109373,12450.0,0.32766863465309143,36.48603073120117,249.0,50.0,5.204205281270891,139.32268968302898,12450,-37.83571380615234,12450.0,107.71249485015869
0.4299314022064209,-81195353.92,166.1580081176758,-0.5790667021274567,204.15112939453124,12500.0,0.3433003783226013,36.624873657226566,250.0,50.0,-2.488203385923711,140.79078810273157,12500,-37.99312347412109,12500.0,108.06763195991516
0.4299314022064209,-83316579.2,169.05108489990235,-0.5961936402320862,207.1846459960938,12550.0,0.31758126854896546,36.762836608886715,251.0,50.0,1.8351553304661987,38.282407305148546,12550,-38.13356369018555,12550.0,109.37371706962585
0.4299314022064209,-85522465.6,171.14748809814452,-0.5691967749595642,209.8960053710937,12600.0,0.3209014993906021,37.362405395507814,252.0,50.0,-0.8400079745492732,114.12631130987592,12600,-38.74852416992187,12600.0,109.81182789802551
0.4299314022064209,-87756046.72,200.96538238525392,-0.5580241477489472,240.20144726562503,12650.0,0.3205556148290634,37.88145370483399,253.0,50.0,7.690373196227407,115.99689812371885,12650,-39.236067352294924,12650.0,110.24287486076355
0.4299314022064209,-90024413.44,178.6485153198242,-0.5513885271549225,218.11289746093752,12700.0,0.32284837782382964,38.131553955078125,254.0,50.0,5.266526334074392,145.3657204369944,12700,-39.464385223388675,12700.0,110.58683490753174
0.4299314022064209,-92315149.12,196.3086373901367,-0.5608630132675171,236.11576220703134,12750.0,0.3262597221136093,38.45674560546875,255.0,50.0,2.790707326253221,153.07879957546888,12750,-39.80713027954101,12750.0,110.91346478462219
0.4299314022064209,-94632694.08,168.8625015258789,-0.5316102689504624,209.13026513671878,12800.0,0.3318459391593933,38.94037017822266,256.0,50.0,-0.8400079745492732,158.13813197883803,12800,-40.267769470214844,12800.0,111.2296450138092
0.4299314022064209,-97050441.92,201.68974182128906,-0.5694856774806977,242.13162841796876,12850.0,0.32717727303504945,39.12641479492188,257.0,50.0,11.06234046601438,161.52377431442093,12850,-40.44189010620117,12850.0,111.53919696807861
0.4299314022064209,-99526262.08,186.84787231445313,-0.566439847946167,227.6518974609375,12900.0,0.35431489229202273,39.48818939208984,258.0,50.0,14.206387253102056,162.12552259852063,12900,-40.8040299987793,12900.0,111.84760093688965
0.4299314022064209,-102026872.96,188.16835327148436,-0.5780767595767975,229.07286962890626,12950.0,0.3173647838830948,39.56884368896485,259.0,50.0,9.531022572189048,154.19917825221245,12950,-40.90452117919922,12950.0,112.17185688018799
0.4299314022064209,-104553420.16,210.59499816894532,-0.5790311932563782,251.7422412109375,13000.0,0.3258029091358185,39.81684967041016,260.0,50.0,3.236776806582739,58.456009118141985,13000,-41.14724761962891,13000.0,113.02720308303833
0.4299314022064209,-107250230.08,220.4096307373047,-0.5669101512432099,262.19556103515623,13050.0,0.33187649011611936,40.51107452392578,261.0,50.0,6.927077913598321,59.49350498296459,13050,-41.78593688964844,13050.0,113.86763191223145
0.4299314022064209,-109862689.6,214.79497375488282,-0.5859445118904114,256.8485317382813,13100.0,0.3236130166053772,40.728448486328126,262.0,50.0,2.4206260377207034,157.25990170656243,13100,-42.053560943603514,13100.0,114.18557810783386
0.4299314022064209,-112462321.28,239.79580017089845,-0.5762738263607026,282.15289990234373,13150.0,0.3349760735034943,41.03621765136719,263.0,50.0,13.221502913007658,107.44900128857726,13150,-42.35710708618164,13150.0,114.65091586112976
0.4299314022064209,-115251673.28,210.90308685302733,-0.49465597212314605,254.12470751953128,13200.0,0.30482814967632293,41.97384262084961,264.0,50.0,5.520192777302466,125.31615086803677,13200,-43.2216227722168,13200.0,115.04990696907043
0.4299314022064209,-118044437.76,215.37595184326173,-0.5097368967533111,258.7235126953125,13250.0,0.3207851231098175,42.088777465820314,265.0,50.0,-0.19156457705532404,147.47261371163845,13250,-43.34756484985351,13250.0,115.38895297050476
0.4299314022064209,-120869657.92,204.40319458007812,-0.5652436137199401,247.55039697265624,13300.0,0.3249359053373337,41.84649368286133,266.0,50.0,3.7482050858398495,151.85650491778114,13300,-43.147203826904295,13300.0,115.71821188926697
0.4299314022064209,-123797629.12,238.84479553222656,-0.5784031701087952,282.22842773437503,13350.0,0.313636936545372,42.079834899902345,267.0,50.0,-1.271022622137549,146.79513518243067,13350,-43.38363876342773,13350.0,116.05882287025452
0.4299314022064209,-126941539.52,200.55611633300782,-0.5220321977138519,244.75123828125,13400.0,0.31624493420124056,42.93792098999023,268.0,50.0,21.119540150599846,168.6920037580921,13400,-44.19512603759765,13400.0,116.35522198677063
0.4299314022064209,-130035843.52,233.95891662597657,-0.5450126707553864,278.44490283203123,13450.0,0.3119770133495331,43.214762420654296,269.0,50.0,9.62913117955911,169.12870753741612,13450,-44.48599349975586,13450.0,116.65085482597351
0.4299314022064209,-133068010.56,273.50720764160155,-0.542759301662445,318.25965576171876,13500.0,0.3089629626274109,43.47147659301758,270.0,50.0,7.299777732288794,144.61810691585794,13500,-44.752452239990234,13500.0,116.99659395217896
0.4299314022064209,-136111980.8,264.87497802734373,-0.5214206850528718,310.007998046875,13550.0,0.31765529155731204,43.860489196777344,271.0,50.0,5.813828327858165,67.53453688738264,13550,-45.133023986816404,13550.0,117.73695683479309
0.4299314022064209,-139339333.76,237.12352111816406,-0.5332641553878784,282.4914379882813,13600.0,0.3241455465555191,44.07724502563477,272.0,50.0,10.798967344409542,202.8915513451596,13600,-45.36792175292969,13600.0,117.98339414596558
0.4299314022064209,-142769767.68,230.43350006103515,-0.5017096096277237,276.32618164062495,13650.0,0.3363984912633896,44.658893737792965,273.0,50.0,18.03553811953154,154.1935094898969,13650,-45.89268768310547,13650.0,118.30766296386719
0.4299314022064209,-146266341.12,270.83965270996094,-0.4431321322917938,317.4281357421875,13700.0,0.3334716713428497,45.38031372070313,274.0,50.0,17.898584560462545,159.34219314034848,13700,-46.58848968505859,13700.0,118.6214530467987
0.4299314022064209,-149374391.68,249.4954168701172,-0.5146993064880371,295.82966992187505,13750.0,0.30933269739151004,45.10539993286133,275.0,50.0,17.109006423901544,160.5476444383881,13750,-46.33425872802734,13750.0,118.93288707733154
0.4299314022064209,-152682624.64,345.68918579101563,-0.5200238418579102,392.31086914062513,13800.0,0.30301893353462217,45.40045745849609,276.0,50.0,4.922522092065035,149.4581554622747,13800,-46.621688537597656,13800.0,119.26742887496948
0.4299314022064209,-156139159.04,275.2157342529297,-0.4885342609882355,322.4421079101562,13850.0,0.3409989511966705,46.00642807006836,277.0,50.0,12.402167895984894,162.90457140637744,13850,-47.22637802124024,13850.0,119.57435703277588
0.4299314022064209,-159669020.16,292.51921508789064,-0.5037974005937577,339.6870390625,13900.0,0.31831113636493685,45.92063827514649,278.0,50.0,1.7192551157568037,118.81679064945072,13900,-47.16783218383789,13900.0,119.99517393112183
0.4299314022064209,-163627521.28,298.26629821777345,-0.46592273473739626,346.19729785156255,13950.0,0.3168589621782303,46.714049072265624,279.0,50.0,4.680086370498346,157.34898555900608,13950,-47.931009979248046,13950.0,120.31293892860413
0.4299314022064209,-167169966.72,342.4779699707031,-0.49355691313743594,390.4360083007812,14000.0,0.3242861312627792,46.72550872802734,280.0,50.0,11.324080808759335,142.16090607620953,14000,-47.95804672241211,14000.0,120.66465401649475
0.4299314022064209,-170806910.08,323.52204345703126,-0.4778823834657669,371.88542871093756,14050.0,0.31119900226593017,47.191619415283206,281.0,50.0,7.9107624348779755,66.77732792233121,14050,-48.36339553833008,14050.0,121.4134111404419
0.4299314022064209,-174496937.6,360.73199584960935,-0.4670700466632843,409.36138378906253,14100.0,0.33324838161468506,47.43309631347656,282.0,50.0,-0.7874017237890012,160.30624912094027,14100,-48.62939514160156,14100.0,121.72531509399414
0.4299314022064209,-178006266.88,335.83577209472656,-0.4984769797325134,384.48012988281255,14150.0,0.31279704093933103,47.391272430419924,283.0,50.0,0.8159084929616949,125.88468550017978,14150,-48.644362182617186,14150.0,122.1225049495697
0.4299314022064209,-181851523.84,350.3524298095703,-0.47619177103042604,399.4898183593749,14200.0,0.3258568835258484,47.967720642089844,284.0,50.0,12.574667714070863,136.349403669009,14200,-49.13739120483398,14200.0,122.4892098903656
0.4299314022064209,-185782269.44,296.13378540039065,-0.4986038690805435,345.3959296875001,14250.0,0.3192252862453461,48.029185180664065,285.0,50.0,9.170811127756156,146.16968394229468,14250,-49.26214965820313,14250.0,122.83127784729004
0.4299314022064209,-190058615.04,333.9115515136719,-0.4858920240402222,383.53993847656255,14300.0,0.3068910151720047,48.471363372802735,286.0,50.0,4.459611239207435,147.55967219781834,14300,-49.628396606445314,14300.0,123.17012405395508
0.4299314022064209,-194139927.68,360.4580010986328,-0.45577159702777864,410.5571064453125,14350.0,0.320456777215004,48.92996826171875,287.0,50.0,3.9938242438188514,152.96647381304578,14350,-50.099110260009766,14350.0,123.49699401855469
0.4299314022064209,-198066669.44,352.76404296875,-0.4920484173297882,402.8926923828126,14400.0,0.30205677688121796,48.92487350463867,288.0,50.0,11.361154355360798,157.58865504036743,14400,-50.12865676879883,14400.0,123.81427693367004
0.4299314022064209,-202340030.72,352.4574908447266,-0.4407299780845642,403.1160654296876,14450.0,0.302717986702919,49.45554779052734,289.0,50.0,4.093904252848988,161.94849221977682,14450,-50.65858001708985,14450.0,124.12301802635193
0.4299314022064209,-206806407.68,342.6250964355469,-0.4491435396671295,393.63652343750005,14500.0,0.31781866908073425,49.852418212890626,290.0,50.0,0.22539322276285212,154.31865928365127,14500,-51.01143295288086,14500.0,124.44702386856079
0.4299314022064209,-211418399.36,331.7349920654297,-0.43753169536590575,383.0548437499999,14550.0,0.3155113488435745,50.119306030273435,291.0,50.0,0.01961202275024121,59.47120123686596,14550,-51.31985534667969,14550.0,125.28776717185974
0.4299314022064209,-215886615.04,377.13584228515623,-0.4513238739967346,428.4807275390625,14600.0,0.31529858589172366,50.17822204589844,292.0,50.0,18.352830669343774,144.36474478823908,14600,-51.34489242553711,14600.0,125.63411211967468
0.4299314022064209,-220503004.16,406.01607177734377,-0.427056742310524,457.768916015625,14650.0,0.31806912064552306,50.573489074707034,293.0,50.0,1.6961052801712064,140.42660613426276,14650,-51.75284973144531,14650.0,125.99017095565796
0.4299314022064209,-224922343.04,397.7961114501953,-0.49370769381523133,449.51834667968745,14700.0,0.3104846000671387,50.52928588867187,294.0,50.0,2.7052899328382978,159.92825484173053,14700,-51.72224716186523,14700.0,126.30281090736389
0.4299314022064209,-229645246.08,446.3388684082031,-0.39793910562992096,498.857642578125,14750.0,0.30815093278884886,51.363675384521486,295.0,50.0,5.437137919299781,157.67894172542546,14750,-52.518787231445316,14750.0,126.61991286277771
0.4299314022064209,-234280679.04,381.66398681640624,-0.43815021276474,434.2119267578125,14800.0,0.3249036794900894,51.365310516357425,296.0,50.0,3.4746583218409217,153.3620192884284,14800,-52.54795166015625,14800.0,126.94593906402588
0.4299314022064209,-239250248.32,323.3325604248047,-0.46449030995368956,375.9538349609375,14850.0,0.30390560567379,51.452093048095705,297.0,50.0,12.442270164332601,141.6614597300589,14850,-52.621283264160155,14850.0,127.29889297485352
0.4299314022064209,-244534155.52,419.4805920410156,-0.4244606482982636,472.54749316406253,14900.0,0.3115807914733887,51.923859100341794,298.0,50.0,1.7718647227205704,154.686772768545,14900,-53.06690872192383,14900.0,127.62212800979614
0.4299314022064209,-249770695.04,442.1866772460937,-0.3781743586063385,495.94026562499994,14950.0,0.328076057434082,52.65526947021485,299.0,50.0,6.529769969433799,150.71084802304264,14950,-53.753592529296874,14950.0,127.95389103889465
0.4299314022064209,-254200252.16,447.1121569824219,-0.44191657304763793,500.59721484375007,15000.0,0.32424518942832947,52.31529342651367,300.0,50.0,-4.38668072566778,173.07204127679452,15000,-53.48506866455078,15000.0,128.24278783798218
0.4299314022064209,-259160119.68,463.6799108886719,-0.4535793399810791,517.22441796875,15050.0,0.31705954611301423,52.3941616821289,301.0,50.0,3.9015618829611007,68.46687432684833,15050,-53.54451446533203,15050.0,128.973069190979
0.4299314022064209,-264339446.4,480.29426635742186,-0.4626388382911682,534.0225361328124,15100.0,0.31358282148838046,52.57951416015625,302.0,50.0,1.0294398407693865,203.0530300829775,15100,-53.728277587890624,15100.0,129.21930980682373
0.4299314022064209,-269474561.92,444.3937145996094,-0.457702773809433,498.3984462890626,15150.0,0.3064538460969925,52.84386657714844,303.0,50.0,2.342087309384329,163.29449432987926,15150,-54.004741516113285,15150.0,129.52550601959229
0.4299314022064209,-275193058.56,482.0687060546875,-0.4604287958145142,536.39291015625,15200.0,0.31047129690647124,53.210514526367184,304.0,50.0,-1.0505054037353005,167.43193830137162,15200,-54.32421661376953,15200.0,129.82413482666016
0.4299314022064209,-280727970.56,443.56266235351563,-0.43940477073192596,498.1182167968749,15250.0,0.30772058486938475,53.389759368896485,305.0,50.0,2.8778891077222752,169.9852317289252,15250,-54.55556869506836,15250.0,130.11827898025513
0.4299314022064209,-286586945.28,488.32616821289065,-0.4179225319623947,543.35656640625,15300.0,0.29698637008666995,53.894900207519534,306.0,50.0,20.684992446899415,172.5298429491662,15300,-55.03041198730469,15300.0,130.40808391571045
0.4299314022064209,-291817971.2,515.2114953613282,-0.4354255527257919,570.3114697265626,15350.0,0.3013472425937653,53.94814651489258,307.0,50.0,11.126539887322991,163.62268861668096,15350,-55.09999160766601,15350.0,130.71366500854492
0.4299314022064209,-297321536.0,485.1557897949219,-0.41045273959636686,540.642224609375,15400.0,0.3079459923505783,54.3506005859375,308.0,50.0,10.177806431064496,170.9683099739775,15400,-55.48644332885742,15400.0,131.00611686706543
0.4299314022064209,-303153780.48,469.45568359375,-0.4297977876663208,525.2069072265626,15450.0,0.3261056482791901,54.63128326416015,309.0,50.0,-0.52098461270195,168.25376959007463,15450,-55.75123947143555,15450.0,131.30328798294067
0.4299314022064209,-308886671.36,535.2228833007813,-0.47108229994773865,590.8385830078125,15500.0,0.3110609805583954,54.45956069946289,310.0,50.0,3.9362114635755017,164.0893388782173,15500,-55.61571380615234,15500.0,131.60800004005432
0.4299314022064209,-314992224.0,542.4090832519531,-0.43661778151988984,598.4904941406252,15550.0,0.3140756106376648,54.97336044311523,311.0,50.0,14.492769933898519,68.21674764039857,15550,-56.081414794921876,15550.0,132.34095907211304
0.4299314022064209,-321116573.44,589.0811169433593,-0.3904987916350365,645.6794443359378,15600.0,0.31569196462631227,55.51655914306641,312.0,50.0,10.589988632202147,230.995931153442,15600,-56.59834045410156,15600.0,132.5574128627777
0.4299314022064209,-327077434.88,544.6660314941406,-0.4048871476203203,601.3701992187499,15650.0,0.32177842378616334,55.56171127319336,313.0,50.0,14.509636091346,187.12074436001672,15650,-56.70417541503906,15650.0,132.82462096214294
0.4299314022064209,-333585381.12,544.7961181640625,-0.39047417402267454,601.8915273437501,15700.0,0.316258031129837,56.042924041748044,314.0,50.0,13.046351242991058,185.55566664690616,15700,-57.095411682128905,15700.0,133.094083070755
0.4299314022064209,-339721469.44,639.1015209960938,-0.3619331592321396,696.531798828125,15750.0,0.32297874450683595,56.31444625854492,315.0,50.0,15.766846465201123,182.24361520098788,15750,-57.43028564453125,15750.0,133.36844086647034
0.4299314022064209,-345884632.32,547.3390026855469,-0.39550368368625644,604.91905078125,15800.0,0.2966554099321365,56.50590225219727,316.0,50.0,0.10165927452886869,178.8268038283387,15800,-57.58005935668945,15800.0,133.64804196357727
0.4299314022064209,-352636166.4,602.088466796875,-0.36594867676496506,660.10237109375,15850.0,0.30421714842319486,56.926580810546874,317.0,50.0,7.681221628700699,182.01742623273802,15850,-58.01391464233399,15850.0,133.9227409362793
0.4299314022064209,-358992880.64,569.719482421875,-0.3957866811752319,627.528470703125,15900.0,0.3078935694694519,56.707632293701174,318.0,50.0,2.629040412059819,173.60386089519127,15900,-57.80900741577148,15900.0,134.21075296401978
0.4299314022064209,-365808266.24,598.7970373535156,-0.4156507641077042,656.686875,15950.0,0.2921045243740082,56.80133895874023,319.0,50.0,7.623475315214051,178.66972692009176,15950,-57.88984649658203,15950.0,134.49059891700745
0.4299314022064209,-372855637.76,577.9978381347656,-0.3861027044057846,636.3831835937501,16000.0,0.31579429864883424,57.27321609497071,320.0,50.0,19.627019040883432,174.31250462347654,16000,-58.385356750488285,16000.0,134.77744102478027
0.4299314022064209,-380001736.96,550.5223181152344,-0.3949454855918884,608.9448046875001,16050.0,0.30889848291873934,57.339280700683595,321.0,50.0,-0.49711087437583146,67.24046165230897,16050,-58.42250274658203,16050.0,135.5210418701172
0.4299314022064209,-387911468.8,638.9317993164062,-0.3568073761463165,698.0921503906249,16100.0,0.30636136293411254,58.11714462280273,322.0,50.0,-1.491192280077831,161.44394482820206,16100,-59.16036010742187,16100.0,135.83074688911438
0.4299314022064209,-394366241.28,654.5972058105468,-0.41451003789901736,713.3331191406252,16150.0,0.32199523389339446,57.62058563232422,323.0,50.0,-2.237868839318633,174.85942221362487,16150,-58.73593521118164,16150.0,136.11669087409973
0.4299314022064209,-401823494.4,652.4500390625,-0.32777259916067125,712.0063007812499,16200.0,0.30265420377254487,58.4971174621582,324.0,50.0,-3.336236039316127,179.04145913762397,16200,-59.556269836425784,16200.0,136.3959560394287
0.4299314022064209,-408770760.96,705.6192102050782,-0.39096358358860017,765.028533203125,16250.0,0.3031328576803207,58.32025161743164,325.0,50.0,3.3740867132547105,176.75886343101425,16250,-59.409334411621096,16250.0,136.67882704734802
0.4299314022064209,-416289684.48,675.3292297363281,-0.3584573704004288,735.23478515625,16300.0,0.3128353703022003,58.852909545898434,326.0,50.0,10.177806431064496,165.57661409707282,16300,-59.90556945800781,16300.0,136.9808030128479
0.4299314022064209,-423446231.04,660.8362158203125,-0.3986544901132584,720.5417382812501,16350.0,0.3066706758737564,58.643339233398436,327.0,50.0,0.08721989764581295,162.2554738878143,16350,-59.705533752441404,16350.0,137.28895902633667
0.4299314022064209,-431313451.52,754.1573376464844,-0.3675206339359283,814.349333984375,16400.0,0.31506713330745695,59.09832656860352,328.0,50.0,-2.6432648959723366,145.2192603425735,16400,-60.192012329101566,16400.0,137.63326787948608
0.4299314022064209,-438740433.92,694.7949072265625,-0.34611213713884353,755.4312949218751,16450.0,0.2998388206958771,59.588146667480466,329.0,50.0,15.212488463950033,138.60711597144518,16450,-60.6363981628418,16450.0,137.99399995803833
0.4299314022064209,-445844355.84,687.5503100585937,-0.4059486758708954,747.964697265625,16500.0,0.3139092612266541,59.34986801147461,330.0,50.0,6.701034748506828,151.4017544581589,16500,-60.41440414428711,16500.0,138.3242471218109
0.4299314022064209,-454374979.84,705.1667443847656,-0.35356554508209226,766.100234375,16550.0,0.32138808965682986,59.87230010986328,331.0,50.0,10.761922520052504,64.66382643353198,16550,-60.93349166870117,16550.0,139.09747791290283
0.4299314022064209,-462190732.8,787.7944482421875,-0.39722761809825896,848.5821484375001,16600.0,0.3065831071138382,59.72946792602539,332.0,50.0,1.0001179199910624,207.2925717143741,16600,-60.787701263427735,16600.0,139.33868288993835
0.4299314022064209,-470185167.36,678.340830078125,-0.36470077216625213,739.666416015625,16650.0,0.3040453261137009,60.30553909301758,333.0,50.0,0.1491385335479123,161.77347030241037,16650,-61.32559783935547,16650.0,139.64775800704956
0.4299314022064209,-478365999.36,724.037138671875,-0.3507957524061203,785.576951171875,16700.0,0.30407667279243467,60.502644805908204,334.0,50.0,17.89999153137207,168.09382434226134,16700,-61.53983139038086,16700.0,139.94521188735962
0.4299314022064209,-486905071.36,696.4285717773438,-0.3731989151239395,757.9888730468748,16750.0,0.3162116938829422,60.548423309326175,335.0,50.0,-2.728072542269544,169.56109740203038,16750,-61.56031448364258,16750.0,140.24009203910828
0.4299314022064209,-495487511.04,808.8072729492187,-0.34979948937892913,870.4311835937501,16800.0,0.30079681634902955,60.607120208740234,336.0,50.0,0.8314712177538279,175.43678250343612,16800,-61.62392700195313,16800.0,140.5250949859619
0.4299314022064209,-504238986.24,816.4263720703125,-0.3545062220096588,878.4264042968751,16850.0,0.2997835445404053,60.94456146240234,337.0,50.0,3.5684479241723963,182.08838591257265,16850,-62.00005859375,16850.0,140.79968786239624
0.4299314022064209,-512186969.6,862.6624365234375,-0.3964849543571472,924.6352324218748,16900.0,0.30584699094295503,60.91803161621094,338.0,50.0,13.734555684182599,179.70161582630618,16900,-61.97281494140625,16900.0,141.07792687416077
0.4299314022064209,-520971431.68,783.5821569824219,-0.3636300587654114,845.99098828125,16950.0,0.2974227458238602,61.40494125366211,339.0,50.0,6.574967145533435,183.0851052684879,16950,-62.40884201049805,16950.0,141.3510229587555
0.4299314022064209,-529715951.36,745.4644482421875,-0.36314365893602374,808.0333398437501,17000.0,0.30782668709754946,61.527429809570314,340.0,50.0,-3.5564044250660167,185.90190905738518,17000,-62.56889633178711,17000.0,141.61998295783997
0.4299314022064209,-539345675.52,861.6221459960938,-0.33940027594566347,924.5599687499999,17050.0,0.31665720701217653,61.92899917602539,341.0,50.0,8.24866791822721,68.00083916746027,17050,-62.93783798217773,17050.0,142.35526776313782
0.4299314022064209,-548507479.04,869.1608251953126,-0.29338570713996887,932.60114453125,17100.0,0.30395894825458525,62.427569274902346,342.0,50.0,15.23899462743105,237.2354626039032,17100,-63.440333709716796,17100.0,142.56602907180786
0.4299314022064209,-557317160.96,738.5877685546875,-0.3497736608982086,801.80093359375,17150.0,0.32385138869285585,62.203564453125,343.0,50.0,14.639620872093385,165.17403844487745,17150,-63.213165740966794,17150.0,142.86873984336853
0.4299314022064209,-566699028.48,876.4923059082031,-0.35095625519752505,939.8160351562499,17200.0,0.2851781862974167,62.32974105834961,344.0,50.0,1.3350866305847102,175.65984934720754,17200,-63.32375244140625,17200.0,143.1533818244934
0.4299314022064209,-576594378.24,760.841083984375,-0.3394146901369095,824.6471210937499,17250.0,0.29496524572372435,62.83536270141602,345.0,50.0,6.44780859282206,166.51001409317374,17250,-63.80604904174805,17250.0,143.45366406440735
0.4299314022064209,-586724695.04,841.9432543945312,-0.2895805037021637,906.1395234374997,17300.0,0.3027062892913818,63.2401741027832,346.0,50.0,5.800763052276949,177.47883229592895,17300,-64.1962760925293,17300.0,143.7353880405426
0.4299314022064209,-595884195.84,928.839013671875,-0.37511493235826493,992.3792812500001,17350.0,0.30491500079631806,62.49985107421875,347.0,50.0,11.618774263735707,192.08452938579538,17350,-63.54027877807617,17350.0,143.99569010734558
0.4299314022064209,-606242936.32,933.0775817871094,-0.3465425044298172,997.1287949218753,17400.0,0.30833043456077575,63.032397766113284,348.0,50.0,12.873527232057087,169.69693046409597,17400,-64.05122482299805,17400.0,144.29033398628235
0.4299314022064209,-615537850.88,985.0440673828125,-0.34007865786552427,1049.3809042968749,17450.0,0.3145016473531723,63.34535125732422,349.0,50.0,7.396774651329483,179.04344626396622,17450,-64.33685348510743,17450.0,144.56959581375122
0.4299314022064209,-625646661.12,898.442607421875,-0.3260783424973488,963.1785390624998,17500.0,0.2818115693330765,63.77032760620117,350.0,50.0,16.37349910836366,118.35297556868235,17500,-64.73594665527344,17500.0,144.9920618534088
0.4299314022064209,-635804321.28,887.2390869140625,-0.35465613231062887,951.6836464843749,17550.0,0.2967244905233383,63.43601974487305,351.0,50.0,8.934075287672794,64.64475089993644,17550,-64.44457946777344,17550.0,145.76552081108093
0.4299314022064209,-647427120.64,946.3057373046875,-0.27810938805341723,1011.8092109375,17600.0,0.30129023611545563,64.56639892578124,352.0,50.0,2.1382678599381926,164.4876702014181,17600,-65.50350051879883,17600.0,146.06949615478516
0.4299314022064209,-657497807.36,933.0671118164063,-0.30620985686779023,998.2635234375002,17650.0,0.29678297698497774,64.22381820678712,353.0,50.0,9.211883272114616,147.799692018197,17650,-65.19642120361328,17650.0,146.40779280662537
0.4299314022064209,-668851363.84,993.0183740234374,-0.29348729237914084,1058.5868359375,17700.0,0.29970656156539915,64.60424621582031,354.0,50.0,13.16422686642096,134.26309818613905,17700,-65.56847488403321,17700.0,146.7801969051361
0.4299314022064209,-680045542.4,1005.8133447265625,-0.28170899897813795,1071.7034609374998,17750.0,0.3017436802387238,64.91414459228515,355.0,50.0,3.330832609095479,138.67163917570082,17750,-65.89013793945313,17750.0,147.1407618522644
0.4299314022064209,-690154209.28,976.4459912109374,-0.3213565745949745,1042.01076953125,17800.0,0.2872754794359207,64.59444839477538,356.0,50.0,12.540164874364011,155.7088359287875,17800,-65.56479461669922,17800.0,147.46187496185303
0.4299314022064209,-702196625.92,1018.2738598632812,-0.24844040602445602,1084.5710917968752,17850.0,0.31076419055461885,65.33623733520508,357.0,50.0,4.051281112093049,180.89141867419738,17850,-66.29722564697266,17850.0,147.73828506469727
0.4299314022064209,-712905968.64,1021.813271484375,-0.28188772141933444,1088.0817812500002,17900.0,0.2864406681060791,65.33068756103516,358.0,50.0,1.1497636544276908,186.06239070624946,17900,-66.26853302001953,17900.0,148.00701189041138
0.4299314022064209,-723900224.0,1072.77140625,-0.2820411583781242,1139.208388671875,17950.0,0.30523948729038236,65.48830322265626,359.0,50.0,15.845741086937894,179.17898059077785,17950,-66.43699920654296,17950.0,148.28606295585632
0.4299314022064209,-735670717.44,919.5283544921875,-0.2861208230257034,986.1200214843749,18000.0,0.2864641499519348,65.63575988769531,360.0,50.0,12.130220291525523,177.185531150541,18000,-66.59169250488281,18000.0,148.56825304031372
0.4299314022064209,-748475205.12,997.4754345703125,-0.25926366791129113,1064.509693359375,18050.0,0.29123390913009645,66.10360473632812,361.0,50.0,10.249357826268492,66.98092507463345,18050,-67.03428344726562,18050.0,149.3147337436676
0.4299314022064209,-760846812.16,989.5626708984375,-0.23983971327543258,1056.984228515625,18100.0,0.29158792972564695,66.47482788085938,362.0,50.0,0.203335769200228,230.1600906964774,18100,-67.42158020019531,18100.0,149.53197503089905
0.4299314022064209,-772450447.36,1081.7244287109374,-0.2995729395747185,1148.7593730468748,18150.0,0.30419732749462125,66.10157379150391,363.0,50.0,8.021627465721172,192.21392950467026,18150,-67.03495147705078,18150.0,149.7921028137207
0.4299314022064209,-783926049.28,1226.7439599609374,-0.27959503889083864,1293.8116015625,18200.0,0.2954103899002075,66.1050863647461,364.0,50.0,8.793031485802867,185.85001386906012,18200,-67.0676693725586,18200.0,150.06113696098328
0.4299314022064209,-795131998.72,1074.9743310546876,-0.3200042299926281,1142.032361328125,18250.0,0.29329632461071015,66.09248184204101,365.0,50.0,-0.07086121625842878,184.1382174570046,18250,-67.05803955078125,18250.0,150.33267307281494
0.4299314022064209,-807693227.52,1166.4614819335939,-0.3193588356673718,1233.75145703125,18300.0,0.29138800740242005,66.34477355957031,366.0,50.0,0.29739188247140014,170.59503008176904,18300,-67.2899951171875,18300.0,150.62576484680176
0.4299314022064209,-820299624.96,1066.3542700195312,-0.298780949562788,1133.862203125,18350.0,0.2811401695013046,66.54656951904298,367.0,50.0,19.748907400150483,158.5031494265731,18350,-67.50794982910156,18350.0,150.9412181377411
0.4299314022064209,-833908656.64,1126.8969653320312,-0.27320715963840486,1194.7511132812501,18400.0,0.29756106197834015,66.92890533447266,368.0,50.0,11.048481299033776,157.36882192048085,18400,-67.8541796875,18400.0,151.2589430809021
0.4299314022064209,-847867417.6,1220.7527905273437,-0.2431967531144619,1289.146625,18450.0,0.28319948792457583,67.49153503417969,369.0,50.0,3.892180675832888,179.72687266198457,18450,-68.39386932373047,18450.0,151.53714418411255
0.4299314022064209,-860102274.56,1131.328349609375,-0.273651722073555,1199.6760390625,18500.0,0.28413502395153045,67.44149597167969,370.0,50.0,14.751247523251221,177.90642138794277,18500,-68.3477099609375,18500.0,151.81819200515747
0.4299314022064209,-874066636.8,1053.0318920898437,-0.272309230864048,1121.4823085937498,18550.0,0.2920480614900589,67.51769561767578,371.0,50.0,-1.8878916353449888,68.09817245805544,18550,-68.4504525756836,18550.0,152.55242609977722
0.4299314022064209,-887426344.96,1312.5358642578126,-0.27179166063666343,1380.9604296875,18600.0,0.2941332894563675,67.49871673583985,372.0,50.0,14.636672130715931,218.6309709972686,18600,-68.4245819091797,18600.0,152.78112316131592
0.4299314022064209,-901667543.04,1201.3968774414063,-0.22346544951200487,1270.3704179687502,18650.0,0.2925627970695496,68.0251107788086,373.0,50.0,-0.8662116697888766,179.36717142991546,18650,-68.97354797363282,18650.0,153.05988192558289
0.4299314022064209,-915096358.4,1267.0129370117188,-0.2755794532597065,1335.7528867187502,18700.0,0.309097580909729,67.81914306640626,374.0,50.0,5.204205281270891,178.33637908998062,18700,-68.7399853515625,18700.0,153.34025192260742
0.4299314022064209,-928583631.36,1233.3285205078125,-0.27395243048667905,1302.0771875,18750.0,0.282369002699852,67.7967742919922,375.0,50.0,-2.728072542269544,183.2365957335267,18750,-68.74871154785156,18750.0,153.6131238937378
0.4299314022064209,-941594250.24,1420.7448950195312,-0.3109320417046547,1489.2951289062503,18800.0,0.2682561355829239,67.61104797363281,376.0,50.0,7.32987639493556,177.80189370303046,18800,-68.55027374267578,18800.0,153.89433598518372
0.4299314022064209,-956459118.08,1328.028974609375,-0.2291955456137657,1397.7338203125003,18850.0,0.2851763653755188,68.84425903320313,377.0,50.0,9.481778363942766,161.53260765749252,18850,-69.70486450195312,18850.0,154.20387196540833
0.4299314022064209,-969765900.8,1254.3309204101563,-0.2857445576786995,1323.581767578125,18900.0,0.27805731773376463,68.34394897460938,378.0,50.0,9.86436217984594,181.30333558397143,18900,-69.25086334228516,18900.0,154.47965288162231
0.4299314022064209,-985229542.4,1382.5983251953126,-0.231977921128273,1452.4625976562502,18950.0,0.25737434506416323,68.97785369873047,379.0,50.0,5.914232348704658,177.57636415673005,18950,-69.86428100585937,18950.0,154.76122283935547
0.4299314022064209,-999443059.2,1514.6865161132812,-0.24149659246206284,1584.7275078125,19000.0,0.2851934063434601,69.16930847167968,380.0,50.0,0.34999487408499697,182.3272732963373,19000,-70.0410220336914,19000.0,155.03545498847961
0.4299314022064209,-1014021102.08,1344.6083911132812,-0.2036108958721161,1414.8459609375,19050.0,0.2707490253448486,69.35836212158203,381.0,50.0,3.693028409758666,64.57579824004443,19050,-70.23759979248047,19050.0,155.809739112854
0.4299314022064209,-1028468016.64,1356.2207983398437,-0.2416086307168007,1426.4223320312503,19100.0,0.25507657885551455,69.32071685791016,382.0,50.0,6.519028435734546,182.1738004937534,19100,-70.20156707763672,19100.0,156.08420205116272
0.4299314022064209,-1043163793.92,1247.5289721679687,-0.2663739851117134,1317.6582460937504,19150.0,0.2798022186756134,69.21995147705078,383.0,50.0,-0.09123276252911872,165.86064919021263,19150,-70.1292822265625,19150.0,156.38566088676453
0.4299314022064209,-1058185484.8,1564.6661279296875,-0.276963490024209,1634.83771484375,19200.0,0.27320625364780426,69.23034576416016,384.0,50.0,6.053823489446048,165.0366446082887,19200,-70.17161315917969,19200.0,156.6886248588562
0.4299314022064209,-1073996597.76,1299.64248046875,-0.259953662417829,1370.0922304687504,19250.0,0.2777958655357361,69.54409240722656,385.0,50.0,17.034221842470945,160.61047468940936,19250,-70.449775390625,19250.0,156.99993705749512
0.4299314022064209,-1090210247.68,1373.7961962890624,-0.2616649690270424,1444.3616093750002,19300.0,0.27552922785282136,69.66817901611329,386.0,50.0,8.000458360259234,126.88748854192822,19300,-70.56544158935547,19300.0,157.3939871788025
0.4299314022064209,-1106813783.04,1435.8890112304687,-0.23806258223950863,1506.8121875,19350.0,0.28354243099689486,70.05428100585938,387.0,50.0,15.052149493807226,145.8360801657835,19350,-70.92320587158203,19350.0,157.73684000968933
0.4299314022064209,-1123010396.16,1383.8690307617187,-0.24244304597377778,1454.77544921875,19400.0,0.2966831600666046,70.03572113037109,388.0,50.0,14.552102843927882,171.982004293908,19400,-70.9064566040039,19400.0,158.02756786346436
0.4299314022064209,-1140018539.52,1499.77431640625,-0.24811759874224662,1570.7764921875,19450.0,0.2676888453960419,70.10225433349609,389.0,50.0,7.443514053840021,159.10344084618384,19450,-71.00218963623047,19450.0,158.3418300151825
0.4299314022064209,-1157477811.2,1619.6450634765624,-0.21381159275770187,1690.9925546875,19500.0,0.2884410220384598,70.4770736694336,390.0,50.0,-0.4273079969417388,161.68977858509726,19500,-71.34753326416016,19500.0,158.65106415748596
0.4299314022064209,-1171536445.44,1528.014609375,-0.29746627539396286,1598.9246992187502,19550.0,0.28408808529376983,69.98979339599609,391.0,50.0,0.006285276984014487,66.70714821686617,19550,-70.91010467529297,19550.0,159.40060901641846
0.4299314022064209,-1187859706.88,1649.11900390625,-0.27604830637574196,1720.2667265625,19600.0,0.27886685490608215,70.22995422363282,392.0,50.0,16.98155062300968,66.36491857200136,19600,-71.14776580810548,19600.0,160.15401983261108
0.4299314022064209,-1205285580.8,1379.2946435546876,-0.23882692195475103,1450.94659375,19650.0,0.2597117394208908,70.7834619140625,393.0,50.0,4.822395998511059,73.10473926297497,19650,-71.6519580078125,19650.0,160.83797097206116
0.4299314022064209,-1223633157.12,1420.9244995117188,-0.2609428855776787,1492.53372265625,19700.0,0.27359584748744964,70.72346618652344,394.0,50.0,0.6483476147272373,131.62019812519142,19700,-71.6092446899414,19700.0,161.21785283088684
0.4299314022064209,-1241765739.52,1689.9200732421875,-0.26216761261224747,1761.6211445312497,19750.0,0.26094400823116304,70.8248291015625,395.0,50.0,6.703206420548044,143.44032097660937,19750,-71.70110443115234,19750.0,161.56642985343933
0.4299314022064209,-1258606745.6,1591.2761889648436,-0.24509931415319441,1663.0701249999995,19800.0,0.28492308020591733,70.89946411132813,396.0,50.0,3.196759336402188,138.24720262525398,19800,-71.79394561767577,19800.0,161.9281029701233
0.4299314022064209,-1276429137.92,1619.3154711914062,-0.20484499871730805,1691.6100351562502,19850.0,0.2876634061336517,71.40669830322265,397.0,50.0,5.537794282398977,145.86275705839026,19850,-72.29460266113281,19850.0,162.27089095115662
0.4299314022064209,-1293877483.52,1590.6479711914062,-0.23756954804062844,1662.8807382812497,19900.0,0.28092169523239136,71.346015625,398.0,50.0,8.037907597841944,143.756143638789,19900,-72.23278930664063,19900.0,162.6187038421631
0.4299314022064209,-1313150233.6,1738.9952392578125,-0.22792539477348328,1811.5833476562498,19950.0,0.2812022453546524,71.72091522216797,399.0,50.0,0.5068703218917943,146.2539864747533,19950,-72.58813537597656,19950.0,162.96057510375977
0.4299314022064209,-1331800729.6,1713.5170654296876,-0.1885217220336199,1786.5235703125002,20000.0,0.276599480509758,72.17673828125,400.0,50.0,-0.7991267419080224,152.1922955785428,20000,-73.00653381347657,20000.0,163.28911209106445
0.4299314022064209,-1349136711.68,1545.621962890625,-0.20274565078318119,1618.51750390625,20050.0,0.27653035402297976,72.03841918945312,401.0,50.0,-1.5474770996536815,49.158805422125624,20050,-72.89556854248048,20050.0,164.30622482299805
0.4299314022064209,-1367362821.12,1756.7056005859374,-0.19841493651270867,1829.6830585937505,20100.0,0.27079727947711946,72.12607452392578,402.0,50.0,-1.493756647328233,70.1882293800623,20100,-72.97747161865234,20100.0,165.0185968875885
0.4299314022064209,-1386449295.36,1626.194189453125,-0.22395579427480697,1699.2088164062502,20150.0,0.26280244171619416,72.15292175292969,403.0,50.0,7.726681139071747,127.5386221840303,20150,-73.0146563720703,20150.0,165.41063499450684
0.4299314022064209,-1405656893.44,1834.4104321289062,-0.20627380162477493,1907.4681953124996,20200.0,0.2782221329212189,72.19314056396485,404.0,50.0,18.180785778639464,134.37218075945214,20200,-73.05777709960938,20200.0,165.78273582458496
0.4299314022064209,-1425159848.96,1714.736171875,-0.199662154763937,1788.1383164062502,20250.0,0.2694858253002167,72.58377319335938,405.0,50.0,12.143913101932602,129.45918133651207,20250,-73.40218170166015,20250.0,166.168958902359
0.4299314022064209,-1443422622.72,1752.4358056640624,-0.22445136323571205,1825.6641367187497,20300.0,0.2748048049211502,72.3405337524414,406.0,50.0,0.2942962890172698,129.5900567077613,20300,-73.22836791992188,20300.0,166.55479097366333
0.4299314022064209,-1463114839.04,1718.6111572265625,-0.23311537146568298,1792.0344843749997,20350.0,0.2744206553697586,72.5822445678711,407.0,50.0,10.804943136509854,139.81367527977375,20350,-73.42336151123047,20350.0,166.91241192817688
0.4299314022064209,-1483003960.32,2069.0317236328124,-0.2349094794690609,2142.5360117187506,20400.0,0.25714877009391784,72.66267822265625,408.0,50.0,-1.3376790986467189,131.99995971680917,20400,-73.5042886352539,20400.0,167.29119992256165
0.4299314022064209,-1501216942.08,1817.698662109375,-0.2445901581645012,1891.0741171875,20450.0,0.25687584578990935,72.50485748291015,409.0,50.0,-0.8764592868364485,145.42791680766905,20450,-73.37546569824218,20450.0,167.63501381874084
0.4299314022064209,-1522340372.48,1763.5354736328125,-0.22302457243204116,1837.2330664062506,20500.0,0.2649024140834808,72.85339904785157,410.0,50.0,7.801972301866494,159.6622136547359,20500,-73.69762908935547,20500.0,167.9481749534607
0.4299314022064209,-1543462650.88,1744.6387817382813,-0.247494543120265,1818.2998359375001,20550.0,0.25328814089298246,72.83205810546875,411.0,50.0,7.319378729271463,67.11094712379872,20550,-73.66108520507812,20550.0,168.6932098865509
0.4299314022064209,-1565372400.64,1942.3733984375,-0.22906637489795684,2016.4621210937498,20600.0,0.26659646809101106,73.25110321044922,412.0,50.0,6.744952856399712,230.68898075201136,20600,-74.08876220703125,20600.0,168.9099531173706
0.4299314022064209,-1585636444.16,1972.0654150390626,-0.20917326539754869,2046.0636601562499,20650.0,0.2674348545074463,73.14682891845703,413.0,50.0,16.98155062300968,169.2070356624173,20650,-73.99828216552734,20650.0,169.2054488658905
0.4299314022064209,-1607542707.2,1910.2905517578124,-0.1889002776145935,1984.73112890625,20700.0,0.2644756317138672,73.63197296142579,414.0,50.0,10.93996360901206,126.53294686363428,20700,-74.44061431884765,20700.0,169.60060286521912
0.4299314022064209,-1628515819.52,1863.69388671875,-0.22595051020383836,1937.9795937500003,20750.0,0.26084103286266325,73.46837036132813,415.0,50.0,0.03885774761829275,148.70992674953732,20750,-74.2857241821289,20750.0,169.93683004379272
0.4299314022064209,-1651744409.6,1984.6721484375,-0.19167328163981437,2059.32251171875,20800.0,0.26219305753707883,73.83276702880859,416.0,50.0,21.066986874012578,129.7345984581446,20800,-74.65040985107422,20800.0,170.32223200798035
0.4299314022064209,-1673801866.24,1944.52232421875,-0.1491595095396042,2019.5620781250007,20850.0,0.26433523416519167,74.20799865722657,417.0,50.0,9.506647260033397,157.58356320431253,20850,-75.03978973388672,20850.0,170.63952374458313
0.4299314022064209,-1694322805.76,2204.4994873046876,-0.1876062809675932,2279.2063515625005,20900.0,0.24702836513519288,73.91631256103516,418.0,50.0,11.139933420064802,167.83311698809007,20900,-74.70691162109375,20900.0,170.93743896484375
0.4299314022064209,-1715037532.16,2055.3771875,-0.1886206689476967,2130.2583906249997,20950.0,0.26690749168395994,74.06880950927734,419.0,50.0,12.366256838702272,143.78768410963,20950,-74.88124328613281,20950.0,171.28517413139343
0.4299314022064209,-1736348605.44,2086.3542236328126,-0.19281263262033463,2161.3648671875,21000.0,0.2635027837753296,74.17933288574218,420.0,50.0,4.250776454955201,165.96303020039156,21000,-75.0106787109375,21000.0,171.58644676208496
0.4299314022064209,-1759634688.0,2043.2510791015625,-0.2089301932603121,2118.35615234375,21050.0,0.2465853673219681,74.27488739013671,421.0,50.0,2.855588847209706,67.65744135973536,21050,-75.10509643554687,21050.0,172.32546401023865
0.4299314022064209,-1783348459.52,1971.402890625,-0.1846995635330677,2046.70772265625,21100.0,0.2664356434345245,74.50088989257813,422.0,50.0,20.847211484126742,232.49893293274428,21100,-75.30483581542968,21100.0,172.54051899909973
0.4299314022064209,-1808067717.12,2036.9667626953126,-0.161868432238698,2112.6831093749997,21150.0,0.26207245111465455,74.87817626953125,423.0,50.0,2.2225856378289137,176.09216249349254,21150,-75.71636596679687,21150.0,172.82446098327637
0.4299314022064209,-1831756165.12,2187.1720068359373,-0.1748881221562624,2262.8547148437497,21200.0,0.2541512018442154,74.87512603759765,424.0,50.0,0.8747624687391102,162.70159726165983,21200,-75.68277404785157,21200.0,173.13177299499512
0.4299314022064209,-1853450777.6,2167.6464111328123,-0.2212524236738682,2242.97036328125,21250.0,0.2536739331483841,74.52933380126953,425.0,50.0,9.647869106723753,172.14675329472556,21250,-75.32398895263673,21250.0,173.42222380638123
0.4299314022064209,-1879848949.76,2229.2265625,-0.14274405874311924,2305.1709453125,21300.0,0.27206953227519987,75.15274780273438,426.0,50.0,-0.49711087437583146,179.88010577590296,21300,-75.9444366455078,21300.0,173.70018696784973
0.4299314022064209,-1903770536.96,2171.2756298828126,-0.18043960615992546,2247.0334999999995,21350.0,0.2656641417741776,74.94945861816406,427.0,50.0,19.60440804293797,169.75434756565463,21350,-75.75788513183593,21350.0,173.99472999572754
0.4299314022064209,-1927373132.8,2044.8947802734374,-0.19940583929419517,2120.7034609374996,21400.0,0.2549562817811966,75.01835845947265,428.0,50.0,4.220023436504777,162.04259317353296,21400,-75.80872161865234,21400.0,174.30329084396362
0.4299314022064209,-1953722695.68,2180.534150390625,-0.15484607737511397,2256.57878125,21450.0,0.2596426290273666,75.22599060058593,429.0,50.0,3.998502509699616,162.44777183048404,21450,-76.04465881347656,21450.0,174.61108207702637
0.4299314022064209,-1978236743.68,2301.308564453125,-0.16979442588984967,2377.50726171875,21500.0,0.2591429173946381,75.38979675292968,430.0,50.0,9.935817965252111,156.43045167604163,21500,-76.19872497558593,21500.0,174.93071389198303
