tarun2001sharma/OffPolicy-Enhancements-DDPG-BC-finetune-SAC/policy/exp_local/2025.03.28_rl/pure_rl/train.csv
actor_ent,actor_logprob,actor_loss,batch_reward,buffer_size,critic_loss,critic_target_q,episode,episode_length,episode_reward,fps,frame,step,total_time
0.4299314022064209,-0.43548890829086306,0.03634073069319129,-2.424515562057495,550.0,5.639326000213623,-2.4191961097717285,11.0,50.0,-35.97748591221613,7.637112467394406,550,550.0,6.546980857849121
0.4299314022064209,-0.44487742900848387,0.13007627964019775,-2.3996247100830077,600.0,4.980521965026855,-2.4111262512207032,12.0,50.0,-36.59691639536398,364.74999826073645,600,600.0,6.6840620040893555
0.4299314022064209,-0.4138126456737518,0.2591059935092926,-2.3881069469451903,650.0,4.32707989692688,-2.4313269519805907,13.0,50.0,-40.124629863162546,372.0960601839941,650,650.0,6.818435907363892
0.4299314022064209,-0.4238330936431885,0.45250330448150633,-2.3733320522308348,700.0,3.507416400909424,-2.4662812423706053,14.0,50.0,-36.005054351480155,376.21665064079565,700,700.0,6.951338052749634
0.4299314022064209,-0.4288035416603088,0.7170107674598694,-2.371505537033081,750.0,2.6523143100738524,-2.5367557621002197,15.0,50.0,-32.633253246741674,350.3170498660306,750,750.0,7.09406590461731
0.4299314022064209,-0.4342969942092896,1.066991069316864,-2.337114019393921,800.0,1.721930012702942,-2.6117934131622316,16.0,50.0,-37.57561306611133,365.9459374569212,800,800.0,7.230698108673096
0.4299314022064209,-0.42425803899765013,1.462369270324707,-2.32989013671875,850.0,1.0703825950622559,-2.7527726459503175,17.0,50.0,-45.665883181348484,375.9091430538029,850,850.0,7.363709926605225
0.4299314022064209,-0.4301167416572571,1.86648681640625,-2.340615758895874,900.0,0.7025035345554351,-2.949101963043213,18.0,50.0,-34.837325120836105,359.48486141894523,900,900.0,7.50279688835144
0.4299314022064209,-0.4436419117450714,2.2525917720794677,-2.3400222873687744,950.0,0.5164246225357055,-3.1732833576202393,19.0,50.0,-36.14284824702013,359.1591797309841,950,950.0,7.642010927200317
0.4299314022064209,-0.4377303099632263,2.6014363765716553,-2.3255499839782714,1000.0,0.4363903093338013,-3.4181169509887694,20.0,50.0,-43.48775191333431,356.0366502723984,1000,1000.0,7.782445907592773
0.4299314022064209,-0.45054708123207093,2.8954537773132323,-2.334092321395874,1050.0,0.4370964860916138,-3.694026517868042,21.0,50.0,-36.69457527295356,80.79592667020083,1050,1050.0,8.401289939880371
0.4299314022064209,-0.4235105538368225,3.2125971126556396,-2.3287722206115724,1100.0,0.41926753520965576,-3.9773381519317628,22.0,50.0,-31.43887253711915,358.73955890377687,1100,1100.0,8.540666818618774
0.4299314022064209,-0.4447412073612213,3.5569405269622805,-2.315569133758545,1150.0,0.41179983735084535,-4.270865116119385,23.0,50.0,-43.72783753447975,350.85448708189523,1150,1150.0,8.683176040649414
0.4299314022064209,-0.42768806040287016,3.891391496658325,-2.314018974304199,1200.0,0.4171209907531738,-4.573167057037353,24.0,50.0,-40.147939215718054,356.6767011922377,1200,1200.0,8.823359966278076
0.4299314022064209,-0.39941961646080015,4.225989742279053,-2.3224241828918455,1250.0,0.44183825492858886,-4.891208209991455,25.0,50.0,-47.80783381320786,364.00168015301887,1250,1250.0,8.960722923278809
0.4299314022064209,-0.43107974648475644,4.605880908966064,-2.3352227115631106,1300.0,0.45676631093025205,-5.218266220092773,26.0,50.0,-35.042473555839145,360.52432976044145,1300,1300.0,9.099410057067871
0.4299314022064209,-0.4442030918598175,4.9778753280639645,-2.3429427337646485,1350.0,0.4695845377445221,-5.554274921417236,27.0,50.0,-42.00521642218556,385.3323411331294,1350,1350.0,9.229167938232422
0.4299314022064209,-0.4471353876590729,5.388374271392823,-2.3312066555023194,1400.0,0.41965526819229126,-5.910910148620605,28.0,50.0,-43.51006093210007,386.1511238448069,1400,1400.0,9.358650922775269
0.4299314022064209,-0.4057829165458679,5.7457795906066895,-2.350149278640747,1450.0,0.41672383368015287,-6.254896106719971,29.0,50.0,-46.64347426404403,379.80393612801925,1450,1450.0,9.490296840667725
0.4299314022064209,-0.43054920077323916,6.18004997253418,-2.3533059978485107,1500.0,0.4101762580871582,-6.628010654449463,30.0,50.0,-42.38103995480707,386.52975989708034,1500,1500.0,9.619653940200806
0.4299314022064209,-0.4104072690010071,6.561637554168701,-2.369582185745239,1550.0,0.3735798865556717,-6.994567604064941,31.0,50.0,-32.51144789610541,73.39697676770822,1550,1550.0,10.300880908966064
0.4299314022064209,-0.4258893716335297,7.024346714019775,-2.3529105854034422,1600.0,0.3292730605602264,-7.402839202880859,32.0,50.0,-47.840993438003515,210.18011842194935,1600,1600.0,10.53877305984497
0.4299314022064209,-0.41328928112983704,7.418499069213867,-2.3728444957733155,1650.0,0.31204211950302124,-7.779814414978027,33.0,50.0,-44.39210747248947,204.04836870434298,1650,1650.0,10.783813953399658
0.4299314022064209,-0.41781092882156373,7.858436603546142,-2.373651180267334,1700.0,0.2786086708307266,-8.185243911743164,34.0,50.0,-39.22322938215994,197.63626442701417,1700,1700.0,11.036804914474487
0.4299314022064209,-0.437389155626297,8.3066650390625,-2.3782741355895998,1750.0,0.24274896681308747,-8.594211273193359,35.0,50.0,-39.98506542828584,210.44206689906937,1750,1750.0,11.274399042129517
0.4299314022064209,-0.4372081506252289,8.74321750640869,-2.377204647064209,1800.0,0.20865286469459535,-9.011878318786621,36.0,50.0,-37.434890462310925,360.74821015113514,1800,1800.0,11.412999868392944
0.4299314022064209,-0.43254780292510986,9.188707618713378,-2.376071586608887,1850.0,0.18998357951641082,-9.435323257446289,37.0,50.0,-40.50927028052325,357.0331453242603,1850,1850.0,11.553044080734253
0.4299314022064209,-0.43449703097343445,9.644263229370118,-2.372469301223755,1900.0,0.15824807614088057,-9.865262832641601,38.0,50.0,-46.31933710165237,371.78074857778023,1900,1900.0,11.687533140182495
0.4299314022064209,-0.431678307056427,10.09218189239502,-2.375447778701782,1950.0,0.1428333643078804,-10.295079460144043,39.0,50.0,-33.235372241175675,349.48688977545805,1950,1950.0,11.83060097694397
0.4299314022064209,-0.4410962891578674,10.534985885620117,-2.378284206390381,2000.0,0.1258131569623947,-10.723308639526367,40.0,50.0,-39.41633099138469,323.5616666615238,2000,2000.0,11.985131978988647
0.4299314022064209,-0.4075878345966339,10.994116249084472,-2.3785956001281736,2050.0,0.11106115818023682,-11.162436180114746,41.0,50.0,-43.12159481749215,74.99009501632713,2050,2050.0,12.651886940002441
0.4299314022064209,-0.4210555589199066,11.45364902496338,-2.3720696353912354,2100.0,0.09363836020231248,-11.604477081298828,42.0,50.0,-46.063692515386535,316.60954923019784,2100,2100.0,12.809810876846313
0.4299314022064209,-0.4297757530212402,11.884187469482422,-2.388046073913574,2150.0,0.08658135294914246,-12.031792793273926,43.0,50.0,-47.118921501209414,229.45874856119988,2150,2150.0,13.027714729309082
0.4299314022064209,-0.4295988059043884,12.33552360534668,-2.391743040084839,2200.0,0.07849160864949227,-12.472973823547363,44.0,50.0,-38.32342729569524,235.98691532205885,2200,2200.0,13.2395920753479
0.4299314022064209,-0.4337865972518921,12.806668739318848,-2.396268949508667,2250.0,0.06330799788236618,-12.916193618774415,45.0,50.0,-34.35538947737936,236.96016939672754,2250,2250.0,13.450598955154419
0.4299314022064209,-0.44110040068626405,13.267762603759765,-2.3804034614562988,2300.0,0.0540133111178875,-13.36981346130371,46.0,50.0,-38.02630417653748,246.03515572298238,2300,2300.0,13.65382194519043
0.4299314022064209,-0.4395973539352417,13.711835632324219,-2.3801574420928957,2350.0,0.04993156254291534,-13.812909660339356,47.0,50.0,-36.56293818602386,235.70444333050852,2350,2350.0,13.865952968597412
0.4299314022064209,-0.43464141130447387,14.166851158142089,-2.3770727729797363,2400.0,0.04369716301560402,-14.255059967041015,48.0,50.0,-44.189052630252284,236.0060364550569,2400,2400.0,14.077814102172852
0.4299314022064209,-0.454818035364151,14.614781188964844,-2.3776692962646484,2450.0,0.036391588896512984,-14.695183792114257,49.0,50.0,-33.04286602786553,227.7809638009836,2450,2450.0,14.297322988510132
0.4299314022064209,-0.4140212404727936,15.06705810546875,-2.3810152435302734,2500.0,0.03311177521944046,-15.140216064453124,50.0,50.0,-40.36950111961321,229.6834168983048,2500,2500.0,14.515013933181763
0.4299314022064209,-0.42957735419273374,15.508388023376465,-2.3700885581970215,2550.0,0.028465543240308762,-15.576149291992188,51.0,50.0,-43.38098476993522,71.93662900643747,2550,2550.0,15.210071086883545
0.4299314022064209,-0.4187891447544098,15.964044151306153,-2.381448173522949,2600.0,0.026319649294018744,-16.024942092895508,52.0,50.0,-44.54585110649258,323.6605406606703,2600,2600.0,15.36455512046814
0.4299314022064209,-0.4016159105300903,16.40383819580078,-2.375717430114746,2650.0,0.02339978188276291,-16.46246780395508,53.0,50.0,-39.35527899982833,246.55233831535955,2650,2650.0,15.567352771759033
0.4299314022064209,-0.43713804364204406,16.850203857421874,-2.3849244117736816,2700.0,0.02215079352259636,-16.907245178222656,54.0,50.0,-35.58180862374542,226.23389400464302,2700,2700.0,15.788364171981812
0.4299314022064209,-0.42949430644512177,17.29123565673828,-2.382547149658203,2750.0,0.01948192235082388,-17.340905685424804,55.0,50.0,-34.88764847337957,211.1997228519262,2750,2750.0,16.025108098983765
0.4299314022064209,-0.42083295941352844,17.71083656311035,-2.371585168838501,2800.0,0.018597100861370564,-17.761075973510742,56.0,50.0,-39.09636440229088,213.56774861730761,2800,2800.0,16.25922679901123
0.4299314022064209,-0.4284239959716797,18.144208984375,-2.374765224456787,2850.0,0.01771365702152252,-18.19518585205078,57.0,50.0,-34.11705738650334,207.7575010674415,2850,2850.0,16.499891996383667
0.4299314022064209,-0.4136533236503601,18.571913375854493,-2.3739975929260253,2900.0,0.016500664837658406,-18.620864028930665,58.0,50.0,-33.429164613698866,210.76946888335453,2900,2900.0,16.73711895942688
0.4299314022064209,-0.4283185350894928,18.976415100097658,-2.359750566482544,2950.0,0.015483640618622303,-19.02207229614258,59.0,50.0,-36.052438991287545,182.0678351038154,2950,2950.0,17.011744022369385
0.4299314022064209,-0.4072536551952362,19.370460433959963,-2.3504394340515136,3000.0,0.014791690558195115,-19.421562576293944,60.0,50.0,-29.739101563386747,175.12532202101852,3000,3000.0,17.297255039215088
0.4299314022064209,-0.421003075838089,19.76231742858887,-2.3460906028747557,3050.0,0.01406053252518177,-19.817617416381836,61.0,50.0,-35.443128754886715,63.60254234024014,3050,3050.0,18.08338689804077
0.4299314022064209,-0.40649194836616515,20.16108947753906,-2.3401652908325197,3100.0,0.014039208590984344,-20.214100036621094,62.0,50.0,-36.38808613573685,194.38520517878064,3100,3100.0,18.340610027313232
0.4299314022064209,-0.4081691086292267,20.541940841674805,-2.333508930206299,3150.0,0.014498971737921237,-20.601160888671874,63.0,50.0,-32.001569317161184,181.7158731217772,3150,3150.0,18.61576509475708
0.4299314022064209,-0.39325273156166074,20.934019622802733,-2.3289203453063965,3200.0,0.01394693810492754,-20.99458152770996,64.0,50.0,-33.722603848881576,171.50240592993853,3200,3200.0,18.90730595588684
0.4299314022064209,-0.39155360221862795,21.344058380126953,-2.3362494850158693,3250.0,0.014477651119232177,-21.41110954284668,65.0,50.0,-32.63661447489467,170.779658090843,3250,3250.0,19.20008087158203
0.4299314022064209,-0.41277371644973754,21.686450576782228,-2.321509714126587,3300.0,0.014494287371635437,-21.758008193969726,66.0,50.0,-31.255043057261414,187.27213303305288,3300,3300.0,19.4670729637146
0.4299314022064209,-0.38033658742904664,22.046506500244142,-2.3153385162353515,3350.0,0.015072749406099319,-22.125963516235352,67.0,50.0,-28.196360099225203,195.408739923948,3350,3350.0,19.72294783592224
0.4299314022064209,-0.3677306139469147,22.388435134887697,-2.3051029109954833,3400.0,0.015844031795859338,-22.473138275146486,68.0,50.0,-27.478521262236242,184.9386051860187,3400,3400.0,19.993309020996094
0.4299314022064209,-0.3914659917354584,22.733365097045898,-2.2987190818786623,3450.0,0.015852031670510768,-22.820809478759767,69.0,50.0,-29.437304045142238,125.28657899830574,3450,3450.0,20.39239501953125
0.4299314022064209,-0.39233471274375914,23.0571671295166,-2.2874624919891358,3500.0,0.017040582560002803,-23.150580749511718,70.0,50.0,-28.7649095170565,153.38321888327263,3500,3500.0,20.718376874923706
0.4299314022064209,-0.3706538450717926,23.366534881591797,-2.27872389793396,3550.0,0.01861174516379833,-23.477992630004884,71.0,50.0,-32.85082261338426,65.07900303835163,3550,3550.0,21.486675024032593
0.4299314022064209,-0.3598762547969818,23.687617797851562,-2.2741495418548583,3600.0,0.019190479516983033,-23.804132690429686,72.0,50.0,-27.731074559202945,217.72169771164815,3600,3600.0,21.716325998306274
0.4299314022064209,-0.3476062333583832,23.98205696105957,-2.264020700454712,3650.0,0.021679550781846045,-24.11132179260254,73.0,50.0,-24.935508867145824,117.9829693772841,3650,3650.0,22.140116930007935
0.4299314022064209,-0.36722719311714175,24.251255569458007,-2.2503076362609864,3700.0,0.022743791341781616,-24.38806571960449,74.0,50.0,-25.22876581767895,177.4711725449908,3700,3700.0,22.42185401916504
0.4299314022064209,-0.34117369174957274,24.59585952758789,-2.257644548416138,3750.0,0.023828896507620812,-24.75281806945801,75.0,50.0,-26.813616601099543,173.71070359746435,3750,3750.0,22.709688901901245
0.4299314022064209,-0.3197913157939911,24.812659225463868,-2.238498878479004,3800.0,0.02562339968979359,-24.97694381713867,76.0,50.0,-22.47455545540972,154.114530322794,3800,3800.0,23.034122943878174
0.4299314022064209,-0.31563830316066743,25.072656478881836,-2.2283688259124754,3850.0,0.026737284287810324,-25.253387908935547,77.0,50.0,-22.20493720705045,166.56066435177095,3850,3850.0,23.334315061569214
0.4299314022064209,-0.3065395897626877,25.29440216064453,-2.215355920791626,3900.0,0.028783377483487128,-25.488673400878906,78.0,50.0,-19.18014701923778,190.79674841127957,3900,3900.0,23.596374034881592
0.4299314022064209,-0.27297205209732056,25.51097900390625,-2.202875337600708,3950.0,0.031119250431656836,-25.72164878845215,79.0,50.0,-24.267980620432297,152.06130737142976,3950,3950.0,23.925188779830933
0.4299314022064209,-0.2566021299362183,25.72490539550781,-2.1908226585388184,4000.0,0.03388900235295296,-25.947033615112304,80.0,50.0,-29.69579498012103,161.0947194412715,4000,4000.0,24.235565900802612
0.4299314022064209,-0.2617621451616287,25.96517837524414,-2.187838430404663,4050.0,0.03486626781523228,-26.20605339050293,81.0,50.0,-20.516725815537548,69.6312071290282,4050,4050.0,24.95363473892212
0.4299314022064209,-0.22963429719209671,26.10889060974121,-2.171340503692627,4100.0,0.03731051668524742,-26.37440330505371,82.0,50.0,-28.429838144378454,245.0905963088315,4100,4100.0,25.157641887664795
0.4299314022064209,-0.20525081425905228,26.337109146118163,-2.1742297554016115,4150.0,0.040178948864340785,-26.631034393310546,83.0,50.0,-26.289135940167643,195.61652984451618,4150,4150.0,25.41324496269226
0.4299314022064209,-0.18416270285844802,26.523613662719725,-2.17012246131897,4200.0,0.043412240892648696,-26.841348037719726,84.0,50.0,-15.665264524795058,184.39224430509296,4200,4200.0,25.684405088424683
0.4299314022064209,-0.15714643716812135,26.64001754760742,-2.1517828941345214,4250.0,0.04613133683800697,-26.978805541992188,85.0,50.0,-18.23174542414639,179.8284336423723,4250,4250.0,25.96245002746582
0.4299314022064209,-0.15983171969652177,26.71914680480957,-2.1257590579986574,4300.0,0.048922664374113085,-27.058193435668944,86.0,50.0,-22.037426231885124,208.09311417500584,4300,4300.0,26.2027268409729
0.4299314022064209,-0.12020411431789398,26.870229721069336,-2.1238652896881103,4350.0,0.04931879952549934,-27.25408187866211,87.0,50.0,-17.150676075052804,232.27515688789356,4350,4350.0,26.417988777160645
0.4299314022064209,-0.08776193656027317,26.940570755004885,-2.1099250602722166,4400.0,0.053580140322446825,-27.34480407714844,88.0,50.0,-22.149278847901755,218.39486720742468,4400,4400.0,26.646934032440186
0.4299314022064209,-0.1045820428431034,27.12501739501953,-2.1104170894622802,4450.0,0.05351981148123741,-27.554716567993164,89.0,50.0,-23.10432384432773,214.03769117324364,4450,4450.0,26.88053798675537
0.4299314022064209,-0.07583346963860095,27.130647354125976,-2.0891782665252685,4500.0,0.05684727653861046,-27.586515808105467,90.0,50.0,-14.472977529724254,200.1498390423281,4500,4500.0,27.130351781845093
0.4299314022064209,-0.057738159075379374,27.17275993347168,-2.0790448904037477,4550.0,0.061026782989501954,-27.6739892578125,91.0,50.0,-20.761465337111613,69.13916603175555,4550,4550.0,27.85353183746338
0.4299314022064209,-0.07096930924803019,27.28494956970215,-2.0747993755340577,4600.0,0.06380785867571831,-27.79744201660156,92.0,50.0,-17.53175733568772,280.87521713683407,4600,4600.0,28.031548023223877
0.4299314022064209,-0.08712475553154946,27.22993537902832,-2.0538227653503416,4650.0,0.06546799346804619,-27.79097267150879,93.0,50.0,-14.39565013806792,209.45484762440287,4650,4650.0,28.27026391029358
0.4299314022064209,-0.0948368562757969,27.34798858642578,-2.0560280895233154,4700.0,0.0730125705897808,-27.931925354003905,94.0,50.0,-20.677575876503134,201.85691047520044,4700,4700.0,28.517964839935303
0.4299314022064209,-0.16166515909135343,27.359189605712892,-2.04035560131073,4750.0,0.06939738273620605,-27.955660858154296,95.0,50.0,-22.09426835319501,184.38965030931607,4750,4750.0,28.789129972457886
0.4299314022064209,-0.2135116708278656,27.428668746948244,-2.0410547637939453,4800.0,0.0752359813451767,-28.071617279052735,96.0,50.0,-24.07437129314804,191.9614530529453,4800,4800.0,29.04960012435913
0.4299314022064209,-0.35069232106208803,27.327124404907227,-2.0254387187957765,4850.0,0.07686324626207351,-28.01347854614258,97.0,50.0,-21.58550960588599,189.33892370835432,4850,4850.0,29.31367778778076
0.4299314022064209,-0.6171767103672028,27.313894195556642,-2.018136239051819,4900.0,0.0792920184135437,-28.04825080871582,98.0,50.0,-10.311304752332141,198.14454905777143,4900,4900.0,29.566019773483276
0.4299314022064209,-1.0663690710067748,27.341659317016603,-2.0143353652954104,4950.0,0.08372310250997543,-28.10159423828125,99.0,50.0,-18.487240610449575,198.39366699903317,4950,4950.0,29.81804394721985
0.4299314022064209,-1.9748867225646973,27.235971145629883,-1.991120777130127,5000.0,0.09674042403697967,-27.993572692871094,100.0,50.0,-20.36286811337313,194.98124708293122,5000,5000.0,30.074479818344116
0.4299314022064209,-4.126021356582641,27.152991485595702,-1.985556149482727,5050.0,0.09056396156549454,-27.982726440429687,101.0,50.0,-19.929201354354248,68.2900524528582,5050,5050.0,30.806651830673218
0.4299314022064209,-8.445524826049805,27.131217651367187,-1.9777950048446655,5100.0,0.09713920533657074,-27.965206222534178,102.0,50.0,-17.43532471910714,293.59088688260437,5100,5100.0,30.976956844329834
0.4299314022064209,-19.30412441253662,26.982164459228514,-1.9592297983169555,5150.0,0.09885204821825028,-27.875122985839845,103.0,50.0,-21.39729096985371,178.75013531009665,5150,5150.0,31.256677865982056
0.4299314022064209,-45.105522079467775,26.9123233795166,-1.9533636856079102,5200.0,0.09965312093496323,-27.819386444091798,104.0,50.0,-13.119742216974261,197.8874661483152,5200,5200.0,31.509347915649414
0.4299314022064209,-104.43259246826172,26.891147232055665,-1.947820658683777,5250.0,0.09982718586921692,-27.81575241088867,105.0,50.0,-15.899679950133063,205.1156858602693,5250,5250.0,31.753113985061646
0.4299314022064209,-235.12585693359375,26.713403854370117,-1.9303779792785645,5300.0,0.10344979643821717,-27.673300857543946,106.0,50.0,-16.050182777171987,226.73384219516942,5300,5300.0,31.97363781929016
0.4299314022064209,-504.74054931640626,26.64197952270508,-1.9205587339401244,5350.0,0.10246461778879165,-27.609712371826173,107.0,50.0,-10.696366841006725,143.51109307562973,5350,5350.0,32.322043895721436
0.4299314022064209,-997.9388623046875,26.560391006469725,-1.911803002357483,5400.0,0.1102015420794487,-27.53851135253906,108.0,50.0,-17.90510167383811,162.95457106114821,5400,5400.0,32.6288788318634
0.4299314022064209,-1780.7998681640624,26.52618881225586,-1.9059609127044679,5450.0,0.12045494079589844,-27.49828643798828,109.0,50.0,-13.453147619802648,165.97393203080543,5450,5450.0,32.930131912231445
0.4299314022064209,-3058.026044921875,26.495962677001952,-1.9037827634811402,5500.0,0.11096901178359986,-27.46548263549805,110.0,50.0,-18.753017232925608,190.7224829776379,5500,5500.0,33.19229483604431
0.4299314022064209,-4881.2330078125,26.306390686035158,-1.888103222846985,5550.0,0.1034851098060608,-27.310339202880858,111.0,50.0,-6.178604439465558,69.41145864707444,5550,5550.0,33.912636041641235
0.4299314022064209,-7169.8128515625,26.209259185791016,-1.8747349786758423,5600.0,0.10089353859424591,-27.196386642456055,112.0,50.0,-11.46291453592808,260.6760678926793,5600,5600.0,34.104445934295654
0.4299314022064209,-10467.63640625,26.132240982055663,-1.8672853183746339,5650.0,0.09957581788301467,-27.151586837768555,113.0,50.0,-9.095461614718358,209.28741652063184,5650,5650.0,34.34335279464722
0.4299314022064209,-14401.2412890625,26.036661376953123,-1.854313507080078,5700.0,0.10663346648216247,-27.041889190673828,114.0,50.0,-11.486922389348997,218.74567781733296,5700,5700.0,34.571929931640625
0.4299314022064209,-19593.830625,25.973310775756836,-1.8462751007080078,5750.0,0.11563946902751923,-26.978787231445313,115.0,50.0,-13.194811615857288,186.08253231363594,5750,5750.0,34.84062910079956
0.4299314022064209,-26059.39359375,25.830372314453125,-1.8362169981002807,5800.0,0.1103380885720253,-26.85082389831543,116.0,50.0,10.580583410782905,194.0443706691316,5800,5800.0,35.09830188751221
0.4299314022064209,-34823.314765625,25.75498794555664,-1.8200740814208984,5850.0,0.1316316956281662,-26.776342391967773,117.0,50.0,-2.805221858884005,212.26643022487275,5850,5850.0,35.33385491371155
0.4299314022064209,-46858.6809375,25.677541275024414,-1.8219728136062623,5900.0,0.14128893077373506,-26.728262252807617,118.0,50.0,3.5653613395630437,204.43963521332026,5900,5900.0,35.578425884246826
0.4299314022064209,-61812.5953125,25.45291831970215,-1.780870385169983,5950.0,0.15734441965818405,-26.484665756225585,119.0,50.0,17.15135137497181,205.45871186626655,5950,5950.0,35.82178497314453
0.4299314022064209,-84505.2653125,25.305224838256837,-1.7847771072387695,6000.0,0.14034824103116988,-26.373248672485353,120.0,50.0,4.992021157980611,232.85906219118152,6000,6000.0,36.03650689125061
0.4299314022064209,-114987.3165625,25.159393768310547,-1.7581907653808593,6050.0,0.16635888695716858,-26.22455307006836,121.0,50.0,4.816680382731683,71.10178073827254,6050,6050.0,36.73972415924072
0.4299314022064209,-152243.0375,24.92421531677246,-1.7096101140975952,6100.0,0.19197569370269776,-25.97322021484375,122.0,50.0,5.514987792968755,332.981164190527,6100,6100.0,36.88988399505615
0.4299314022064209,-201946.581875,24.681778564453126,-1.7031002759933471,6150.0,0.17630686342716217,-25.792509155273436,123.0,50.0,-2.8441993832662327,238.36202487332608,6150,6150.0,37.099650144577026
0.4299314022064209,-261740.290625,24.52143241882324,-1.698717670440674,6200.0,0.17184835642576218,-25.614909286499024,124.0,50.0,-1.1162192617449591,207.07376702779348,6200,6200.0,37.341110944747925
0.4299314022064209,-328021.89625,24.33827522277832,-1.6772500276565552,6250.0,0.18230461657047273,-25.46089012145996,125.0,50.0,-1.0753104097682584,211.2146125343816,6250,6250.0,37.577836990356445
0.4299314022064209,-409153.74875,24.085161666870118,-1.6698989486694336,6300.0,0.18616615056991578,-25.200132522583008,126.0,50.0,-3.9100171971321096,219.55246787563573,6300,6300.0,37.8055739402771
0.4299314022064209,-498290.60375,23.962142868041994,-1.6646357583999634,6350.0,0.17958594262599945,-25.111846466064453,127.0,50.0,0.2558359156750125,216.51015469494618,6350,6350.0,38.036510944366455
0.4299314022064209,-609240.52,23.71070213317871,-1.654876570701599,6400.0,0.1924059796333313,-24.88525230407715,128.0,50.0,-1.837004608634306,207.18792173072856,6400,6400.0,38.2778377532959
0.4299314022064209,-732949.5275,23.526157836914063,-1.6417661905288696,6450.0,0.1950428742170334,-24.71332504272461,129.0,50.0,0.08392674788013643,214.02633241381142,6450,6450.0,38.511455059051514
0.4299314022064209,-880338.4825,23.166839294433593,-1.6241352891921996,6500.0,0.19065975666046142,-24.359036407470704,130.0,50.0,-0.5402623659267789,204.84100820965133,6500,6500.0,38.75554800033569
0.4299314022064209,-1042162.7975,22.911560516357422,-1.6059006595611571,6550.0,0.21020041704177855,-24.099171447753907,131.0,50.0,9.399986806035562,69.7430999409039,6550,6550.0,39.47246599197388
0.4299314022064209,-1208263.87,22.639833755493164,-1.5980987977981567,6600.0,0.20358005702495574,-23.833853302001952,132.0,50.0,-0.1338781111320717,156.1425387964122,6600,6600.0,39.792685747146606
0.4299314022064209,-1400453.355,22.372077178955077,-1.5745002460479736,6650.0,0.219087193608284,-23.58987358093262,133.0,50.0,5.8793314730200965,149.73229349400722,6650,6650.0,40.12661576271057
0.4299314022064209,-1625355.275,22.164974822998047,-1.5713429355621338,6700.0,0.21554840087890625,-23.38498016357422,134.0,50.0,7.129830274062311,97.63377464759881,6700,6700.0,40.638733863830566
0.4299314022064209,-1899635.19,21.834906921386718,-1.5542082786560059,6750.0,0.21564470052719117,-23.06964569091797,135.0,50.0,0.5096630695995419,182.9898922209192,6750,6750.0,40.91197395324707
0.4299314022064209,-2208229.535,21.513935546875,-1.550121397972107,6800.0,0.2258555769920349,-22.745107574462892,136.0,50.0,3.087786372055966,191.0400772485664,6800,6800.0,41.17369890213013
0.4299314022064209,-2563131.61,21.21953353881836,-1.526512622833252,6850.0,0.21914964497089387,-22.49557273864746,137.0,50.0,14.249661501095472,193.06809645156065,6850,6850.0,41.43267583847046
0.4299314022064209,-2978943.87,20.823006439208985,-1.507496829032898,6900.0,0.23954255044460296,-22.12848991394043,138.0,50.0,12.358727307218224,212.16206509676095,6900,6900.0,41.668346881866455
0.4299314022064209,-3402856.99,20.65109748840332,-1.506707239151001,6950.0,0.22202906310558318,-21.952637634277345,139.0,50.0,4.070178966822732,199.17373110740925,6950,6950.0,41.91938376426697
0.4299314022064209,-3931426.4,20.14243881225586,-1.4614014101028443,7000.0,0.2475188148021698,-21.424066619873045,140.0,50.0,18.07660342600185,184.55142821188173,7000,7000.0,42.190311908721924
0.4299314022064209,-4431336.4,19.852933654785158,-1.4534781169891358,7050.0,0.21181387066841126,-21.132689895629884,141.0,50.0,9.76874066300704,71.90838637206824,7050,7050.0,42.88564109802246
0.4299314022064209,-5081472.42,19.277705001831055,-1.4195909786224366,7100.0,0.2409519696235657,-20.600000305175783,142.0,50.0,15.749990634918213,300.951293049634,7100,7100.0,43.05178189277649
0.4299314022064209,-5721658.94,18.97941520690918,-1.4079461193084717,7150.0,0.2348028290271759,-20.294670486450194,143.0,50.0,1.3350866305847102,213.47166081536804,7150,7150.0,43.2860050201416
0.4299314022064209,-6361192.28,18.819700164794924,-1.4342134714126586,7200.0,0.23257215857505797,-20.19006767272949,144.0,50.0,3.797841898348951,201.70004366484633,7200,7200.0,43.53389811515808
0.4299314022064209,-7232464.94,18.307807693481447,-1.409075803756714,7250.0,0.22676441311836243,-19.663778533935545,145.0,50.0,8.308189363408953,213.17806447940342,7250,7250.0,43.76844501495361
0.4299314022064209,-8079573.02,18.017502365112303,-1.3979370832443236,7300.0,0.2498395723104477,-19.39109680175781,146.0,50.0,12.798561194666222,202.36841698960922,7300,7300.0,44.0155189037323
0.4299314022064209,-9109343.0,17.417020874023436,-1.3709166240692139,7350.0,0.22470322012901306,-18.81938362121582,147.0,50.0,16.493746120147982,207.58167553881208,7350,7350.0,44.256388902664185
0.4299314022064209,-10068731.92,17.220166015625,-1.3552679777145387,7400.0,0.2452940511703491,-18.607086181640625,148.0,50.0,0.031241520772843145,212.3474591030413,7400,7400.0,44.49185276031494
0.4299314022064209,-11211923.32,16.765990371704103,-1.3549065113067627,7450.0,0.23908039927482605,-18.169226303100587,149.0,50.0,19.653651505375965,195.9953308454852,7450,7450.0,44.74696183204651
0.4299314022064209,-12373091.68,16.425615196228026,-1.3541822910308838,7500.0,0.24194440007209778,-17.85426582336426,150.0,50.0,3.9362114635755017,204.81460104089453,7500,7500.0,44.99108576774597
0.4299314022064209,-13600039.64,16.18301956176758,-1.3558242702484131,7550.0,0.25273404955863954,-17.63291130065918,151.0,50.0,8.489710998302202,70.64474064951396,7550,7550.0,45.69885277748108
0.4299314022064209,-15138999.76,15.614516983032226,-1.3321327066421509,7600.0,0.2556680363416672,-17.058689575195313,152.0,50.0,4.610581404335722,239.83540958334333,7600,7600.0,45.907329082489014
0.4299314022064209,-16632864.04,15.2225350189209,-1.3317420101165771,7650.0,0.23918294847011567,-16.67351589202881,153.0,50.0,-3.7300171899795487,196.21079577031247,7650,7650.0,46.16215777397156
0.4299314022064209,-18346893.84,14.81858211517334,-1.3034128522872925,7700.0,0.2520804274082184,-16.29639305114746,154.0,50.0,-5.316697015022921,201.1124153221785,7700,7700.0,46.410775899887085
0.4299314022064209,-20245930.08,14.219095230102539,-1.267817702293396,7750.0,0.242158322930336,-15.688945503234864,155.0,50.0,1.7896343514549233,207.24361267523514,7750,7750.0,46.65203785896301
0.4299314022064209,-21840151.12,14.087483978271484,-1.2926009607315063,7800.0,0.25346841394901276,-15.56040298461914,156.0,50.0,11.160264785071632,201.3075885636396,7800,7800.0,46.90041494369507
0.4299314022064209,-24144070.8,13.387114639282226,-1.2497049283981323,7850.0,0.24851446449756623,-14.859985275268555,157.0,50.0,4.459611239207435,171.4784261105837,7850,7850.0,47.191997051239014
0.4299314022064209,-25953728.24,13.181202659606933,-1.2754831886291504,7900.0,0.24233104288578033,-14.657864990234375,158.0,50.0,1.9202358150881782,200.23717362369598,7900,7900.0,47.441701889038086
0.4299314022064209,-28374053.6,12.595425796508788,-1.237445387840271,7950.0,0.25145184218883515,-14.084671859741212,159.0,50.0,4.134534001631682,200.07116942042714,7950,7950.0,47.6916139125824
0.4299314022064209,-30412706.08,12.348868980407715,-1.2623339986801148,8000.0,0.24077015101909638,-13.878443565368652,160.0,50.0,6.4087855492641825,216.46814009851323,8000,8000.0,47.9225959777832
0.4299314022064209,-33064458.8,11.750120849609376,-1.2269998121261596,8050.0,0.25747438609600065,-13.267244911193847,161.0,50.0,6.907627700145834,72.02515099457567,8050,8050.0,48.61679792404175
0.4299314022064209,-35950984.08,11.164490051269532,-1.1986587429046631,8100.0,0.2706033951044083,-12.657411766052245,162.0,50.0,16.910104636540602,319.24592180335753,8100,8100.0,48.773417949676514
0.4299314022064209,-38936224.32,10.592518043518066,-1.155244710445404,8150.0,0.2565255874395371,-12.09849521636963,163.0,50.0,6.446131594715812,200.68709054475372,8150,8150.0,49.02256202697754
0.4299314022064209,-41686557.28,10.297177124023438,-1.1787721991539002,8200.0,0.271211342215538,-11.843509368896484,164.0,50.0,18.014120314223423,209.98440000080103,8200,8200.0,49.26067590713501
0.4299314022064209,-44496700.16,9.991857376098633,-1.1932515907287597,8250.0,0.25567000031471254,-11.537542304992677,165.0,50.0,0.362858158759666,208.66104440367263,8250,8250.0,49.50029897689819
0.4299314022064209,-47999354.72,9.397690410614013,-1.1785623049736023,8300.0,0.29114729166030884,-10.967883071899415,166.0,50.0,15.338228940483345,207.41024989293976,8300,8300.0,49.74136781692505
0.4299314022064209,-51996096.96,8.644986267089843,-1.1284481692314148,8350.0,0.26207504510879515,-10.1828910446167,167.0,50.0,0.5689745909640394,203.41325397849232,8350,8350.0,49.98717379570007
0.4299314022064209,-55320234.08,8.34254716873169,-1.1402149558067323,8400.0,0.27692543804645536,-9.92423656463623,168.0,50.0,-2.0666332162406036,170.8763684599916,8400,8400.0,50.279783964157104
0.4299314022064209,-59842085.76,7.594777698516846,-1.1077609968185425,8450.0,0.2705548858642578,-9.159860248565673,169.0,50.0,0.7566366142931553,194.7100636545275,8450,8450.0,50.53657603263855
0.4299314022064209,-62294836.48,7.705693874359131,-1.1624804472923278,8500.0,0.25344044804573057,-9.33166648864746,170.0,50.0,0.1491385335479123,179.78295589078698,8500,8500.0,50.81469011306763
0.4299314022064209,-66626007.52,7.121844024658203,-1.1488919496536254,8550.0,0.26387690782546996,-8.714112319946288,171.0,50.0,1.7787865840739947,65.74251367106925,8550,8550.0,51.575234174728394
0.4299314022064209,-72043268.48,6.194599246978759,-1.1066220545768737,8600.0,0.2700562292337418,-7.817283115386963,172.0,50.0,18.23142463595746,239.4911325042539,8600,8600.0,51.784011125564575
0.4299314022064209,-74703308.16,6.309105415344238,-1.1622497606277467,8650.0,0.2740273702144623,-7.98826810836792,173.0,50.0,12.27487302410584,116.24746887681599,8650,8650.0,52.21412777900696
0.4299314022064209,-80766104.64,5.4119831085205075,-1.0858967661857606,8700.0,0.2646953761577606,-7.05292501449585,174.0,50.0,1.1206854516914468,157.69091662386938,8700,8700.0,52.531205892562866
0.4299314022064209,-85528286.08,4.982143831253052,-1.1001123809814453,8750.0,0.27118643701076506,-6.662083492279053,175.0,50.0,10.71796467169733,152.6480367551578,8750,8750.0,52.858757972717285
0.4299314022064209,-90569340.8,4.473930854797363,-1.095703248977661,8800.0,0.27428626716136933,-6.139877138137817,176.0,50.0,16.407096736555452,161.69401721527106,8800,8800.0,53.16798496246338
0.4299314022064209,-96974846.4,3.665018177032471,-1.0485057520866394,8850.0,0.2887483710050583,-5.333819208145141,177.0,50.0,3.1357252597651737,196.71951537527835,8850,8850.0,53.42215394973755
0.4299314022064209,-102583183.04,3.14668221950531,-1.0621735835075379,8900.0,0.2757360577583313,-4.7876881504058835,178.0,50.0,2.067563262880837,205.7528123399571,8900,8900.0,53.665167808532715
0.4299314022064209,-108193638.08,2.740276961326599,-1.0593730115890503,8950.0,0.29456457316875456,-4.428390531539917,179.0,50.0,15.23899462743105,202.56505856284858,8950,8950.0,53.91200375556946
0.4299314022064209,-113862289.6,2.344888296127319,-1.0714209508895873,9000.0,0.289304136633873,-4.028836936950683,180.0,50.0,4.999183215359032,193.91500536302104,9000,9000.0,54.169848918914795
0.4299314022064209,-121252946.24,1.5674358093738556,-1.0401864051818848,9050.0,0.2764768695831299,-3.2483347988128664,181.0,50.0,-0.027156646887677383,70.08649724587048,9050,9050.0,54.88325309753418
0.4299314022064209,-127947408.0,1.011247112751007,-1.0305053353309632,9100.0,0.28949033677577973,-2.688345856666565,182.0,50.0,16.669375027074402,294.9054107072295,9100,9100.0,55.05279994010925
0.4299314022064209,-133616040.0,0.7691110670566559,-1.0496211194992064,9150.0,0.29529044032096863,-2.495197172164917,183.0,50.0,16.610256724493723,216.63696775679745,9150,9150.0,55.28360199928284
0.4299314022064209,-143578670.08,-0.30199020087718964,-0.9901161742210388,9200.0,0.2943880754709244,-1.390241978764534,184.0,50.0,1.0918067579254256,204.91526483647053,9200,9200.0,55.527605056762695
0.4299314022064209,-151799639.68,-0.9530410048365593,-0.9666286873817443,9250.0,0.28957783579826357,-0.7665292227268219,185.0,50.0,3.242048627953901,211.38002910926457,9250,9250.0,55.76414704322815
0.4299314022064209,-157993544.96,-1.158455936908722,-0.9957697749137878,9300.0,0.2834227341413498,-0.5220743075013161,186.0,50.0,13.734555684182599,230.07020088269465,9300,9300.0,55.981472969055176
0.4299314022064209,-165805246.72,-1.6721421146392823,-0.9876051068305969,9350.0,0.29686849176883695,-0.055108747482299804,187.0,50.0,3.596813410881971,234.7869214019021,9350,9350.0,56.194432973861694
0.4299314022064209,-174890664.96,-2.370130831003189,-0.9991501307487488,9400.0,0.30216008245944975,0.6523405969142914,188.0,50.0,3.095499534100542,226.70590041230025,9400,9400.0,56.41498398780823
0.4299314022064209,-182870791.04,-2.754933352470398,-0.9898348093032837,9450.0,0.30480929851531985,1.0334447836875915,189.0,50.0,14.562057602974493,222.2508125820663,9450,9450.0,56.63995599746704
0.4299314022064209,-191442375.04,-3.2935960578918455,-0.9901867914199829,9500.0,0.29558752715587616,1.5997164916992188,190.0,50.0,13.99647876686345,225.38970139372523,9500,9500.0,56.861793994903564
0.4299314022064209,-200232771.84,-3.7466924571990967,-0.9885655379295349,9550.0,0.29157816886901855,2.0270285499095917,191.0,50.0,-2.7200469018780353,71.45265982583442,9550,9550.0,57.56155800819397
0.4299314022064209,-210600981.76,-4.387653951644897,-0.9591338348388672,9600.0,0.28253797233104705,2.6837631940841673,192.0,50.0,-0.7520314606893628,324.0276013806871,9600,9600.0,57.71586585044861
0.4299314022064209,-220138217.6,-4.812864065170288,-0.949485969543457,9650.0,0.28829665362834933,3.0636575555801393,193.0,50.0,4.082868072669266,231.2501378358232,9650,9650.0,57.93208289146423
0.4299314022064209,-235617211.52,-5.990814208984375,-0.8956836128234863,9700.0,0.2911532878875732,4.353173313140869,194.0,50.0,-0.10416829998553467,204.2208424546014,9700,9700.0,58.17691707611084
0.4299314022064209,-240450478.08,-5.86401777267456,-0.961086266040802,9750.0,0.2803251940011978,4.157841901779175,195.0,50.0,15.052149493807226,206.70454825467073,9750,9750.0,58.41880774497986
0.4299314022064209,-253680551.68,-6.659680023193359,-0.9290232133865356,9800.0,0.276383273601532,4.974716720581054,196.0,50.0,2.012135853594007,205.8026851525646,9800,9800.0,58.661760091781616
0.4299314022064209,-265342181.76,-7.152143459320069,-0.9285630345344543,9850.0,0.2864430499076843,5.440669717788697,197.0,50.0,17.6599906539917,209.12025288055483,9850,9850.0,58.90085792541504
0.4299314022064209,-273809368.32,-7.383297348022461,-0.9558555698394775,9900.0,0.29551717042922976,5.635828437805176,198.0,50.0,2.553373543206611,204.6135698626154,9900,9900.0,59.14522194862366
0.4299314022064209,-288746351.36,-8.166855754852294,-0.913890027999878,9950.0,0.2876387351751328,6.465250434875489,199.0,50.0,1.4994568430465733,207.0891030837944,9950,9950.0,59.38666486740112
0.4299314022064209,-300167627.52,-8.631822738647461,-0.9243513298034668,10000.0,0.29523907124996185,6.9283206748962405,200.0,50.0,7.620776196729102,206.10243049583846,10000,10000.0,59.629262924194336
0.4299314022064209,-314793131.52,-9.275937309265137,-0.8804161953926086,10050.0,0.2800567007064819,7.575927886962891,201.0,50.0,0.1491385335479123,69.39423258916695,10050,10050.0,60.3497838973999
0.4299314022064209,-331357364.48,-10.085158653259278,-0.8626738965511322,10100.0,0.2927649635076523,8.415448703765868,202.0,50.0,13.511798073397866,327.36388924444833,10100,10100.0,60.502519845962524
0.4299314022064209,-344928995.84,-10.629483261108398,-0.8632312273979187,10150.0,0.27979522228240966,8.93717571258545,203.0,50.0,2.629040412059819,251.87505404652325,10150,10150.0,60.70103192329407
0.4299314022064209,-360613829.12,-11.213860549926757,-0.8258279061317444,10200.0,0.2887223476171494,9.540042190551757,204.0,50.0,10.11831862596978,219.60833592508936,10200,10200.0,60.9287109375
0.4299314022064209,-373890759.68,-11.64458568572998,-0.8418939995765686,10250.0,0.28408151924610137,9.99812656402588,205.0,50.0,10.094172957843615,206.14659627193652,10250,10250.0,61.171260833740234
0.4299314022064209,-387022476.8,-11.98266399383545,-0.8630869269371033,10300.0,0.2898168194293976,10.318654823303223,206.0,50.0,15.52854297961425,202.9699012710589,10300,10300.0,61.417603969573975
0.4299314022064209,-399900828.16,-12.371324005126953,-0.8857262229919434,10350.0,0.2888966631889343,10.681918716430664,207.0,50.0,11.020840127152384,212.14038892620437,10350,10350.0,61.653297901153564
0.4299314022064209,-415081205.76,-12.761159133911132,-0.8700574135780335,10400.0,0.29167560577392576,11.074450035095214,208.0,50.0,7.9107624348779755,210.41356261431693,10400,10400.0,61.890925884246826
0.4299314022064209,-429849194.24,-13.230299377441407,-0.8760142827033996,10450.0,0.26933026254177095,11.537835540771484,209.0,50.0,16.567841537085016,197.82866468254903,10450,10450.0,62.143670082092285
0.4299314022064209,-450137662.72,-14.037829208374024,-0.8549357342720032,10500.0,0.2903637558221817,12.36182460784912,210.0,50.0,0.665104674094037,204.72262924070688,10500,10500.0,62.387903928756714
0.4299314022064209,-465047575.04,-14.288561782836915,-0.8393757009506225,10550.0,0.28878419756889345,12.635810127258301,211.0,50.0,-0.362111863586545,71.39838774583335,10550,10550.0,63.08820104598999
0.4299314022064209,-488621758.72,-15.253781356811523,-0.8105499362945556,10600.0,0.2990759617090225,13.581126708984375,212.0,50.0,-1.6946786612156242,282.8984944200057,10600,10600.0,63.26494383811951
0.4299314022064209,-504570282.24,-15.568907279968261,-0.8148184561729431,10650.0,0.2981740427017212,13.956543617248535,213.0,50.0,9.742167054111846,204.96072603809432,10650,10650.0,63.508893966674805
0.4299314022064209,-523935191.04,-16.13069507598877,-0.8173655986785888,10700.0,0.30166672050952914,14.514817390441895,214.0,50.0,2.813082354617107,179.24605871015441,10700,10700.0,63.78784108161926
0.4299314022064209,-537957542.4,-16.400762176513673,-0.8325205206871032,10750.0,0.28514021217823027,14.743436889648438,215.0,50.0,5.902097137729669,193.2801981877032,10750,10750.0,64.0465350151062
0.4299314022064209,-563791500.8,-17.117581367492676,-0.7748878574371338,10800.0,0.2875531965494156,15.539529151916504,216.0,50.0,3.200067617717716,196.29766565919692,10800,10800.0,64.30124998092651
0.4299314022064209,-576380323.84,-17.2848836517334,-0.8370926308631897,10850.0,0.28304912626743317,15.658413925170898,217.0,50.0,8.232451040634288,221.16467400875948,10850,10850.0,64.52732586860657
0.4299314022064209,-600112770.56,-17.92238510131836,-0.8038519406318665,10900.0,0.26684254348278047,16.31458698272705,218.0,50.0,10.150539556176298,225.22219883412734,10900,10900.0,64.74933004379272
0.4299314022064209,-617588152.32,-18.249567565917967,-0.8180803513526916,10950.0,0.27237872302532196,16.648389511108398,219.0,50.0,3.738484930091529,213.5784062115546,10950,10950.0,64.9834361076355
0.4299314022064209,-638870054.4,-18.70213752746582,-0.8127007150650024,11000.0,0.2841981554031372,17.084336738586426,220.0,50.0,-2.697863235334548,224.59892131789422,11000,11000.0,65.20605492591858
0.4299314022064209,-673141557.76,-19.77920310974121,-0.772305941581726,11050.0,0.2784352511167526,18.207926788330077,221.0,50.0,11.201625313944408,71.14056485653002,11050,11050.0,65.9088888168335
0.4299314022064209,-685878568.96,-19.754200744628907,-0.7919898915290833,11100.0,0.27365095853805543,18.151723098754882,222.0,50.0,0.5754716545358711,323.6410607002918,11100,11100.0,66.06338214874268
0.4299314022064209,-716477086.72,-20.54408477783203,-0.7561166095733642,11150.0,0.27853214025497436,18.934706726074218,223.0,50.0,6.744952856399712,254.04073563508004,11150,11150.0,66.26020193099976
0.4299314022064209,-743903549.44,-21.15077880859375,-0.7637131381034851,11200.0,0.2691280227899551,19.570046997070314,224.0,50.0,-3.232650197287576,203.09589847684273,11200,11200.0,66.50639176368713
0.4299314022064209,-759230899.2,-21.261557159423827,-0.7828012752532959,11250.0,0.2655922013521195,19.69396530151367,225.0,50.0,18.277571965542855,207.51964218567556,11250,11250.0,66.74733400344849
0.4299314022064209,-791497943.04,-21.977398147583006,-0.7420145320892334,11300.0,0.26870281457901,20.40476402282715,226.0,50.0,2.829268080618542,196.74904447125533,11300,11300.0,67.00146579742432
0.4299314022064209,-812922519.04,-22.325910263061523,-0.7608231949806213,11350.0,0.26329957246780394,20.759240493774413,227.0,50.0,16.543045397528523,189.31567839068964,11350,11350.0,67.2655758857727
0.4299314022064209,-838410974.72,-22.68194725036621,-0.7612673568725586,11400.0,0.25943014323711394,21.091324920654298,228.0,50.0,13.669889895887836,205.59971059305875,11400,11400.0,67.50876808166504
0.4299314022064209,-857075289.6,-22.931281051635743,-0.7859934568405151,11450.0,0.25486170887947085,21.35808578491211,229.0,50.0,14.247035331281161,156.9296987946398,11450,11450.0,67.82738304138184
0.4299314022064209,-891776376.32,-23.55817825317383,-0.7543555879592896,11500.0,0.26860403537750244,22.010123825073244,230.0,50.0,4.7604176265833935,155.55534127347346,11500,11500.0,68.1488127708435
0.4299314022064209,-915157534.72,-23.875119934082033,-0.7691779863834382,11550.0,0.27136567831039426,22.282930908203124,231.0,50.0,13.916638950448373,68.16752197650032,11550,11550.0,68.88230299949646
0.4299314022064209,-946929651.2,-24.41133674621582,-0.7544147038459778,11600.0,0.2765111005306244,22.842163009643556,232.0,50.0,0.07757094302756151,346.416819737555,11600,11600.0,69.02663779258728
0.4299314022064209,-988683463.68,-25.185836486816406,-0.7017438614368439,11650.0,0.27274329602718356,23.667450408935547,233.0,50.0,0.09140837225572263,121.63403510949459,11650,11650.0,69.43770813941956
0.4299314022064209,-1012539338.24,-25.475940856933594,-0.7251939105987549,11700.0,0.25886110663414,23.950284576416017,234.0,50.0,1.8199854755401628,193.966300219942,11700,11700.0,69.69548606872559
0.4299314022064209,-1049144138.24,-26.094156646728514,-0.7102296352386475,11750.0,0.2679499727487564,24.57265594482422,235.0,50.0,6.588843208151131,203.4233168110347,11750,11750.0,69.94128012657166
0.4299314022064209,-1064638991.36,-26.05684944152832,-0.7534811115264892,11800.0,0.2853980898857117,24.49543258666992,236.0,50.0,5.095539605825071,190.78668101632712,11800,11800.0,70.20335388183594
0.4299314022064209,-1113055966.72,-26.873284606933595,-0.6934835457801819,11850.0,0.27434065341949465,25.36505760192871,237.0,50.0,5.978393567878607,201.83418074447064,11850,11850.0,70.45108294487
0.4299314022064209,-1129704304.64,-26.902000579833985,-0.7346647906303406,11900.0,0.2657154387235641,25.391257705688478,238.0,50.0,5.783057156304912,204.7880007030838,11900,11900.0,70.69523882865906
0.4299314022064209,-1178038487.04,-27.671624374389648,-0.6810832059383393,11950.0,0.27266651272773745,26.1815966796875,239.0,50.0,4.883044601242947,201.08252607315345,11950,11950.0,70.94389414787292
0.4299314022064209,-1198080025.6,-27.795129928588867,-0.7288498783111572,12000.0,0.2745118463039398,26.27376075744629,240.0,50.0,10.761500521041755,204.98276295173332,12000,12000.0,71.18781900405884
0.4299314022064209,-1245777233.92,-28.49736381530762,-0.6902773547172546,12050.0,0.2622313326597214,27.035058364868163,241.0,50.0,4.887975790196499,71.25554934148607,12050,12050.0,71.88951778411865
0.4299314022064209,-1288687242.24,-29.043519134521485,-0.6676676630973816,12100.0,0.2767167669534683,27.601081008911134,242.0,50.0,14.247035331281161,332.59196762181466,12100,12100.0,72.0398530960083
0.4299314022064209,-1320678794.24,-29.388136978149415,-0.6768770945072174,12150.0,0.26726526498794556,27.93028739929199,243.0,50.0,17.839646923432113,230.34918933287054,12150,12150.0,72.25691604614258
0.4299314022064209,-1349287454.72,-29.562253036499023,-0.6784658074378968,12200.0,0.263243625164032,28.045575790405273,244.0,50.0,-3.6591307898409156,223.46285851894396,12200,12200.0,72.48066782951355
0.4299314022064209,-1398525281.28,-30.163647537231444,-0.6670866394042969,12250.0,0.2757034730911255,28.716940383911133,245.0,50.0,1.89552663573871,214.28964096569467,12250,12250.0,72.71399784088135
0.4299314022064209,-1427500805.12,-30.43216583251953,-0.6828699016571045,12300.0,0.2557137775421143,28.969963302612303,246.0,50.0,17.931278567477516,210.2005530770549,12300,12300.0,72.95186591148376
0.4299314022064209,-1481316756.48,-31.128349151611328,-0.6496454668045044,12350.0,0.2611028665304184,29.707773513793946,247.0,50.0,12.442270164332601,223.6974063861674,12350,12350.0,73.1753830909729
0.4299314022064209,-1526828759.04,-31.569668350219725,-0.6352925550937653,12400.0,0.2681681388616562,30.15134490966797,248.0,50.0,3.5867520482994166,236.06394989548426,12400,12400.0,73.3871910572052
0.4299314022064209,-1578588037.12,-32.09034637451172,-0.6161177110671997,12450.0,0.2551756048202515,30.69163116455078,249.0,50.0,0.9088696751223804,230.84159162382042,12450,12450.0,73.60379076004028
0.4299314022064209,-1617016376.32,-32.41189460754394,-0.624784826040268,12500.0,0.2800180196762085,30.973046646118163,250.0,50.0,9.222397745081961,231.9224725102765,12500,12500.0,73.81938099861145
0.4299314022064209,-1642400404.48,-32.43755500793457,-0.6513191342353821,12550.0,0.25805781424045565,31.010009002685546,251.0,50.0,19.69414942858274,71.99683882288036,12550,12550.0,74.51385498046875
0.4299314022064209,-1710293667.84,-33.22951362609863,-0.6012824928760528,12600.0,0.25056216478347776,31.775260696411134,252.0,50.0,3.3740867132547105,321.3577876495385,12600,12600.0,74.66944479942322
0.4299314022064209,-1769531105.28,-33.82078468322754,-0.5707215523719787,12650.0,0.26888921439647673,32.407904052734374,253.0,50.0,3.2694760431906644,243.03083961822472,12650,12650.0,74.87518095970154
0.4299314022064209,-1804456785.92,-33.99651138305664,-0.576722275018692,12700.0,0.2759212821722031,32.582296218872074,254.0,50.0,0.1491385335479123,202.66136841108383,12700,12700.0,75.1218991279602
0.4299314022064209,-1850845030.4,-34.362924041748045,-0.5975264167785644,12750.0,0.2712675082683563,32.93841438293457,255.0,50.0,7.941115875806966,205.35650811525375,12750,12750.0,75.36537885665894
0.4299314022064209,-1910914585.6,-34.91480209350586,-0.5584582877159119,12800.0,0.26967380940914154,33.547460861206055,256.0,50.0,14.90715957159805,203.8627093402598,12800,12800.0,75.61064195632935
0.4299314022064209,-1939629209.6,-34.98392883300781,-0.6052206754684448,12850.0,0.25140569627285003,33.58622276306152,257.0,50.0,-1.811670059506488,201.64961855695876,12850,12850.0,75.85859799385071
0.4299314022064209,-1985262694.4,-35.264443969726564,-0.6217154657840729,12900.0,0.2597899252176285,33.878282623291014,258.0,50.0,9.399986806035562,171.23284427595476,12900,12900.0,76.15059781074524
0.4299314022064209,-2030767370.24,-35.56814147949219,-0.6181493949890137,12950.0,0.2561284202337265,34.1613052368164,259.0,50.0,7.237839313804615,193.92325375381208,12950,12950.0,76.40843200683594
0.4299314022064209,-2080204584.96,-35.88324630737305,-0.6091262817382812,13000.0,0.26080560743808745,34.48938034057617,260.0,50.0,12.407646195182853,217.88456383648517,13000,13000.0,76.63791108131409
0.4299314022064209,-2138529121.28,-36.382029876708984,-0.6217822682857513,13050.0,0.2592534530162811,35.039108428955075,261.0,50.0,17.4796820559682,71.45645782244988,13050,13050.0,77.33763885498047
0.4299314022064209,-2197042954.24,-36.783682861328124,-0.6179614090919494,13100.0,0.26810735583305356,35.40286895751953,262.0,50.0,1.4246441082752028,296.7607732484671,13100,13100.0,77.50612592697144
0.4299314022064209,-2246617692.16,-37.06934814453125,-0.608822306394577,13150.0,0.25179978013038634,35.693055419921876,263.0,50.0,1.3854209892109193,228.0003739935334,13150,13150.0,77.7254250049591
0.4299314022064209,-2347304407.04,-37.99139984130859,-0.5333770680427551,13200.0,0.2471870791912079,36.66650207519531,264.0,50.0,10.11831862596978,178.99408688052222,13200,13200.0,78.00476503372192
0.4299314022064209,-2394695854.08,-38.15574813842773,-0.5369352102279663,13250.0,0.25610478937625886,36.834566802978514,265.0,50.0,7.0504982064603094,160.15004291740613,13250,13250.0,78.31697201728821
0.4299314022064209,-2399283404.8,-37.87214309692383,-0.6146964287757873,13300.0,0.2503099864721298,36.51996505737305,266.0,50.0,-3.300677022120599,141.81185493637864,13300,13300.0,78.66955184936523
0.4299314022064209,-2466365655.04,-38.296229705810546,-0.5983546268939972,13350.0,0.2653158003091812,36.95133483886719,267.0,50.0,2.855588847209706,132.0696208988648,13350,13350.0,79.04814004898071
0.4299314022064209,-2572111073.28,-39.17512115478516,-0.5376969873905182,13400.0,0.2639197474718094,37.82940780639648,268.0,50.0,0.3073905608073293,159.9017937134252,13400,13400.0,79.36083197593689
0.4299314022064209,-2614389104.64,-39.28337280273438,-0.5734192419052124,13450.0,0.25358222544193265,37.970343017578124,269.0,50.0,0.10346957061766915,187.73785566449192,13450,13450.0,79.6271607875824
0.4299314022064209,-2670734786.56,-39.5696125793457,-0.5882580435276031,13500.0,0.26345887541770935,38.21147186279297,270.0,50.0,14.439448360755582,199.42316963814497,13500,13500.0,79.87788486480713
0.4299314022064209,-2741265807.36,-39.97667404174805,-0.5592904150485992,13550.0,0.24956319451332093,38.62954071044922,271.0,50.0,14.552102843927882,70.88486084150489,13550,13550.0,80.58325505256653
0.4299314022064209,-2803100129.28,-40.25765930175781,-0.5654036045074463,13600.0,0.26094574987888336,38.928246612548826,272.0,50.0,7.174987926483155,168.05772368408398,13600,13600.0,80.88077592849731
0.4299314022064209,-2892189224.96,-40.85200241088867,-0.5399835538864136,13650.0,0.2498520439863205,39.56296096801758,273.0,50.0,1.0064411971646727,147.0150467441717,13650,13650.0,81.22087502479553
0.4299314022064209,-2996212674.56,-41.52770126342774,-0.4949255156517029,13700.0,0.2675115346908569,40.27332855224609,274.0,50.0,15.582692420611545,153.23886358637714,13700,13700.0,81.54716396331787
0.4299314022064209,-3000309135.36,-41.226934814453124,-0.5704613447189331,13750.0,0.26160776674747466,39.93789825439453,275.0,50.0,3.9985409990970613,181.40072382033202,13750,13750.0,81.8228087425232
0.4299314022064209,-3075914956.8,-41.63039093017578,-0.5476878070831299,13800.0,0.2590050894021988,40.34927169799805,276.0,50.0,1.3055881065742945,164.45194109016597,13800,13800.0,82.12685012817383
0.4299314022064209,-3177558087.68,-42.17687210083008,-0.521592744588852,13850.0,0.25172262847423554,40.89472854614258,277.0,50.0,21.17129688844848,190.13853630231378,13850,13850.0,82.38981580734253
0.4299314022064209,-3222791874.56,-42.26984664916992,-0.5385609245300294,13900.0,0.2489551419019699,40.95864883422851,278.0,50.0,16.65390683195234,176.3444766219657,13900,13900.0,82.67335200309753
0.4299314022064209,-3323195115.52,-42.767075042724606,-0.5143005979061127,13950.0,0.2500992959737778,41.478480377197265,279.0,50.0,4.964308342906968,167.04025641250297,13950,13950.0,82.97268199920654
0.4299314022064209,-3376639078.4,-42.88083557128906,-0.5349840354919434,14000.0,0.26981908082962036,41.59505004882813,280.0,50.0,6.946520410070942,198.12657830817645,14000,14000.0,83.22504711151123
0.4299314022064209,-3473811394.56,-43.40872543334961,-0.5110041737556458,14050.0,0.2634291499853134,42.18830490112305,281.0,50.0,6.4876424122928125,70.29105829813449,14050,14050.0,83.93637585639954
0.4299314022064209,-3546135511.04,-43.659725189208984,-0.503866913318634,14100.0,0.2536389458179474,42.39986785888672,282.0,50.0,18.2454348524454,282.2770583397605,14100,14100.0,84.11350679397583
0.4299314022064209,-3592442941.44,-43.669767150878904,-0.5410254788398743,14150.0,0.25867253184318545,42.363320922851564,283.0,50.0,16.859057164322827,172.3007757491706,14150,14150.0,84.4036979675293
0.4299314022064209,-3711041024.0,-44.35250366210938,-0.5004164755344391,14200.0,0.2564385241270065,43.15042388916016,284.0,50.0,-1.464795275847525,196.81939633287377,14200,14200.0,84.65773797035217
0.4299314022064209,-3755758776.32,-44.32164993286133,-0.5386739480495453,14250.0,0.25572836041450503,43.033965301513675,285.0,50.0,10.864509321045194,182.4124361994162,14250,14250.0,84.93184208869934
0.4299314022064209,-3866016983.04,-44.89406112670898,-0.5058521866798401,14300.0,0.24527475535869597,43.6648307800293,286.0,50.0,1.982118324665226,195.5402889161774,14300,14300.0,85.18754482269287
0.4299314022064209,-3969766215.68,-45.372206115722655,-0.493504239320755,14350.0,0.23287079691886903,44.124759674072266,287.0,50.0,-2.5543867108207223,182.91487791731137,14350,14350.0,85.46089696884155
0.4299314022064209,-4023940730.88,-45.383356170654295,-0.5136099004745484,14400.0,0.2511182856559753,44.143221893310546,288.0,50.0,17.59967131662271,212.7951976913851,14400,14400.0,85.69586491584778
0.4299314022064209,-4140489861.12,-45.87219741821289,-0.47382536888122556,14450.0,0.25329402208328244,44.63240783691406,289.0,50.0,4.814324080301974,218.190822500013,14450,14450.0,85.92502188682556
0.4299314022064209,-4231935662.08,-46.21688247680664,-0.4888173222541809,14500.0,0.24869938611984252,44.98391586303711,290.0,50.0,6.368961638488466,214.2327254822441,14500,14500.0,86.15841388702393
0.4299314022064209,-4334063923.2,-46.528707580566405,-0.4694344139099121,14550.0,0.2475421243906021,45.281186218261716,291.0,50.0,7.785202942055967,72.20091124235094,14550,14550.0,86.85092687606812
0.4299314022064209,-4403374970.88,-46.65750152587891,-0.4886247098445892,14600.0,0.24348707795143126,45.42889266967774,292.0,50.0,8.038675335349785,319.723871290359,14600,14600.0,87.00731301307678
0.4299314022064209,-4505521244.16,-46.99148239135742,-0.47344682216644285,14650.0,0.2539383685588837,45.785727996826175,293.0,50.0,15.728042737534123,217.27506874180227,14650,14650.0,87.2374358177185
0.4299314022064209,-4564815165.44,-47.05508071899414,-0.49915220379829406,14700.0,0.2486874282360077,45.79536087036133,294.0,50.0,6.17795055848015,205.26625910026095,14700,14700.0,87.48102188110352
0.4299314022064209,-4754615398.4,-47.92184112548828,-0.42622305572032926,14750.0,0.233523827791214,46.731067504882816,295.0,50.0,1.78564960205434,197.95695291099284,14750,14750.0,87.7336049079895
0.4299314022064209,-4806901248.0,-47.940448913574215,-0.4771392822265625,14800.0,0.2545993083715439,46.69036392211914,296.0,50.0,-3.0916530178476336,207.45005287268316,14800,14800.0,87.97462511062622
0.4299314022064209,-4857388277.76,-47.89692367553711,-0.4928486239910126,14850.0,0.24308180689811706,46.67017547607422,297.0,50.0,13.308906055924973,193.28999600913198,14850,14850.0,88.23330473899841
0.4299314022064209,-5006879969.28,-48.42443481445312,-0.46170538663864136,14900.0,0.23351179242134093,47.23062118530274,298.0,50.0,8.61447140998572,206.7660951843851,14900,14900.0,88.4751250743866
0.4299314022064209,-5181884293.12,-49.170756072998046,-0.4120445889234543,14950.0,0.25834589660167695,48.004288787841794,299.0,50.0,-0.6486247999111487,194.57078309759842,14950,14950.0,88.73210191726685
0.4299314022064209,-5193952747.52,-48.921995391845705,-0.48270107448101046,15000.0,0.2386540561914444,47.70989761352539,300.0,50.0,6.000739460174428,194.51628132602815,15000,15000.0,88.98915004730225
0.4299314022064209,-5279796060.16,-49.04312744140625,-0.48041134953498843,15050.0,0.24167266309261323,47.81076690673828,301.0,50.0,11.288444495306198,69.23107903523234,15050,15050.0,89.71136999130249
0.4299314022064209,-5379129569.28,-49.25976608276367,-0.47755406975746156,15100.0,0.247078697681427,48.05105102539063,302.0,50.0,-0.8995815163275278,302.64160854550624,15100,15100.0,89.87658286094666
0.4299314022064209,-5489288294.4,-49.53993392944336,-0.48224631667137147,15150.0,0.23909123182296754,48.32187286376953,303.0,50.0,-0.6358665986477394,219.81665454286272,15150,15150.0,90.10404586791992
0.4299314022064209,-5593598484.48,-49.863544921875,-0.49835428714752195,15200.0,0.23335615813732147,48.674516143798826,304.0,50.0,6.544974622892589,167.84950505192793,15200,15200.0,90.40193200111389
0.4299314022064209,-5729656258.56,-50.142390747070316,-0.4561633253097534,15250.0,0.2335229855775833,48.95103530883789,305.0,50.0,3.9938242438188514,188.51922900594553,15250,15250.0,90.66715693473816
0.4299314022064209,-5871694520.32,-50.617855834960935,-0.4506011390686035,15300.0,0.2393733435869217,49.42382888793945,306.0,50.0,-0.6279005297957685,204.9735469386678,15300,15300.0,90.91109085083008
0.4299314022064209,-5957634314.24,-50.7254443359375,-0.46552764117717743,15350.0,0.24563859701156615,49.53978988647461,307.0,50.0,14.366025916949482,199.6213466087296,15350,15350.0,91.16156601905823
0.4299314022064209,-6094124462.08,-51.08638656616211,-0.45047783136367797,15400.0,0.24719681918621064,49.89025405883789,308.0,50.0,12.394202474893406,199.5744243499313,15400,15400.0,91.41209888458252
0.4299314022064209,-6216975216.64,-51.401838836669924,-0.45587317943572997,15450.0,0.2470805537700653,50.237847595214845,309.0,50.0,6.125120049127675,208.39936640054694,15450,15450.0,91.65202307701111
0.4299314022064209,-6258397245.44,-51.23462127685547,-0.49695331156253814,15500.0,0.24916638791561127,50.02988037109375,310.0,50.0,5.204205281270891,206.4810867384162,15500,15500.0,91.89417695999146
0.4299314022064209,-6402629283.84,-51.639654083251955,-0.4819851106405258,15550.0,0.2500602197647095,50.48086929321289,311.0,50.0,9.037147215658983,59.8374035701823,15550,15550.0,92.72977375984192
0.4299314022064209,-6593486417.92,-52.17783950805664,-0.43798928320407865,15600.0,0.2402421349287033,51.05168365478516,312.0,50.0,0.03481034634579494,250.84260020118583,15600,15600.0,92.92910289764404
0.4299314022064209,-6704304291.84,-52.315503692626955,-0.4279287469387054,15650.0,0.2409365600347519,51.16315948486328,313.0,50.0,-2.065784295816055,174.64856293887993,15650,15650.0,93.21539402008057
0.4299314022064209,-6874069585.92,-52.761041717529295,-0.41530348658561705,15700.0,0.24576776325702668,51.61868118286133,314.0,50.0,11.657102019388557,184.00024566683192,15700,15700.0,93.48713302612305
0.4299314022064209,-7031446773.76,-53.07337600708008,-0.38945982277393343,15750.0,0.2629962331056595,51.93015121459961,315.0,50.0,7.01103864887201,215.2713536373808,15750,15750.0,93.719398021698
0.4299314022064209,-7119783833.6,-53.20672760009766,-0.43487618446350096,15800.0,0.24314275085926057,52.08631973266601,316.0,50.0,13.56070810997338,222.2201971544737,15800,15800.0,93.9443998336792
0.4299314022064209,-7292849827.84,-53.59090255737305,-0.4098170393705368,15850.0,0.23550774216651915,52.45318023681641,317.0,50.0,-0.4611797950263625,218.4704013334375,15850,15850.0,94.17326378822327
0.4299314022064209,-7345933332.48,-53.477319946289064,-0.4349684762954712,15900.0,0.2476477301120758,52.32965957641601,318.0,50.0,0.03481034634579494,177.15843929405324,15900,15900.0,94.4554979801178
0.4299314022064209,-7417443266.56,-53.49856475830078,-0.4603831350803375,15950.0,0.23162039816379548,52.36128967285156,319.0,50.0,-0.03319472112717037,180.7292936901006,15950,15950.0,94.7321548461914
0.4299314022064209,-7641396940.8,-53.99448867797852,-0.4103471601009369,16000.0,0.23561786472797394,52.85367538452149,320.0,50.0,0.07757094302756151,224.7765794849699,16000,16000.0,94.95459699630737
0.4299314022064209,-7749885808.64,-54.12010940551758,-0.42933912634849547,16050.0,0.23965060472488403,52.98375015258789,321.0,50.0,-0.6875427808209444,68.511452376721,16050,16050.0,95.68440294265747
0.4299314022064209,-7991903477.76,-54.79338760375977,-0.39607340574264527,16100.0,0.2444439560174942,53.71387161254883,322.0,50.0,2.037628468496015,316.269586330664,16100,16100.0,95.84249591827393
0.4299314022064209,-7991939031.04,-54.49007385253906,-0.47362520813941955,16150.0,0.24692150354385375,53.32948501586914,323.0,50.0,8.128361547692847,224.42442570987674,16150,16150.0,96.06528902053833
0.4299314022064209,-8324634746.88,-55.36661193847656,-0.36704429060220717,16200.0,0.23108906984329225,54.270782012939456,324.0,50.0,6.17795055848015,196.52466126083408,16200,16200.0,96.31971001625061
0.4299314022064209,-8356544020.48,-55.18416473388672,-0.42134920716285706,16250.0,0.23085039734840393,54.05963424682617,325.0,50.0,12.734377151699768,175.98443863186841,16250,16250.0,96.6038269996643
0.4299314022064209,-8573414113.28,-55.68786773681641,-0.4057325702905655,16300.0,0.23791872382164,54.563161010742185,326.0,50.0,0.4677621908888767,189.7540253077511,16300,16300.0,96.86732602119446
0.4299314022064209,-8630599802.88,-55.528307037353514,-0.42846604496240615,16350.0,0.2422746229171753,54.42954193115234,327.0,50.0,16.1871414283723,193.92020535373308,16350,16350.0,97.12516498565674
0.4299314022064209,-8834585374.72,-55.87732040405273,-0.40497909307479857,16400.0,0.2362581104040146,54.779820861816404,328.0,50.0,6.142967083507807,203.54335828993266,16400,16400.0,97.37081408500671
0.4299314022064209,-9033987624.96,-56.32022720336914,-0.3888644951581955,16450.0,0.2363653802871704,55.24634857177735,329.0,50.0,-1.0462442253607556,218.83949385686827,16450,16450.0,97.59929203987122
0.4299314022064209,-9135283712.0,-56.35145401000977,-0.4206905835866928,16500.0,0.25077762484550475,55.23661880493164,330.0,50.0,2.985425195825661,229.31798971478935,16500,16500.0,97.81733107566833
0.4299314022064209,-9366271344.64,-56.71252853393555,-0.3928522384166718,16550.0,0.2257110071182251,55.57474349975586,331.0,50.0,0.4100204225554762,72.30838030279051,16550,16550.0,98.50881385803223
0.4299314022064209,-9426243993.6,-56.66219970703125,-0.4292204302549362,16600.0,0.23498242139816283,55.552139892578126,332.0,50.0,-1.915424225295963,325.28357491294605,16600,16600.0,98.66252708435059
0.4299314022064209,-9653361704.96,-57.09949172973633,-0.40399007678031923,16650.0,0.23098475098609925,56.02505905151367,333.0,50.0,8.345732557493987,234.13422946170894,16650,16650.0,98.87608098983765
0.4299314022064209,-9884728524.8,-57.475677947998044,-0.373550608754158,16700.0,0.2392628902196884,56.40221725463867,334.0,50.0,-0.014934229518303255,204.76180712386653,16700,16700.0,99.12026810646057
0.4299314022064209,-9976556584.96,-57.46761199951172,-0.41061150908470156,16750.0,0.23179358422756194,56.39483688354492,335.0,50.0,7.846359587891458,211.14146056612418,16750,16750.0,99.35707592964172
0.4299314022064209,-10184424202.24,-57.73192642211914,-0.3637493771314621,16800.0,0.23088004529476167,56.66722717285156,336.0,50.0,2.5580081045265946,204.7920003124878,16800,16800.0,99.6012270450592
0.4299314022064209,-10359355965.44,-57.947552795410154,-0.3851914936304092,16850.0,0.22902910351753236,56.871906433105465,337.0,50.0,11.510867952499007,197.682465978363,16850,16850.0,99.85415887832642
0.4299314022064209,-10419878051.84,-57.87289855957031,-0.439267583489418,16900.0,0.23057805955410005,56.77673858642578,338.0,50.0,-0.359648973415446,200.43850510665385,16900,16900.0,100.10361289978027
0.4299314022064209,-10713524756.48,-58.42930892944336,-0.3844150686264038,16950.0,0.229060555100441,57.37049774169922,339.0,50.0,16.957488904450535,195.16687559269383,16950,16950.0,100.35980486869812
0.4299314022064209,-10832426557.44,-58.43054779052734,-0.4030977201461792,17000.0,0.21707821190357207,57.34625427246094,340.0,50.0,13.264921113370606,203.0538164960312,17000,17000.0,100.60604596138
0.4299314022064209,-11104911810.56,-58.8825032043457,-0.37827453672885897,17050.0,0.23216383457183837,57.8309001159668,341.0,50.0,7.469176459082501,70.72075991148574,17050,17050.0,101.31305193901062
0.4299314022064209,-11448834416.64,-59.50103698730469,-0.314627360701561,17100.0,0.22737553894519805,58.46167678833008,342.0,50.0,5.294975229613769,319.90383750001905,17100,17100.0,101.4693489074707
0.4299314022064209,-11431942021.12,-59.15621459960938,-0.3897563934326172,17150.0,0.23460868179798125,58.124879913330076,343.0,50.0,0.5096630695995419,235.30061205141007,17150,17150.0,101.68184399604797
0.4299314022064209,-11580585041.92,-59.232405548095706,-0.39766584455966947,17200.0,0.21514989137649537,58.19553665161133,344.0,50.0,8.079440850833493,199.03120491989978,17200,17200.0,101.93306183815002
0.4299314022064209,-11932757360.64,-59.85407806396484,-0.3599786466360092,17250.0,0.22473041474819183,58.84261383056641,345.0,50.0,3.3051563292962456,187.8123374000668,17250,17250.0,102.19928503036499
0.4299314022064209,-12190997749.76,-60.1826594543457,-0.3345042151212692,17300.0,0.23202196538448333,59.17198013305664,346.0,50.0,16.493746120147982,182.54517600362104,17300,17300.0,102.47319197654724
0.4299314022064209,-12085225512.96,-59.55442367553711,-0.41717863976955416,17350.0,0.2251242971420288,58.460043029785155,347.0,50.0,8.110831768394586,198.05210933346177,17350,17350.0,102.7256498336792
0.4299314022064209,-12411548549.12,-60.10849273681641,-0.3812620198726654,17400.0,0.22390824496746065,59.040348510742184,348.0,50.0,15.608231646291532,182.02263964906982,17400,17400.0,103.00034213066101
0.4299314022064209,-12652608471.04,-60.39929748535156,-0.36983640253543854,17450.0,0.23607460677623748,59.37927978515625,349.0,50.0,12.804267678182788,182.19342552677622,17450,17450.0,103.27477693557739
0.4299314022064209,-12959115796.48,-60.86220520019531,-0.35617304846644404,17500.0,0.23027022659778595,59.8643830871582,350.0,50.0,12.580875945398097,196.51913650296257,17500,17500.0,103.52920603752136
0.4299314022064209,-13000089804.8,-60.5560269165039,-0.3806351661682129,17550.0,0.2158734369277954,59.49442855834961,351.0,50.0,2.0040560620054624,70.30649330795734,17550,17550.0,104.24037885665894
0.4299314022064209,-13535365693.44,-61.60748260498047,-0.32181545682251456,17600.0,0.23194856882095338,60.64539932250977,352.0,50.0,9.95135333378593,313.99097472383676,17600,17600.0,104.39961886405945
0.4299314022064209,-13570110464.0,-61.30916931152344,-0.35526366770267487,17650.0,0.2295568060874939,60.28024612426758,353.0,50.0,0.8948771098318158,182.0464987886148,17650,17650.0,104.67427396774292
0.4299314022064209,-13884277104.64,-61.69798049926758,-0.3282382819056511,17700.0,0.22748886466026305,60.70909439086914,354.0,50.0,3.64747122806088,197.17951249324213,17700,17700.0,104.92785096168518
0.4299314022064209,-14185130721.28,-62.0688623046875,-0.3190489238500595,17750.0,0.2357549786567688,61.045755004882814,355.0,50.0,0.889454473253851,191.67669765992235,17750,17750.0,105.18870782852173
0.4299314022064209,-14239077294.08,-61.84303695678711,-0.33381115429103375,17800.0,0.2171718966960907,60.82090103149414,356.0,50.0,16.338418326878127,190.31073666787057,17800,17800.0,105.45143604278564
0.4299314022064209,-14682251837.44,-62.46226974487305,-0.2803162795305252,17850.0,0.2268710172176361,61.47126022338867,357.0,50.0,21.286698227691073,190.82365787079164,17850,17850.0,105.71345901489258
0.4299314022064209,-14876007546.88,-62.572323913574216,-0.3158662682771683,17900.0,0.22494758307933807,61.578064880371095,358.0,50.0,0.9820859311366696,173.06318617839483,17900,17900.0,106.00237083435059
0.4299314022064209,-15139283763.2,-62.78241546630859,-0.297709805816412,17950.0,0.22908031105995177,61.784039154052735,359.0,50.0,1.5724742553772906,159.43559177715608,17950,17950.0,106.31597805023193
0.4299314022064209,-15280713564.16,-62.75475158691406,-0.32974637150764463,18000.0,0.21897847592830658,61.75031860351562,360.0,50.0,3.016444896572203,162.65137425408383,18000,18000.0,106.62338376045227
0.4299314022064209,-15652390748.16,-63.26354202270508,-0.3051419869065285,18050.0,0.22167039930820465,62.284037017822264,361.0,50.0,9.037147215658983,68.06082255781749,18050,18050.0,107.3580219745636
0.4299314022064209,-15997163438.08,-63.60593963623047,-0.27052759103477003,18100.0,0.2263523143529892,62.617762145996096,362.0,50.0,-2.974870809452847,337.96741115098814,18100,18100.0,107.50596499443054
0.4299314022064209,-15928597463.04,-63.179311981201174,-0.3416330210119486,18150.0,0.22741677463054658,62.19929580688476,363.0,50.0,3.490758228841889,182.91567561815697,18150,18150.0,107.77931690216064
0.4299314022064209,-16220020981.76,-63.35914505004883,-0.3306602603197098,18200.0,0.2230841451883316,62.33346435546875,364.0,50.0,-2.0365031799002367,160.50181307218156,18200,18200.0,108.0908408164978
0.4299314022064209,-16279346585.6,-63.2050634765625,-0.3784073096513748,18250.0,0.22092747807502747,62.17735534667969,365.0,50.0,4.6639842708944474,153.95647539370947,18250,18250.0,108.41560888290405
0.4299314022064209,-16579598950.4,-63.46358062744141,-0.3498259300738573,18300.0,0.21996262311935424,62.48008499145508,366.0,50.0,-3.3139597307246653,186.31480566739754,18300,18300.0,108.68397283554077
0.4299314022064209,-16858624491.52,-63.67942031860352,-0.3513908076286316,18350.0,0.22533248126506805,62.675736541748044,367.0,50.0,6.037711900580229,167.3146548078933,18350,18350.0,108.98281192779541
0.4299314022064209,-17346112225.28,-64.29304916381835,-0.30970888704061506,18400.0,0.21698659241199494,63.32067428588867,368.0,50.0,2.0325687790438884,182.58236505816615,18400,18400.0,109.25666213035583
0.4299314022064209,-17740250644.48,-64.70167724609375,-0.26248752236366274,18450.0,0.21483900666236877,63.75758575439453,369.0,50.0,-1.281909572280405,204.4840880592678,18450,18450.0,109.50118088722229
0.4299314022064209,-17909217157.12,-64.68623474121094,-0.2999818933010101,18500.0,0.2299325704574585,63.73544555664063,370.0,50.0,19.459034082435057,191.05173783443018,18500,18500.0,109.76289105415344
0.4299314022064209,-18137812541.44,-64.72894393920899,-0.3115013626217842,18550.0,0.21719814360141754,63.733709259033205,371.0,50.0,-1.1918000290797561,69.73792809898943,18550,18550.0,110.47986197471619
0.4299314022064209,-18288046284.8,-64.66305267333985,-0.3264748081564903,18600.0,0.2240092098712921,63.69139709472656,372.0,50.0,3.797841898348951,174.52749087271567,18600,18600.0,110.76634979248047
0.4299314022064209,-18840849285.12,-65.31698974609375,-0.2775480706989765,18650.0,0.22064463198184966,64.32748092651367,373.0,50.0,7.979464751556396,182.0736837078871,18650,18650.0,111.04096484184265
0.4299314022064209,-18922538680.32,-65.14208251953124,-0.3113661390542984,18700.0,0.21315883815288544,64.18820907592773,374.0,50.0,5.898981045675866,183.69579308435905,18700,18700.0,111.31315398216248
0.4299314022064209,-19156680622.08,-65.20880462646484,-0.30799191147089006,18750.0,0.21472966492176057,64.21770202636719,375.0,50.0,16.18434979684383,178.75348723032297,18750,18750.0,111.59287095069885
0.4299314022064209,-19261657169.92,-65.05791030883789,-0.33926686689257624,18800.0,0.20699619770050048,64.09268310546875,376.0,50.0,19.352165676052984,192.6412163533833,18800,18800.0,111.85242080688477
0.4299314022064209,-20118768189.44,-66.20990356445313,-0.24971664652228356,18850.0,0.21724035501480102,65.30631286621093,377.0,50.0,3.7459237744468883,188.17719138306043,18850,18850.0,112.11812782287598
0.4299314022064209,-20038401310.72,-65.74231689453126,-0.31599399983882903,18900.0,0.22680171370506286,64.80412765502929,378.0,50.0,11.84154952506516,196.73649352233178,18900,18900.0,112.37227606773376
0.4299314022064209,-20630737059.84,-66.36383209228515,-0.2622596843540668,18950.0,0.21325737684965135,65.42390762329102,379.0,50.0,5.3288731677385535,195.06721285248148,18950,18950.0,112.62859916687012
0.4299314022064209,-20954756628.48,-66.54364562988282,-0.27434647470712664,19000.0,0.21913833677768707,65.62216567993164,380.0,50.0,4.7604176265833935,198.71173631338274,19000,19000.0,112.88022208213806
0.4299314022064209,-21326215987.2,-66.73858154296875,-0.25335022300481796,19050.0,0.2103695261478424,65.79772033691407,381.0,50.0,4.527491220304526,70.26981384707555,19050,19050.0,113.59176397323608
0.4299314022064209,-21571851059.2,-66.82199340820313,-0.25640207931399345,19100.0,0.21837439000606537,65.8913787841797,382.0,50.0,7.303657296105051,318.89785211936896,19100,19100.0,113.74855399131775
0.4299314022064209,-21723641692.16,-66.7551348876953,-0.2968637034296989,19150.0,0.21852071583271027,65.79888397216797,383.0,50.0,10.139641898519772,234.59099446172706,19150,19150.0,113.96169185638428
0.4299314022064209,-22019831808.0,-66.80884063720703,-0.2975666046142578,19200.0,0.20253466814756393,65.82799667358398,384.0,50.0,3.338876493255844,207.78693722257452,19200,19200.0,114.2023229598999
0.4299314022064209,-22406562529.28,-67.1212225341797,-0.3038695755600929,19250.0,0.19999899387359618,66.16744750976562,385.0,50.0,0.8314712177538279,212.3332692093513,19250,19250.0,114.43780207633972
0.4299314022064209,-22727460454.4,-67.23807220458984,-0.2946115380525589,19300.0,0.20775538980960845,66.28965698242187,386.0,50.0,13.539806577036291,180.2534883441088,19300,19300.0,114.71518898010254
0.4299314022064209,-23189458944.0,-67.57294830322266,-0.25825827978551386,19350.0,0.20848230481147767,66.6563673400879,387.0,50.0,9.502926502563406,190.49086218798823,19350,19350.0,114.97766780853271
0.4299314022064209,-23440283893.76,-67.5755694580078,-0.2733329465985298,19400.0,0.2143615674972534,66.6507357788086,388.0,50.0,-1.3830089851822613,177.03939326404225,19400,19400.0,115.26009202003479
0.4299314022064209,-23677257400.32,-67.59833038330078,-0.2895067775994539,19450.0,0.21237974047660826,66.65579193115235,389.0,50.0,6.460661608383889,192.73239250227,19450,19450.0,115.51951909065247
0.4299314022064209,-24162598338.56,-67.94063903808593,-0.273108007311821,19500.0,0.19997287809848785,67.01701934814453,390.0,50.0,12.469990043640136,211.8125680488194,19500,19500.0,115.75557780265808
0.4299314022064209,-24080478863.36,-67.53919403076172,-0.3348198223114014,19550.0,0.2106188440322876,66.58526519775391,391.0,50.0,15.107062641976475,70.97825792651558,19550,19550.0,116.46002006530762
0.4299314022064209,-24545962639.36,-67.79760162353516,-0.3129605263471603,19600.0,0.20999538123607636,66.82448974609375,392.0,50.0,7.736240531898355,259.25140247686437,19600,19600.0,116.65288305282593
0.4299314022064209,-25259451105.28,-68.45802032470704,-0.26954734802246094,19650.0,0.20828139305114746,67.5364306640625,393.0,50.0,13.119723104232095,195.21483711400856,19650,19650.0,116.909010887146
0.4299314022064209,-25457623859.2,-68.4144073486328,-0.2963204422593117,19700.0,0.2100673484802246,67.47271820068359,394.0,50.0,2.8833760089602603,192.50752946381772,19700,19700.0,117.16874194145203
0.4299314022064209,-25758055874.56,-68.51564910888672,-0.28834583804011343,19750.0,0.20134427309036254,67.58869689941406,395.0,50.0,-0.00107827982808395,201.93135216798083,19750,19750.0,117.4163510799408
0.4299314022064209,-26177155235.84,-68.65572296142578,-0.2789160729944706,19800.0,0.21430169701576232,67.7157260131836,396.0,50.0,3.2336225611244025,211.56768666443378,19800,19800.0,117.65268301963806
0.4299314022064209,-26782288773.12,-69.10562591552734,-0.2507909253239632,19850.0,0.20261725246906281,68.1694189453125,397.0,50.0,-1.0120081977813697,203.43061792057955,19850,19850.0,117.89846682548523
0.4299314022064209,-26996075642.88,-68.99810729980469,-0.27464539140462874,19900.0,0.21458683788776398,68.06544921875,398.0,50.0,15.551511615113544,199.8041166001654,19900,19900.0,118.14871287345886
0.4299314022064209,-27543837818.88,-69.40863861083984,-0.27042732149362564,19950.0,0.2078425991535187,68.50472442626953,399.0,50.0,-3.1969644469019407,201.60076904590244,19950,19950.0,118.39672875404358
0.4299314022064209,-28137377136.64,-69.81161804199219,-0.22746799141168594,20000.0,0.21416675567626953,68.93457763671876,400.0,50.0,-2.1914241383445976,203.31898795783448,20000,20000.0,118.642648935318
0.4299314022064209,-28446663393.28,-69.79044921875,-0.22039455287158488,20050.0,0.2129917722940445,68.87683624267578,401.0,50.0,1.946120413974878,72.16933132407188,20050,20050.0,119.33546495437622
0.4299314022064209,-28787622379.52,-69.87433563232422,-0.22836650911718606,20100.0,0.2102978152036667,68.99053436279297,402.0,50.0,2.483528393751019,298.34902741283133,20100,20100.0,119.50305485725403
0.4299314022064209,-29205728952.32,-70.01805786132813,-0.23826175019145013,20150.0,0.2003670245409012,69.10879943847657,403.0,50.0,8.7742864976558,224.48183991119856,20150,20150.0,119.72579097747803
0.4299314022064209,-29464740249.6,-69.9754574584961,-0.23183007657527924,20200.0,0.20591533720493316,69.0690902709961,404.0,50.0,5.583580203124644,187.419746907843,20200,20200.0,119.99257302284241
0.4299314022064209,-30161470914.56,-70.43835876464844,-0.21431729704141617,20250.0,0.20114746570587158,69.56885711669922,405.0,50.0,4.466693401932879,192.32992141365546,20250,20250.0,120.25254392623901
0.4299314022064209,-30189977354.24,-70.08238006591797,-0.2576114569604397,20300.0,0.21215769588947297,69.14107269287109,406.0,50.0,6.421374218295792,188.56618265226942,20300,20300.0,120.51770496368408
0.4299314022064209,-30729187328.0,-70.46177825927734,-0.25553869135677815,20350.0,0.21573891758918762,69.55775360107423,407.0,50.0,5.375452289353081,163.10919435186878,20350,20350.0,120.82424783706665
0.4299314022064209,-31039389368.32,-70.48983306884766,-0.267298199236393,20400.0,0.19378211319446564,69.60353790283203,408.0,50.0,-0.6730572342903418,181.8756726613932,20400,20400.0,121.09916186332703
0.4299314022064209,-31224874598.4,-70.29785552978515,-0.29215798661112785,20450.0,0.19697816252708436,69.38031433105469,409.0,50.0,14.887227418828113,156.3632703427142,20450,20450.0,121.41893100738525
0.4299314022064209,-31941202411.52,-70.72491821289063,-0.239264996945858,20500.0,0.20834895372390747,69.84871337890625,410.0,50.0,-0.5656969813849653,178.2525545981066,20500,20500.0,121.69943308830261
0.4299314022064209,-32268390154.24,-70.80987701416015,-0.25192309692502024,20550.0,0.20513588309288025,69.95247436523438,411.0,50.0,3.2373882598397827,64.30265498284926,20550,20550.0,122.47700476646423
0.4299314022064209,-32793380208.64,-70.98740417480468,-0.2640340882539749,20600.0,0.1936681753396988,70.11044952392578,412.0,50.0,14.639620872093385,197.34205075943424,20600,20600.0,122.73037385940552
0.4299314022064209,-33168472473.6,-70.98795043945313,-0.24303958237171172,20650.0,0.1971161526441574,70.07886749267578,413.0,50.0,8.16166219354965,161.15513034791462,20650,20650.0,123.04063391685486
0.4299314022064209,-34007126753.28,-71.53226348876953,-0.22019316062331198,20700.0,0.18944177091121672,70.6657211303711,414.0,50.0,15.183661391247565,149.78897498769706,20700,20700.0,123.37443780899048
0.4299314022064209,-34130672599.04,-71.41070770263671,-0.27173397421836853,20750.0,0.1966248893737793,70.53401428222656,415.0,50.0,9.855757656638533,179.42932434397966,20750,20750.0,123.6530990600586
0.4299314022064209,-34867642531.84,-71.73983032226562,-0.22714004050940276,20800.0,0.1992444998025894,70.86260406494141,416.0,50.0,20.957105540540027,130.31835267667668,20800,20800.0,124.03677606582642
0.4299314022064209,-35638333112.32,-72.094033203125,-0.17931957922875882,20850.0,0.19565070748329164,71.22750122070312,417.0,50.0,1.57173052381515,169.3021093013343,20850,20850.0,124.33210706710815
0.4299314022064209,-35751702609.92,-71.94955963134765,-0.21102051615715026,20900.0,0.18952340066432952,71.10482971191406,418.0,50.0,9.35828640916508,165.07535690924504,20900,20900.0,124.63499975204468
0.4299314022064209,-36231023738.88,-72.05712036132813,-0.2198105627298355,20950.0,0.18403855562210084,71.18292297363281,419.0,50.0,-3.3303584626769265,167.8785278352364,20950,20950.0,124.93283581733704
0.4299314022064209,-36625118658.56,-72.11497802734375,-0.23632156014442443,21000.0,0.19125738650560378,71.24463165283203,420.0,50.0,2.0058530731649373,169.90150153848148,21000,21000.0,125.22712397575378
0.4299314022064209,-37109611888.64,-72.26359405517579,-0.24642762735486032,21050.0,0.1910432493686676,71.38437774658203,421.0,50.0,-1.2769578692311292,69.25227166981642,21050,21050.0,125.94912099838257
0.4299314022064209,-37689199165.44,-72.44698089599609,-0.23110288336873056,21100.0,0.20893804252147674,71.60392761230469,422.0,50.0,-1.6199016424599648,284.23973077115954,21100,21100.0,126.12502980232239
0.4299314022064209,-38566868910.08,-72.82291809082031,-0.195086972117424,21150.0,0.1962006199359894,71.94674224853516,423.0,50.0,8.174661803784597,203.10337280180988,21150,21150.0,126.3712100982666
0.4299314022064209,-38888083128.32,-72.87608459472656,-0.203915344029665,21200.0,0.1922930359840393,72.0237759399414,424.0,50.0,13.56070810997338,198.56159792155066,21200,21200.0,126.62302279472351
0.4299314022064209,-38823645020.16,-72.52296630859375,-0.2545339772105217,21250.0,0.19165959417819978,71.6861343383789,425.0,50.0,9.090449758914932,202.31355846360887,21250,21250.0,126.8701651096344
0.4299314022064209,-39973073715.2,-73.09846343994141,-0.1878259951993823,21300.0,0.20455135583877562,72.24489837646485,426.0,50.0,13.073974945137776,186.42593950707825,21300,21300.0,127.13836908340454
0.4299314022064209,-40187989360.64,-72.99588104248046,-0.21976799577474593,21350.0,0.1945568871498108,72.1263507080078,427.0,50.0,4.8018309476176935,200.73722750005982,21350,21350.0,127.38745188713074
0.4299314022064209,-40767434260.48,-73.19967193603516,-0.22258543740957976,21400.0,0.19125370562076568,72.37299499511718,428.0,50.0,1.8364716232181841,200.75567498126128,21400,21400.0,127.6365110874176
0.4299314022064209,-41420633866.24,-73.34105682373047,-0.19682308971881868,21450.0,0.2145094734430313,72.4658218383789,429.0,50.0,5.830929095329127,201.0156449191874,21450,21450.0,127.88524913787842
0.4299314022064209,-42086961807.36,-73.5507681274414,-0.2010741826146841,21500.0,0.2034673410654068,72.68352111816407,430.0,50.0,5.072085340554494,167.58794732829674,21500,21500.0,128.18359994888306
0.4299314022064209,-42141850828.8,-73.33365783691406,-0.224666535705328,21550.0,0.2018108469247818,72.49801666259765,431.0,50.0,6.114379351926747,67.6234950267927,21550,21550.0,128.92298793792725
0.4299314022064209,-42831189606.4,-73.55103454589843,-0.2190672156214714,21600.0,0.19362832725048065,72.69060699462891,432.0,50.0,-3.470178289732445,333.3331214058422,21600,21600.0,129.072988986969
0.4299314022064209,-43845452431.36,-74.00263549804687,-0.16959869876503944,21650.0,0.19842616349458694,73.13972503662109,433.0,50.0,3.9938242438188514,204.2459032040032,21650,21650.0,129.31779789924622
0.4299314022064209,-43820154552.32,-73.73480010986329,-0.2370174151659012,21700.0,0.18829676926136016,72.89961242675781,434.0,50.0,7.303657296105051,150.2688449412439,21700,21700.0,129.65053606033325
0.4299314022064209,-44479183912.96,-73.8735580444336,-0.23270398452878,21750.0,0.17792677760124206,73.01186798095704,435.0,50.0,17.839646923432113,158.08031888150262,21750,21750.0,129.96683192253113
0.4299314022064209,-44930497576.96,-73.96103881835937,-0.23554938435554504,21800.0,0.18949967980384827,73.14294647216796,436.0,50.0,6.51065979270345,196.41661655924008,21800,21800.0,130.22139286994934
0.4299314022064209,-45642858987.52,-74.10674285888672,-0.22767029345035553,21850.0,0.17884192943573,73.25914245605469,437.0,50.0,3.9196077570500165,180.35626595848063,21850,21850.0,130.4986228942871
0.4299314022064209,-46562654945.28,-74.43078918457032,-0.18347230609506368,21900.0,0.2016942048072815,73.57622314453126,438.0,50.0,2.213160334428153,176.22459654887,21900,21900.0,130.78235292434692
0.4299314022064209,-46693241978.88,-74.3201254272461,-0.2321305464208126,21950.0,0.18833158135414124,73.49016082763671,439.0,50.0,9.228757209224915,147.42824202630598,21950,21950.0,131.1215009689331
0.4299314022064209,-47830499819.52,-74.75563415527344,-0.1819970141351223,22000.0,0.18918440043926238,73.94515808105469,440.0,50.0,5.679288632006571,174.32655972309274,22000,22000.0,131.40832114219666
0.4299314022064209,-48569611386.88,-74.89151733398438,-0.17182657539844512,22050.0,0.18036165475845337,74.05735260009766,441.0,50.0,-3.3139597307246653,69.37931025356515,22050,22050.0,132.12899684906006
0.4299314022064209,-48316968796.16,-74.41784942626953,-0.22172412574291228,22100.0,0.17721697449684143,73.59335723876953,442.0,50.0,1.4992195365649437,263.18258427318807,22100,22100.0,132.3189787864685
0.4299314022064209,-49408622919.68,-74.95086761474609,-0.19921289503574371,22150.0,0.1799794465303421,74.16113098144531,443.0,50.0,1.7161425181964578,190.7122499868139,22150,22150.0,132.58115315437317
0.4299314022064209,-49916326707.2,-74.93215881347656,-0.19797012478113174,22200.0,0.2013157618045807,74.12792724609375,444.0,50.0,-2.587942512403547,173.08775416552493,22200,22200.0,132.8700249195099
0.4299314022064209,-50544135372.8,-75.08368804931641,-0.22835768550634383,22250.0,0.18225948065519332,74.24377960205078,445.0,50.0,1.2925981449342654,186.41748801752215,22250,22250.0,133.13824105262756
0.4299314022064209,-50950959759.36,-75.01160034179688,-0.22113557085394858,22300.0,0.18448900938034057,74.1863623046875,446.0,50.0,1.4689439156398691,212.39025526506347,22300,22300.0,133.37365794181824
0.4299314022064209,-52024383897.6,-75.39437286376953,-0.1896919323503971,22350.0,0.18216437876224517,74.58666137695313,447.0,50.0,11.324080808759335,210.94925313081526,22350,22350.0,133.61068296432495
0.4299314022064209,-52327535247.36,-75.33169219970704,-0.22560082994401454,22400.0,0.17792431861162186,74.50433258056641,448.0,50.0,6.069228791019981,212.02521471431243,22400,22400.0,133.8465061187744
0.4299314022064209,-52922744012.8,-75.34221740722656,-0.20529345750808717,22450.0,0.2007971340417862,74.54472076416016,449.0,50.0,-1.1442430269719495,197.43568742085964,22450,22450.0,134.09975290298462
0.4299314022064209,-54174197186.56,-75.81428802490234,-0.17411203153431415,22500.0,0.1759376335144043,75.02268981933594,450.0,50.0,9.506647260033397,203.60699029126215,22500,22500.0,134.34532499313354
0.4299314022064209,-54758405734.4,-75.85845672607422,-0.16834273405373096,22550.0,0.18940677762031555,75.05264495849609,451.0,50.0,7.993831212889436,68.85367110883476,22550,22550.0,135.07150292396545
0.4299314022064209,-55410069831.68,-75.895615234375,-0.15847457483410834,22600.0,0.20241037905216216,75.07502471923829,452.0,50.0,7.843329049178253,249.23221363250124,22600,22600.0,135.2721209526062
0.4299314022064209,-55823981281.28,-75.89739776611329,-0.198711326867342,22650.0,0.18196236491203308,75.06087951660156,453.0,50.0,4.404294735987708,189.07723114346018,22650,22650.0,135.5365629196167
0.4299314022064209,-56582146621.44,-76.0110498046875,-0.18051883194595575,22700.0,0.19881942093372346,75.18679962158203,454.0,50.0,1.1582074137647531,218.5924583250381,22700,22700.0,135.76530003547668
0.4299314022064209,-57296766074.88,-76.15717742919922,-0.1846572545170784,22750.0,0.1845408970117569,75.34664733886719,455.0,50.0,0.10165927452886869,205.2385370302952,22750,22750.0,136.00891971588135
0.4299314022064209,-57299863470.08,-75.94367736816406,-0.23123883500695228,22800.0,0.18481062293052675,75.16560516357421,456.0,50.0,5.636170660005366,171.17246681886337,22800,22800.0,136.3010230064392
0.4299314022064209,-58388514406.4,-76.201025390625,-0.20464034587144853,22850.0,0.18771898984909058,75.35035827636719,457.0,50.0,7.699601666559232,195.83664840111012,22850,22850.0,136.55633783340454
0.4299314022064209,-58617124126.72,-76.06220367431641,-0.22798842392861843,22900.0,0.18545991867780687,75.23842224121094,458.0,50.0,16.515348089493397,193.6085200038405,22900,22900.0,136.81459212303162
0.4299314022064209,-59753285550.08,-76.41316436767578,-0.20006151109933853,22950.0,0.1793391811847687,75.64511901855468,459.0,50.0,-3.283843382259306,187.62867781919167,22950,22950.0,137.08107709884644
0.4299314022064209,-60747437506.56,-76.62348236083984,-0.1846410861611366,23000.0,0.1839384290575981,75.80455657958984,460.0,50.0,10.804943136509854,171.06662957908586,23000,23000.0,137.373361825943
0.4299314022064209,-61238129786.88,-76.55704895019531,-0.1900944785773754,23050.0,0.1835085305571556,75.77400756835938,461.0,50.0,13.489895594049843,68.73852802047388,23050,23050.0,138.1007559299469
0.4299314022064209,-62312509276.16,-76.83169189453125,-0.15169920459389685,23100.0,0.2033624005317688,76.03065124511718,462.0,50.0,2.755800138085977,302.8597010614485,23100,23100.0,138.2658498287201
0.4299314022064209,-62850081914.88,-76.91385284423828,-0.19093744680285454,23150.0,0.18120279133319855,76.1044058227539,463.0,50.0,-0.8948493402109499,181.29926041833264,23150,23150.0,138.54163789749146
0.4299314022064209,-63562417274.88,-76.91714599609375,-0.17326106749475,23200.0,0.19543463468551636,76.10035034179687,464.0,50.0,15.189699286740336,190.95849298503765,23200,23200.0,138.8034749031067
0.4299314022064209,-64816094904.32,-77.28859375,-0.15718981966376305,23250.0,0.1808834481239319,76.50535247802735,465.0,50.0,14.810012937163558,197.07759896628684,23250,23250.0,139.05718398094177
0.4299314022064209,-65660300001.28,-77.39045043945312,-0.150872290879488,23300.0,0.19857471108436583,76.6019219970703,466.0,50.0,-0.3046520979405578,190.88566531621282,23300,23300.0,139.31911993026733
0.4299314022064209,-66626281635.84,-77.55909576416016,-0.11281567804515362,23350.0,0.18166544079780578,76.7825845336914,467.0,50.0,9.66417210615354,167.71366147487757,23350,23350.0,139.6172480583191
0.4299314022064209,-66732419317.76,-77.32995819091796,-0.16885029025375842,23400.0,0.17808785259723664,76.5357586669922,468.0,50.0,7.5319390001500395,169.74940102311726,23400,23400.0,139.91179990768433
0.4299314022064209,-66982509936.64,-77.19388488769532,-0.1986381933093071,23450.0,0.18429139852523804,76.37683532714844,469.0,50.0,1.233254149465692,164.095245025661,23450,23450.0,140.21650195121765
0.4299314022064209,-68652814336.0,-77.69785278320313,-0.1509104472398758,23500.0,0.17326513648033143,76.92835571289062,470.0,50.0,4.613769792048112,178.57768119594948,23500,23500.0,140.49649310112
0.4299314022064209,-68498270617.6,-77.37978790283204,-0.19666812524199487,23550.0,0.18378947526216508,76.60924163818359,471.0,50.0,20.007710387000394,65.22477590521974,23550,23550.0,141.26307201385498
0.4299314022064209,-68770849587.2,-77.21004974365235,-0.2167252355068922,23600.0,0.18580790758132934,76.42681274414062,472.0,50.0,11.356435690385107,203.3231275171169,23600,23600.0,141.50898694992065
0.4299314022064209,-70590470553.6,-77.81202178955078,-0.16522378202527763,23650.0,0.1796330016851425,77.04003387451172,473.0,50.0,16.70762743576469,169.89517004488084,23650,23650.0,141.80328702926636
0.4299314022064209,-71445569208.32,-77.9104428100586,-0.147584998421371,23700.0,0.1684783685207367,77.15832244873047,474.0,50.0,11.020840127152384,176.53626770285467,23700,23700.0,142.0865159034729
0.4299314022064209,-72845475348.48,-78.26590972900391,-0.13427188597619533,23750.0,0.18628920316696168,77.49072540283203,475.0,50.0,6.626987083138726,169.97724074878585,23750,23750.0,142.38067293167114
0.4299314022064209,-73390768783.36,-78.23742156982422,-0.14436914548277854,23800.0,0.17609536051750183,77.48457550048828,476.0,50.0,10.015413840116828,196.5872969002952,23800,23800.0,142.63501381874084
0.4299314022064209,-74111738511.36,-78.24731353759766,-0.1630608331412077,23850.0,0.17520722925662993,77.49543212890624,477.0,50.0,19.730953674067642,177.4463955270165,23850,23850.0,142.9167890548706
0.4299314022064209,-75788580618.24,-78.71103912353516,-0.12238249190151691,23900.0,0.17697481334209442,77.96245971679687,478.0,50.0,12.864922283005587,187.37704551851076,23900,23900.0,143.18363094329834
0.4299314022064209,-76120668241.92,-78.46704315185546,-0.1279152051359415,23950.0,0.17426023066043853,77.68260192871094,479.0,50.0,-1.1285898465702466,179.9850838625072,23950,23950.0,143.46143293380737
0.4299314022064209,-76691169935.36,-78.50493133544921,-0.16162496641278268,24000.0,0.18588286489248276,77.73419555664063,480.0,50.0,16.548155297041227,167.8061239594894,24000,24000.0,143.75939679145813
0.4299314022064209,-77652403814.4,-78.59079864501953,-0.1257943606376648,24050.0,0.18160868167877198,77.83513488769532,481.0,50.0,0.6515579708203152,71.05624895600288,24050,24050.0,144.46306681632996
0.4299314022064209,-78470227230.72,-78.69289184570313,-0.14606634356081485,24100.0,0.17109622478485106,77.92834686279296,482.0,50.0,5.095539605825071,273.0702222685191,24100,24100.0,144.64617085456848
0.4299314022064209,-79412176158.72,-78.77769989013672,-0.13528250709176062,24150.0,0.17201590806245803,78.02035186767579,483.0,50.0,0.1491385335479123,173.71358139635055,24150,24150.0,144.93400192260742
0.4299314022064209,-80690477137.92,-79.00823211669922,-0.12276806071400642,24200.0,0.17263572812080383,78.27800476074219,484.0,50.0,2.8338253892365266,156.35510987679632,24200,24200.0,145.2537899017334
0.4299314022064209,-80716342558.72,-78.67328369140625,-0.1676727080345154,24250.0,0.17549615681171418,77.90213653564453,485.0,50.0,13.221502913007658,194.11280126029965,24250,24250.0,145.51136994361877
0.4299314022064209,-81332577566.72,-78.71405334472657,-0.1886739069223404,24300.0,0.17517158955335618,77.9618569946289,486.0,50.0,9.399986806035562,217.98647895756588,24300,24300.0,145.74074292182922
0.4299314022064209,-83013996052.48,-79.04666290283203,-0.1254872091114521,24350.0,0.18938229322433472,78.27682922363282,487.0,50.0,10.85107101905995,187.61944552049664,24350,24350.0,146.00724005699158
0.4299314022064209,-82715965521.92,-78.69838989257812,-0.18558816045522689,24400.0,0.18215059220790863,77.92354705810547,488.0,50.0,0.8436541393113508,190.53516786230858,24400,24400.0,146.26965999603271
0.4299314022064209,-84605630873.6,-79.12533569335938,-0.1560824802145362,24450.0,0.1764668756723404,78.36991577148437,489.0,50.0,-0.526482230659802,200.70821800864408,24450,24450.0,146.51877880096436
0.4299314022064209,-85431865507.84,-79.16609558105469,-0.1551340389251709,24500.0,0.1884271967411041,78.39479095458984,490.0,50.0,1.5404691844719895,198.84890285460713,24500,24500.0,146.77022695541382
0.4299314022064209,-86284460687.36,-79.27108581542969,-0.14857698619365692,24550.0,0.17529134929180146,78.52069763183594,491.0,50.0,22.64716467557717,70.68107418008988,24550,24550.0,147.47762989997864
0.4299314022064209,-88227781345.28,-79.68621887207031,-0.10264238283038139,24600.0,0.1744359877705574,78.98660095214844,492.0,50.0,6.772402945370272,270.7634148577272,24600,24600.0,147.6622941493988
0.4299314022064209,-88121500631.04,-79.37184204101563,-0.16024824276566504,24650.0,0.1972699350118637,78.61243011474609,493.0,50.0,9.744422407537119,201.19924092846193,24650,24650.0,147.91080498695374
0.4299314022064209,-88835169648.64,-79.32046020507812,-0.1531321243941784,24700.0,0.1815507620573044,78.57737762451171,494.0,50.0,17.004890493966197,167.60415359643494,24700,24700.0,148.2091269493103
0.4299314022064209,-91080274739.2,-79.85992889404297,-0.10633572340011596,24750.0,0.1705109205842018,79.12835113525391,495.0,50.0,0.01961202275024121,206.13808579716186,24750,24750.0,148.45168375968933
0.4299314022064209,-92655300116.48,-80.16099212646485,-0.07613713119179011,24800.0,0.192102392911911,79.42732177734375,496.0,50.0,10.369001490995332,213.1730805394301,24800,24800.0,148.6862349510193
0.4299314022064209,-91968415989.76,-79.64561706542969,-0.14784077659249306,24850.0,0.16836142033338547,78.90011535644531,497.0,50.0,1.7996489126056776,194.3219840346919,24850,24850.0,148.94354009628296
0.4299314022064209,-94331488501.76,-80.19852996826172,-0.1028556789457798,24900.0,0.15920749366283415,79.47776763916016,498.0,50.0,0.3073905608073293,188.8660841091111,24900,24900.0,149.20827913284302
0.4299314022064209,-95177222717.44,-80.23392944335937,-0.08694363474845886,24950.0,0.1741024312376976,79.51830505371093,499.0,50.0,5.3127101794369676,197.56141906079873,24950,24950.0,149.46136593818665
0.4299314022064209,-95896884674.56,-80.2101480102539,-0.14613747715950012,25000.0,0.1698378351330757,79.46863952636718,500.0,50.0,2.0884904398757342,199.65194344271347,25000,25000.0,149.71180176734924
0.4299314022064209,-96252777267.2,-80.00587188720704,-0.13680528581142426,25050.0,0.1783269476890564,79.2731982421875,501.0,50.0,9.179310949933985,68.35827833069253,25050,25050.0,150.4432430267334
0.4299314022064209,-96777465036.8,-79.92195678710938,-0.17229698449373246,25100.0,0.17957010269165039,79.16799499511718,502.0,50.0,-2.175908222012797,253.2966641423383,25100,25100.0,150.64064002037048
0.4299314022064209,-97773830144.0,-79.9857308959961,-0.14798928171396256,25150.0,0.1764237517118454,79.23990600585938,503.0,50.0,1.1751888033255415,200.6790248682332,25150,25150.0,150.88979482650757
0.4299314022064209,-99494539755.52,-80.29719482421875,-0.12468851670622826,25200.0,0.17707804322242737,79.56762329101562,504.0,50.0,-3.911507640951701,203.14311397662811,25200,25200.0,151.1359269618988
0.4299314022064209,-101063616430.08,-80.52414611816407,-0.12319956175982952,25250.0,0.16925981134176254,79.81777587890625,505.0,50.0,16.515348089493397,184.1180095976738,25250,25250.0,151.40749287605286
0.4299314022064209,-102166435266.56,-80.61023895263672,-0.10636955812573433,25300.0,0.18157379686832428,79.88910339355469,506.0,50.0,0.9774610215376871,209.1717717370272,25300,25300.0,151.64653182029724
0.4299314022064209,-103054264238.08,-80.6139208984375,-0.10837814088910819,25350.0,0.1735864156484604,79.87713775634765,507.0,50.0,-3.1354594946105436,215.65831175535405,25350,25350.0,151.87838101387024
